(1001)
(T1  D=2.5 CR=0 - ZMIN=-9.1 - flat end mill)
(T2  D=2.5 CR=0 - ZMIN=-13.6 - drill)
G90 G94
G17
G21
G28 G91 Z0
G90

(2D Adaptive1)
T1
S5000 M3
G54
G0 X57.867 Y56.44
Z7.5
Z3.56
Z3.05
G3 X56.362 Y57.898 Z2.964 I-1.238 J0.229 F333.3
X55.599 Y55.949 Z2.877 I0.267 J-1.228
X57.689 Y55.998 Z2.791 I1.029 J0.72
X56.838 Y57.905 Z2.704 I-1.06 J0.67
X55.409 Y56.385 Z2.618 I-0.209 J-1.235
X57.36 Y55.655 Z2.531 I1.218 J0.284
X57.28 Y57.734 Z2.445 I-0.732 J1.013
X55.396 Y56.858 Z2.358 I-0.651 J-1.065
X56.929 Y55.46 Z2.272 I1.232 J-0.189
X57.626 Y57.412 Z2.185 I-0.301 J1.208
X55.559 Y57.301 Z2.099 I-0.997 J-0.743
X56.458 Y55.439 Z2.013 I1.069 J-0.632
X57.827 Y56.987 Z1.926 I0.169 J1.229
X55.874 Y57.65 Z1.84 I-1.197 J-0.318
X56.015 Y55.595 Z1.753 I0.755 J-0.981
X57.854 Y56.518 Z1.667 I0.612 J1.074
X56.294 Y57.856 Z1.58 I-1.225 J0.15
X55.663 Y55.903 Z1.494 I0.334 J-1.187
X57.706 Y56.075 Z1.407 I0.964 J0.766
X56.76 Y57.891 Z1.321 I-1.077 J0.593
X55.452 Y56.318 Z1.234 I-0.131 J-1.221
X57.405 Y55.72 Z1.148 I1.176 J0.351
X57.203 Y57.75 Z1.061 I-0.777 J0.948
X55.41 Y56.781 Z0.975 I-0.574 J-1.081
X56.995 Y55.504 Z0.889 I1.217 J-0.111
X57.561 Y57.456 Z0.802 I-0.367 J1.164
X55.544 Y57.224 Z0.716 I-0.931 J-0.787
X56.535 Y55.455 Z0.629 I1.084 J-0.554
X57.782 Y57.051 Z0.543 I0.092 J1.213
X55.831 Y57.584 Z0.456 I-1.153 J-0.383
X56.093 Y55.581 Z0.37 I0.797 J-0.915
X57.837 Y56.595 Z0.283 I0.535 J1.087
X56.231 Y57.811 Z0.197 I-1.208 J0.074
X55.73 Y55.862 Z0.11 I0.398 J-1.141
X57.719 Y56.152 Z0.024 I0.898 J0.807
X56.684 Y57.873 Z-0.063 I-1.09 J0.516
X55.498 Y56.256 Z-0.149 I-0.055 J-1.203
X57.445 Y55.787 Z-0.235 I1.129 J0.413
X57.126 Y57.761 Z-0.322 I-0.816 J0.881
X55.43 Y56.706 Z-0.408 I-0.497 J-1.092
X57.057 Y55.551 Z-0.495 I1.198 J-0.036
X57.493 Y57.495 Z-0.581 I-0.428 J1.117
X55.534 Y57.147 Z-0.668 I-0.864 J-0.826
X56.61 Y55.476 Z-0.754 I1.094 J-0.478
X57.734 Y57.112 Z-0.841 I0.018 J1.192
X55.794 Y57.517 Z-0.927 I-1.105 J-0.443
X56.169 Y55.573 Z-1.014 I0.834 J-0.847
X57.815 Y56.668 Z-1.1 I0.459 J1.095
X55.44 Y56.668 I-1.188 J0
X57.815 Y56.668 I1.188 J0
G1 X57.838 Y57.343 F1000
X57.845 Y57.427
X57.837 Y57.577
X57.798 Y57.722
X57.736 Y57.858
X57.653 Y57.983
X57.555 Y58.096
X57.443 Y58.196
X57.32 Y58.283
X57.189 Y58.355
X57.051 Y58.413
X56.907 Y58.457
X56.76 Y58.487
X56.611 Y58.503
X56.461 Y58.505
X56.312 Y58.493
X56.164 Y58.468
X56.018 Y58.431
X55.877 Y58.381
X55.74 Y58.319
X55.609 Y58.246
X55.485 Y58.162
X55.368 Y58.069
X55.259 Y57.966
X55.158 Y57.854
X55.067 Y57.735
X54.986 Y57.608
X54.916 Y57.476
X54.856 Y57.338
X54.808 Y57.196
X54.771 Y57.05
X54.746 Y56.901
X54.732 Y56.75
X54.731 Y56.599
X54.742 Y56.448
X54.766 Y56.298
X54.801 Y56.15
X54.848 Y56.005
X54.906 Y55.865
X54.976 Y55.73
X55.056 Y55.6
X55.147 Y55.478
X55.247 Y55.363
X55.355 Y55.256
X55.473 Y55.159
X55.597 Y55.071
X55.729 Y54.993
X55.866 Y54.927
X56.008 Y54.871
X56.154 Y54.827
X56.303 Y54.795
X56.455 Y54.775
X56.607 Y54.767
X56.76 Y54.772
X56.911 Y54.788
X57.061 Y54.817
X57.208 Y54.858
X57.352 Y54.91
X57.491 Y54.974
X57.624 Y55.049
X57.751 Y55.134
X57.87 Y55.229
X57.982 Y55.333
X58.084 Y55.446
X58.178 Y55.567
X58.261 Y55.695
X58.348 Y55.855
X58.441 Y56.066
X58.542 Y56.352
X58.61 Y56.614
X58.647 Y56.822
X58.666 Y57.021
X58.669 Y57.207
X58.658 Y57.376
X58.633 Y57.547
X58.596 Y57.71
X58.547 Y57.863
X58.485 Y58.016
X58.41 Y58.164
X58.327 Y58.302
X58.23 Y58.435
X58.12 Y58.564
X57.999 Y58.684
X57.871 Y58.793
X57.731 Y58.893
X57.58 Y58.984
X57.418 Y59.064
X57.25 Y59.132
X57.076 Y59.186
X56.896 Y59.226
X56.711 Y59.252
X56.521 Y59.263
X56.328 Y59.259
X56.133 Y59.239
X55.939 Y59.204
X55.746 Y59.152
X55.557 Y59.085
X55.372 Y59.002
X55.194 Y58.903
X55.023 Y58.791
X54.86 Y58.663
X54.708 Y58.523
X54.566 Y58.37
X54.437 Y58.205
X54.32 Y58.03
X54.218 Y57.846
X54.131 Y57.653
X54.059 Y57.453
X54.003 Y57.247
X53.964 Y57.037
X53.942 Y56.825
X53.937 Y56.611
X53.949 Y56.396
X53.978 Y56.184
X54.025 Y55.974
X54.088 Y55.768
X54.168 Y55.567
X54.263 Y55.374
X54.374 Y55.189
X54.499 Y55.013
X54.638 Y54.848
X54.79 Y54.694
X54.954 Y54.553
X55.129 Y54.426
X55.313 Y54.313
X55.506 Y54.215
X55.707 Y54.133
X55.913 Y54.067
X56.124 Y54.018
X56.338 Y53.986
X56.554 Y53.971
X56.771 Y53.974
X56.986 Y53.994
X57.2 Y54.031
X57.41 Y54.086
X57.614 Y54.157
X57.813 Y54.244
X58.003 Y54.347
X58.185 Y54.465
X58.357 Y54.597
X58.522 Y54.746
X58.684 Y54.919
X58.848 Y55.123
X58.998 Y55.345
X59.135 Y55.589
X59.253 Y55.843
X59.349 Y56.102
X59.421 Y56.361
X59.471 Y56.617
X59.499 Y56.87
X59.507 Y57.118
X59.495 Y57.363
X59.464 Y57.604
X59.414 Y57.838
X59.346 Y58.066
X59.26 Y58.287
X59.157 Y58.501
X59.038 Y58.704
X58.902 Y58.898
X58.751 Y59.081
X58.584 Y59.252
X58.403 Y59.411
X58.208 Y59.555
X58.002 Y59.684
X57.784 Y59.797
X57.555 Y59.893
X57.318 Y59.971
X57.072 Y60.03
X56.821 Y60.07
X56.565 Y60.089
X56.306 Y60.088
X56.046 Y60.066
X55.787 Y60.023
X55.531 Y59.959
X55.279 Y59.873
X55.033 Y59.768
X54.794 Y59.642
X54.566 Y59.496
X54.349 Y59.332
X54.144 Y59.15
X53.955 Y58.952
X53.781 Y58.738
X53.624 Y58.51
X53.485 Y58.269
X53.366 Y58.017
X53.267 Y57.755
X53.19 Y57.486
X53.134 Y57.211
X53.1 Y56.932
X53.089 Y56.65
X53.1 Y56.369
X53.134 Y56.088
X53.191 Y55.811
X53.269 Y55.539
X53.369 Y55.274
X53.491 Y55.018
X53.632 Y54.772
X53.793 Y54.538
X53.973 Y54.318
X54.169 Y54.112
X54.382 Y53.923
X54.609 Y53.752
X54.849 Y53.599
X55.1 Y53.466
X55.362 Y53.354
X55.632 Y53.263
X55.908 Y53.194
X56.189 Y53.147
X56.473 Y53.123
X56.758 Y53.122
X57.042 Y53.144
X57.323 Y53.189
X57.6 Y53.256
X57.871 Y53.344
X58.133 Y53.455
X58.388 Y53.587
X58.634 Y53.741
X58.876 Y53.92
X59.108 Y54.124
X59.331 Y54.352
X59.539 Y54.604
X59.728 Y54.875
X59.897 Y55.163
X60.042 Y55.462
X60.161 Y55.771
X60.255 Y56.085
X60.322 Y56.403
X60.363 Y56.722
X60.379 Y57.041
X60.368 Y57.357
X60.333 Y57.669
X60.273 Y57.975
X60.189 Y58.274
X60.082 Y58.564
X59.953 Y58.844
X59.801 Y59.113
X59.628 Y59.369
X59.434 Y59.611
X59.221 Y59.837
X58.99 Y60.046
X58.742 Y60.236
X58.478 Y60.407
X58.2 Y60.557
X57.908 Y60.685
X57.606 Y60.79
X57.294 Y60.871
X56.974 Y60.927
X56.649 Y60.957
X56.321 Y60.961
X55.992 Y60.938
X55.663 Y60.889
X55.338 Y60.813
X55.018 Y60.711
X54.706 Y60.583
X54.404 Y60.429
X54.114 Y60.251
X53.837 Y60.05
X53.577 Y59.825
X53.335 Y59.58
X53.112 Y59.316
X52.911 Y59.033
X52.733 Y58.734
X52.579 Y58.422
X52.45 Y58.097
X52.347 Y57.762
X52.271 Y57.419
X52.223 Y57.07
X52.204 Y56.719
X52.212 Y56.366
X52.249 Y56.015
X52.314 Y55.667
X52.406 Y55.325
X52.526 Y54.992
X52.673 Y54.669
X52.845 Y54.359
X53.041 Y54.063
X53.261 Y53.784
X53.502 Y53.524
X53.764 Y53.283
X54.044 Y53.064
X54.341 Y52.868
X54.653 Y52.697
X54.977 Y52.551
X55.313 Y52.432
X55.657 Y52.34
X56.007 Y52.276
X56.361 Y52.24
X56.717 Y52.233
X57.073 Y52.254
X57.425 Y52.304
X57.773 Y52.382
X58.115 Y52.488
X58.449 Y52.622
X58.774 Y52.784
X59.09 Y52.974
X59.394 Y53.193
X59.685 Y53.439
X59.961 Y53.714
X60.217 Y54.013
X60.45 Y54.335
X60.657 Y54.676
X60.837 Y55.033
X60.987 Y55.402
X61.107 Y55.781
X61.195 Y56.167
X61.252 Y56.556
X61.277 Y56.946
X61.271 Y57.335
X61.234 Y57.72
X61.166 Y58.099
X61.069 Y58.471
X60.942 Y58.832
X60.787 Y59.182
X60.605 Y59.517
X60.396 Y59.837
X60.162 Y60.14
X59.904 Y60.423
X59.623 Y60.686
X59.321 Y60.926
X58.999 Y61.141
X58.66 Y61.331
X58.305 Y61.494
X57.937 Y61.629
X57.556 Y61.734
X57.167 Y61.808
X56.771 Y61.852
X56.371 Y61.863
X55.97 Y61.842
X55.569 Y61.789
X55.172 Y61.703
X54.782 Y61.586
X54.401 Y61.437
X54.031 Y61.256
X53.676 Y61.046
X53.337 Y60.808
X53.018 Y60.542
X52.72 Y60.25
X52.446 Y59.935
X52.197 Y59.597
X51.976 Y59.24
X51.783 Y58.865
X51.621 Y58.476
X51.491 Y58.073
X51.393 Y57.661
X51.328 Y57.242
X51.297 Y56.818
X51.3 Y56.393
X51.337 Y55.968
X51.409 Y55.548
X51.514 Y55.135
X51.652 Y54.73
X51.822 Y54.338
X52.023 Y53.961
X52.254 Y53.601
X52.513 Y53.26
X52.799 Y52.941
X53.109 Y52.646
X53.443 Y52.377
X53.797 Y52.135
X54.169 Y51.922
X54.557 Y51.74
X54.959 Y51.59
X55.372 Y51.472
X55.792 Y51.388
X56.219 Y51.338
X56.647 Y51.322
X57.076 Y51.341
X57.503 Y51.394
X57.925 Y51.481
X58.34 Y51.603
X58.747 Y51.758
X59.143 Y51.947
X59.528 Y52.17
X59.897 Y52.427
X60.25 Y52.715
X60.581 Y53.034
X60.889 Y53.382
X61.169 Y53.756
X61.419 Y54.153
X61.638 Y54.569
X61.821 Y55.001
X61.97 Y55.446
X62.082 Y55.9
X62.157 Y56.36
X62.194 Y56.823
X62.195 Y57.286
X62.158 Y57.746
X62.085 Y58.2
X61.976 Y58.645
X61.831 Y59.08
X61.653 Y59.501
X61.441 Y59.906
X61.198 Y60.292
X60.924 Y60.659
X60.621 Y61.002
X60.291 Y61.321
X59.936 Y61.613
X59.557 Y61.876
X59.157 Y62.109
X58.738 Y62.31
X58.302 Y62.477
X57.853 Y62.609
X57.393 Y62.705
X56.924 Y62.764
X56.451 Y62.786
X55.975 Y62.769
X55.501 Y62.714
X55.03 Y62.62
X54.567 Y62.489
X54.114 Y62.32
X53.675 Y62.115
X53.252 Y61.874
X52.849 Y61.6
X52.468 Y61.293
X52.112 Y60.955
X51.783 Y60.589
X51.484 Y60.197
X51.216 Y59.781
X50.983 Y59.345
X50.785 Y58.89
X50.624 Y58.419
X50.5 Y57.937
X50.416 Y57.446
X50.372 Y56.948
X50.367 Y56.449
X50.403 Y55.95
X50.479 Y55.455
X50.594 Y54.967
X50.748 Y54.489
X50.94 Y54.026
X51.169 Y53.579
X51.433 Y53.151
X51.731 Y52.746
X52.06 Y52.366
X52.419 Y52.014
X52.805 Y51.691
X53.216 Y51.401
X53.649 Y51.144
X54.102 Y50.922
X54.57 Y50.738
X55.053 Y50.592
X55.545 Y50.485
X56.044 Y50.418
X56.548 Y50.391
X57.052 Y50.405
X57.555 Y50.459
X58.053 Y50.554
X58.544 Y50.689
X59.026 Y50.864
X59.495 Y51.078
X59.95 Y51.332
X60.386 Y51.624
X60.801 Y51.952
X61.191 Y52.316
X61.553 Y52.712
X61.884 Y53.139
X62.18 Y53.592
X62.44 Y54.069
X62.661 Y54.565
X62.842 Y55.077
X62.98 Y55.602
X63.076 Y56.134
X63.129 Y56.671
X63.138 Y57.21
X63.104 Y57.746
X63.027 Y58.276
X62.909 Y58.797
X62.749 Y59.307
X62.549 Y59.801
X62.31 Y60.278
X62.033 Y60.733
X61.721 Y61.166
X61.374 Y61.572
X60.996 Y61.95
X60.587 Y62.297
X60.151 Y62.611
X59.691 Y62.889
X59.207 Y63.13
X58.705 Y63.333
X58.186 Y63.495
X57.654 Y63.615
X57.113 Y63.692
X56.564 Y63.726
X56.014 Y63.715
X55.463 Y63.661
X54.918 Y63.562
X54.38 Y63.418
X53.854 Y63.232
X53.342 Y63.003
X52.85 Y62.734
X52.379 Y62.424
X51.933 Y62.077
X51.516 Y61.695
X51.13 Y61.279
X50.777 Y60.833
X50.462 Y60.359
X50.184 Y59.86
X49.947 Y59.339
X49.753 Y58.801
X49.602 Y58.247
X49.495 Y57.683
X49.435 Y57.111
X49.42 Y56.536
X49.452 Y55.961
X49.53 Y55.39
X49.653 Y54.826
X49.821 Y54.274
X50.034 Y53.737
X50.289 Y53.218
X50.584 Y52.721
X50.919 Y52.249
X51.291 Y51.806
X51.697 Y51.393
X52.136 Y51.015
X52.603 Y50.673
X53.096 Y50.369
X53.613 Y50.106
X54.149 Y49.885
X54.7 Y49.708
X55.265 Y49.575
X55.838 Y49.489
X56.417 Y49.448
X56.998 Y49.455
X57.577 Y49.507
X58.152 Y49.607
X58.719 Y49.753
X59.276 Y49.945
X59.818 Y50.182
X60.344 Y50.464
X60.848 Y50.79
X61.328 Y51.157
X61.78 Y51.564
X62.2 Y52.009
X62.584 Y52.488
X62.93 Y52.999
X63.235 Y53.536
X63.496 Y54.097
X63.711 Y54.677
X63.879 Y55.272
X63.998 Y55.878
X64.068 Y56.49
X64.089 Y57.104
X64.06 Y57.717
X63.982 Y58.324
X63.856 Y58.923
X63.683 Y59.508
X63.464 Y60.077
X63.199 Y60.626
X62.892 Y61.153
X62.543 Y61.653
X62.155 Y62.124
X61.729 Y62.563
X61.269 Y62.967
X60.777 Y63.333
X60.257 Y63.66
X59.71 Y63.944
X59.141 Y64.184
X58.553 Y64.378
X57.949 Y64.525
X57.334 Y64.623
X56.71 Y64.672
X56.083 Y64.67
X55.457 Y64.618
X54.835 Y64.516
X54.221 Y64.364
X53.619 Y64.162
X53.035 Y63.912
X52.47 Y63.615
X51.93 Y63.272
X51.418 Y62.887
X50.938 Y62.461
X50.492 Y61.997
X50.084 Y61.497
X49.718 Y60.966
X49.394 Y60.405
X49.116 Y59.82
X48.885 Y59.213
X48.704 Y58.59
X48.573 Y57.952
X48.494 Y57.306
X48.466 Y56.655
X48.492 Y56.003
X48.569 Y55.355
X48.698 Y54.714
X48.879 Y54.086
X49.109 Y53.474
X49.388 Y52.882
X49.713 Y52.314
X50.084 Y51.773
X50.496 Y51.264
X50.949 Y50.79
X51.438 Y50.353
X51.96 Y49.957
X52.513 Y49.604
X53.093 Y49.297
X53.695 Y49.037
X54.317 Y48.826
X54.953 Y48.666
X55.6 Y48.557
X56.255 Y48.5
X56.912 Y48.496
X57.569 Y48.546
X58.222 Y48.647
X58.866 Y48.802
X59.499 Y49.008
X60.116 Y49.266
X60.713 Y49.575
X61.286 Y49.931
X61.829 Y50.332
X62.338 Y50.775
X62.81 Y51.257
X63.243 Y51.775
X63.634 Y52.324
X63.982 Y52.903
X64.282 Y53.507
X64.535 Y54.133
X64.739 Y54.776
X64.892 Y55.433
X64.993 Y56.1
X65.042 Y56.773
X65.037 Y57.448
X64.98 Y58.12
X64.871 Y58.786
X64.709 Y59.441
X64.496 Y60.081
X64.233 Y60.703
X63.922 Y61.302
X63.565 Y61.874
X63.164 Y62.417
X62.722 Y62.926
X62.241 Y63.399
X61.724 Y63.833
X61.174 Y64.225
X60.596 Y64.572
X59.992 Y64.873
X59.366 Y65.126
X58.723 Y65.329
X58.065 Y65.481
X57.398 Y65.582
X56.725 Y65.631
X56.051 Y65.628
X55.378 Y65.574
X54.712 Y65.468
X54.055 Y65.312
X53.413 Y65.106
X52.788 Y64.852
X52.183 Y64.551
X51.604 Y64.206
X51.052 Y63.818
X50.53 Y63.389
X50.043 Y62.923
X49.591 Y62.422
X49.178 Y61.888
X48.807 Y61.325
X48.48 Y60.734
X48.199 Y60.121
X47.964 Y59.488
X47.777 Y58.84
X47.639 Y58.18
X47.55 Y57.511
X47.511 Y56.837
X47.521 Y56.162
X47.581 Y55.49
X47.691 Y54.825
X47.849 Y54.169
X48.055 Y53.526
X48.308 Y52.901
X48.608 Y52.296
X48.953 Y51.716
X49.34 Y51.163
X49.767 Y50.641
X50.231 Y50.151
X50.73 Y49.696
X51.26 Y49.28
X51.82 Y48.903
X52.406 Y48.569
X53.015 Y48.278
X53.644 Y48.033
X54.289 Y47.834
X54.947 Y47.685
X55.614 Y47.585
X56.287 Y47.536
X56.962 Y47.537
X57.635 Y47.587
X58.302 Y47.687
X58.96 Y47.834
X59.606 Y48.029
X60.237 Y48.27
X60.848 Y48.556
X61.437 Y48.884
X62.002 Y49.255
X62.536 Y49.666
X63.04 Y50.115
X63.51 Y50.599
X63.946 Y51.114
X64.344 Y51.659
X64.704 Y52.23
X65.023 Y52.825
X65.3 Y53.44
X65.534 Y54.073
X65.722 Y54.721
X65.863 Y55.381
X65.956 Y56.049
X66.002 Y56.722
X66.001 Y57.397
X65.952 Y58.07
X65.857 Y58.738
X65.715 Y59.397
X65.528 Y60.046
X65.296 Y60.679
X65.019 Y61.294
X64.697 Y61.888
X64.334 Y62.456
X63.931 Y62.997
X63.491 Y63.509
X63.016 Y63.989
X62.51 Y64.434
X61.973 Y64.843
X61.409 Y65.214
X60.82 Y65.544
X60.21 Y65.831
X59.58 Y66.073
X58.934 Y66.269
X58.276 Y66.42
X57.61 Y66.524
X56.938 Y66.583
X56.263 Y66.596
X55.589 Y66.562
X54.919 Y66.482
X54.256 Y66.357
X53.603 Y66.186
X52.964 Y65.969
X52.342 Y65.708
X51.739 Y65.405
X51.158 Y65.062
X50.601 Y64.681
X50.071 Y64.263
X49.571 Y63.811
X49.101 Y63.326
X48.666 Y62.811
X48.266 Y62.268
X47.906 Y61.697
X47.586 Y61.103
X47.309 Y60.488
X47.073 Y59.855
X46.879 Y59.209
X46.729 Y58.551
X46.624 Y57.885
X46.562 Y57.213
X46.545 Y56.538
X46.573 Y55.864
X46.646 Y55.193
X46.766 Y54.529
X46.93 Y53.875
X47.137 Y53.233
X47.387 Y52.606
X47.679 Y51.997
X48.01 Y51.41
X48.381 Y50.846
X48.787 Y50.307
X49.229 Y49.797
X49.703 Y49.317
X50.21 Y48.872
X50.746 Y48.461
X51.307 Y48.087
X51.892 Y47.751
X52.498 Y47.455
X53.123 Y47.198
X53.762 Y46.984
X54.415 Y46.812
X55.077 Y46.685
X55.747 Y46.602
X56.421 Y46.566
X57.096 Y46.577
X57.768 Y46.632
X58.435 Y46.732
X59.095 Y46.875
X59.743 Y47.061
X60.379 Y47.288
X60.998 Y47.556
X61.599 Y47.863
X62.178 Y48.209
X62.734 Y48.592
X63.261 Y49.013
X63.76 Y49.467
X64.228 Y49.953
X64.664 Y50.468
X65.067 Y51.009
X65.435 Y51.575
X65.767 Y52.162
X66.062 Y52.769
X66.318 Y53.394
X66.534 Y54.033
X66.708 Y54.685
X66.838 Y55.347
X66.924 Y56.016
X66.966 Y56.69
Y57.364
X66.924 Y58.038
X66.839 Y58.707
X66.713 Y59.37
X66.544 Y60.023
X66.335 Y60.665
X66.086 Y61.292
X65.795 Y61.901
X65.464 Y62.489
X65.095 Y63.053
X64.69 Y63.593
X64.252 Y64.106
X63.782 Y64.59
X63.282 Y65.044
X62.755 Y65.466
X62.203 Y65.853
X61.627 Y66.205
X61.03 Y66.519
X60.413 Y66.793
X59.78 Y67.025
X59.132 Y67.216
X58.474 Y67.364
X57.808 Y67.472
X57.137 Y67.537
X56.462 Y67.561
X55.788 Y67.543
X55.116 Y67.483
X54.448 Y67.382
X53.789 Y67.24
X53.14 Y67.056
X52.504 Y66.829
X51.885 Y66.562
X51.283 Y66.257
X50.701 Y65.915
X50.141 Y65.539
X49.604 Y65.129
X49.094 Y64.688
X48.611 Y64.216
X48.158 Y63.717
X47.736 Y63.19
X47.349 Y62.638
X46.999 Y62.061
X46.686 Y61.463
X46.411 Y60.847
X46.175 Y60.215
X45.977 Y59.57
X45.818 Y58.914
X45.699 Y58.25
X45.62 Y57.579
X45.582 Y56.906
X45.584 Y56.231
X45.627 Y55.558
X45.713 Y54.888
X45.841 Y54.226
X46.01 Y53.573
X46.219 Y52.931
X46.466 Y52.303
X46.751 Y51.692
X47.073 Y51.098
X47.429 Y50.526
X47.82 Y49.975
X48.243 Y49.45
X48.697 Y48.95
X49.181 Y48.48
X49.694 Y48.043
X50.234 Y47.637
X50.797 Y47.266
X51.382 Y46.929
X51.985 Y46.627
X52.606 Y46.362
X53.241 Y46.135
X53.889 Y45.946
X54.547 Y45.797
X55.213 Y45.688
X55.884 Y45.62
X56.559 Y45.596
X57.233 Y45.614
X57.905 Y45.674
X58.572 Y45.774
X59.233 Y45.914
X59.883 Y46.092
X60.522 Y46.309
X61.148 Y46.562
X61.757 Y46.852
X62.348 Y47.177
X62.919 Y47.537
X63.467 Y47.931
X63.988 Y48.36
X64.482 Y48.819
X64.948 Y49.307
X65.385 Y49.821
X65.792 Y50.359
X66.167 Y50.92
X66.51 Y51.502
X66.819 Y52.102
X67.093 Y52.718
X67.331 Y53.349
X67.532 Y53.993
X67.693 Y54.649
X67.813 Y55.313
X67.893 Y55.983
X67.934 Y56.656
X67.935 Y57.331
X67.898 Y58.005
X67.822 Y58.675
X67.707 Y59.34
X67.555 Y59.997
X67.365 Y60.645
X67.139 Y61.28
X66.874 Y61.901
X66.572 Y62.505
X66.233 Y63.088
X65.859 Y63.65
X65.453 Y64.188
X65.016 Y64.703
X64.55 Y65.191
X64.057 Y65.652
X63.539 Y66.083
X62.996 Y66.484
X62.432 Y66.854
X61.847 Y67.19
X61.243 Y67.491
X60.621 Y67.754
X59.985 Y67.978
X59.336 Y68.163
X58.678 Y68.311
X58.012 Y68.421
X57.341 Y68.492
X56.667 Y68.525
X55.992 Y68.521
X55.319 Y68.478
X54.649 Y68.398
X53.984 Y68.279
X53.328 Y68.123
X52.683 Y67.926
X52.05 Y67.691
X51.432 Y67.42
X50.831 Y67.114
X50.248 Y66.774
X49.685 Y66.402
X49.143 Y66
X48.625 Y65.568
X48.131 Y65.108
X47.664 Y64.621
X47.224 Y64.11
X46.814 Y63.573
X46.437 Y63.014
X46.095 Y62.432
X45.788 Y61.832
X45.515 Y61.215
X45.277 Y60.583
X45.075 Y59.939
X44.908 Y59.285
X44.778 Y58.623
X44.685 Y57.955
X44.628 Y57.283
X44.608 Y56.608
X44.625 Y55.934
X44.682 Y55.261
X44.778 Y54.594
X44.913 Y53.933
X45.086 Y53.28
X45.295 Y52.639
X45.539 Y52.01
X45.818 Y51.395
X46.13 Y50.797
X46.475 Y50.217
X46.852 Y49.657
X47.258 Y49.119
X47.694 Y48.604
X48.158 Y48.114
X48.65 Y47.652
X49.169 Y47.221
X49.711 Y46.819
X50.275 Y46.449
X50.859 Y46.11
X51.46 Y45.804
X52.077 Y45.531
X52.708 Y45.292
X53.352 Y45.089
X54.005 Y44.921
X54.667 Y44.789
X55.335 Y44.695
X56.008 Y44.64
X56.682 Y44.626
X57.357 Y44.65
X58.029 Y44.712
X58.696 Y44.812
X59.357 Y44.948
X60.009 Y45.119
X60.652 Y45.326
X61.282 Y45.566
X61.899 Y45.841
X62.5 Y46.148
X63.083 Y46.487
X63.646 Y46.858
X64.187 Y47.262
X64.703 Y47.696
X65.195 Y48.159
X65.66 Y48.647
X66.098 Y49.16
X66.509 Y49.696
X66.891 Y50.252
X67.243 Y50.827
X67.564 Y51.421
X67.854 Y52.03
X68.112 Y52.654
X68.336 Y53.29
X68.524 Y53.938
X68.675 Y54.596
X68.787 Y55.261
X68.863 Y55.932
X68.903 Y56.605
X68.907 Y57.28
X68.874 Y57.954
X68.807 Y58.625
X68.704 Y59.292
X68.566 Y59.953
X68.393 Y60.605
X68.186 Y61.247
X67.945 Y61.878
X67.669 Y62.493
X67.358 Y63.092
X67.013 Y63.672
X66.636 Y64.232
X66.23 Y64.77
X65.795 Y65.286
X65.334 Y65.779
X64.847 Y66.246
X64.336 Y66.687
X63.803 Y67.1
X63.249 Y67.485
X62.675 Y67.84
X62.083 Y68.163
X61.473 Y68.453
X60.848 Y68.707
X60.209 Y68.925
X59.56 Y69.108
X58.902 Y69.256
X58.236 Y69.369
X57.566 Y69.446
X56.893 Y69.489
X56.218 Y69.497
X55.544 Y69.469
X54.872 Y69.407
X54.204 Y69.31
X53.543 Y69.178
X52.889 Y69.01
X52.246 Y68.804
X51.616 Y68.564
X50.999 Y68.29
X50.398 Y67.983
X49.814 Y67.646
X49.247 Y67.28
X48.7 Y66.884
X48.175 Y66.461
X47.671 Y66.012
X47.191 Y65.538
X46.736 Y65.04
X46.307 Y64.519
X45.907 Y63.975
X45.539 Y63.41
X45.203 Y62.825
X44.898 Y62.223
X44.626 Y61.606
X44.386 Y60.975
X44.178 Y60.333
X44.004 Y59.681
X43.863 Y59.021
X43.756 Y58.355
X43.682 Y57.684
X43.643 Y57.011
X43.637 Y56.336
X43.667 Y55.662
X43.734 Y54.99
X43.839 Y54.324
X43.978 Y53.664
X44.152 Y53.012
X44.36 Y52.37
X44.6 Y51.739
X44.873 Y51.122
X45.176 Y50.519
X45.51 Y49.933
X45.873 Y49.364
X46.265 Y48.815
X46.684 Y48.286
X47.129 Y47.779
X47.601 Y47.297
X48.1 Y46.842
X48.622 Y46.415
X49.166 Y46.015
X49.729 Y45.644
X50.311 Y45.303
X50.91 Y44.991
X51.523 Y44.711
X52.15 Y44.461
X52.789 Y44.244
X53.438 Y44.059
X54.095 Y43.907
X54.76 Y43.789
X55.43 Y43.707
X56.103 Y43.662
X56.778 Y43.654
X57.452 Y43.682
X58.124 Y43.745
X58.791 Y43.843
X59.453 Y43.974
X60.108 Y44.138
X60.753 Y44.334
X61.388 Y44.562
X62.011 Y44.822
X62.62 Y45.112
X63.214 Y45.432
X63.791 Y45.782
X64.348 Y46.163
X64.884 Y46.573
X65.397 Y47.012
X65.887 Y47.476
X66.352 Y47.964
X66.793 Y48.475
X67.209 Y49.007
X67.597 Y49.558
X67.959 Y50.128
X68.292 Y50.714
X68.597 Y51.317
X68.872 Y51.933
X69.116 Y52.562
X69.329 Y53.202
X69.507 Y53.853
X69.65 Y54.512
X69.758 Y55.178
X69.832 Y55.849
X69.873 Y56.523
X69.88 Y57.197
X69.854 Y57.872
X69.795 Y58.544
X69.703 Y59.212
X69.579 Y59.875
X69.423 Y60.532
X69.235 Y61.18
X69.015 Y61.818
X68.763 Y62.444
X68.478 Y63.055
X68.16 Y63.65
X67.811 Y64.228
X67.434 Y64.787
X67.029 Y65.327
X66.597 Y65.846
X66.141 Y66.343
X65.661 Y66.817
X65.158 Y67.267
X64.634 Y67.692
X64.09 Y68.091
X63.527 Y68.462
X62.946 Y68.806
X62.348 Y69.12
X61.735 Y69.401
X61.107 Y69.648
X60.468 Y69.863
X59.818 Y70.046
X59.16 Y70.195
X58.496 Y70.313
X57.826 Y70.398
X57.154 Y70.45
X56.479 Y70.47
X55.804 Y70.458
X55.131 Y70.413
X54.461 Y70.336
X53.795 Y70.226
X53.136 Y70.083
X52.485 Y69.906
X51.844 Y69.694
X51.215 Y69.451
X50.598 Y69.176
X49.996 Y68.872
X49.409 Y68.538
X48.839 Y68.177
X48.287 Y67.79
X47.754 Y67.376
X47.241 Y66.938
X46.749 Y66.476
X46.28 Y65.991
X45.834 Y65.484
X45.414 Y64.956
X45.022 Y64.407
X44.66 Y63.838
X44.327 Y63.251
X44.023 Y62.648
X43.749 Y62.032
X43.505 Y61.403
X43.292 Y60.763
X43.109 Y60.113
X42.957 Y59.456
X42.836 Y58.792
X42.747 Y58.123
X42.688 Y57.451
X42.662 Y56.777
X42.668 Y56.102
X42.708 Y55.428
X42.783 Y54.758
X42.891 Y54.092
X43.033 Y53.432
X43.206 Y52.78
X43.411 Y52.137
X43.646 Y51.504
X43.911 Y50.884
X44.205 Y50.277
X44.528 Y49.684
X44.877 Y49.107
X45.254 Y48.547
X45.657 Y48.006
X46.085 Y47.484
X46.538 Y46.984
X47.016 Y46.508
X47.518 Y46.057
X48.042 Y45.632
X48.586 Y45.233
X49.149 Y44.86
X49.728 Y44.515
X50.323 Y44.197
X50.933 Y43.907
X51.555 Y43.646
X52.189 Y43.415
X52.833 Y43.214
X53.486 Y43.043
X54.146 Y42.904
X54.812 Y42.796
X55.483 Y42.724
X56.157 Y42.686
X56.832 Y42.682
X57.506 Y42.711
X58.178 Y42.772
X58.846 Y42.865
X59.509 Y42.99
X60.166 Y43.146
X60.814 Y43.331
X61.454 Y43.547
X62.082 Y43.792
X62.699 Y44.066
X63.303 Y44.368
X63.891 Y44.698
X64.463 Y45.056
X65.015 Y45.443
X65.548 Y45.858
X66.059 Y46.298
X66.549 Y46.762
X67.017 Y47.248
X67.462 Y47.756
X67.883 Y48.283
X68.279 Y48.829
X68.65 Y49.393
X68.996 Y49.972
X69.314 Y50.567
X69.606 Y51.175
X69.87 Y51.796
X70.104 Y52.429
X70.308 Y53.072
X70.479 Y53.725
X70.617 Y54.386
X70.724 Y55.052
X70.799 Y55.722
X70.842 Y56.396
X70.855 Y57.07
X70.836 Y57.745
X70.787 Y58.418
X70.707 Y59.088
X70.597 Y59.754
X70.457 Y60.414
X70.288 Y61.067
X70.088 Y61.711
X69.859 Y62.346
X69.598 Y62.968
X69.306 Y63.577
X68.985 Y64.17
X68.635 Y64.747
X68.259 Y65.307
X67.857 Y65.849
X67.43 Y66.371
X66.979 Y66.874
X66.506 Y67.355
X66.012 Y67.814
X65.497 Y68.251
X64.964 Y68.664
X64.412 Y69.052
X63.842 Y69.414
X63.257 Y69.749
X62.655 Y70.055
X62.039 Y70.33
X61.41 Y70.574
X60.77 Y70.789
X60.121 Y70.973
X59.464 Y71.127
X58.801 Y71.25
X58.133 Y71.344
X57.461 Y71.407
X56.787 Y71.44
X56.112 Y71.442
X55.438 Y71.415
X54.766 Y71.357
X54.097 Y71.269
X53.433 Y71.15
X52.775 Y70.999
X52.126 Y70.815
X51.486 Y70.601
X50.857 Y70.357
X50.24 Y70.084
X49.636 Y69.783
X49.046 Y69.455
X48.472 Y69.101
X47.913 Y68.722
X47.373 Y68.319
X46.85 Y67.892
X46.347 Y67.442
X45.864 Y66.971
X45.403 Y66.478
X44.964 Y65.965
X44.551 Y65.432
X44.165 Y64.879
X43.805 Y64.308
X43.473 Y63.721
X43.168 Y63.119
X42.891 Y62.503
X42.642 Y61.876
X42.421 Y61.239
X42.228 Y60.592
X42.064 Y59.938
X41.929 Y59.276
X41.824 Y58.61
X41.747 Y57.94
X41.7 Y57.267
X41.683 Y56.592
X41.697 Y55.917
X41.745 Y55.244
X41.824 Y54.574
X41.934 Y53.909
X42.075 Y53.249
X42.245 Y52.596
X42.445 Y51.951
X42.674 Y51.316
X42.93 Y50.692
X43.213 Y50.08
X43.524 Y49.481
X43.86 Y48.896
X44.222 Y48.326
X44.608 Y47.773
X45.019 Y47.237
X45.453 Y46.721
X45.912 Y46.227
X46.394 Y45.755
X46.898 Y45.306
X47.422 Y44.88
X47.964 Y44.479
X48.524 Y44.102
X49.1 Y43.751
X49.691 Y43.426
X50.296 Y43.126
X50.913 Y42.854
X51.542 Y42.609
X52.181 Y42.391
X52.828 Y42.202
X53.484 Y42.042
X54.146 Y41.911
X54.813 Y41.812
X55.485 Y41.745
X56.159 Y41.711
X56.833 Y41.707
X57.508 Y41.734
X58.18 Y41.792
X58.849 Y41.879
X59.513 Y41.996
X60.172 Y42.142
X60.824 Y42.316
X61.468 Y42.518
X62.102 Y42.748
X62.726 Y43.005
X63.338 Y43.289
X63.938 Y43.599
X64.522 Y43.936
X65.09 Y44.301
X65.64 Y44.692
X66.171 Y45.108
X66.683 Y45.548
X67.175 Y46.009
X67.646 Y46.493
X68.096 Y46.996
X68.523 Y47.517
X68.928 Y48.057
X69.31 Y48.614
X69.668 Y49.186
X70.001 Y49.772
X70.309 Y50.373
X70.591 Y50.986
X70.847 Y51.61
X71.074 Y52.245
X71.271 Y52.891
X71.438 Y53.544
X71.576 Y54.205
X71.683 Y54.871
X71.761 Y55.541
X71.81 Y56.214
X71.829 Y56.889
X71.82 Y57.564
X71.782 Y58.237
X71.715 Y58.909
X71.62 Y59.577
X71.496 Y60.24
X71.345 Y60.898
X71.166 Y61.548
X70.958 Y62.19
X70.721 Y62.822
X70.455 Y63.442
X70.16 Y64.049
X69.838 Y64.642
X69.49 Y65.22
X69.117 Y65.782
X68.719 Y66.327
X68.298 Y66.854
X67.855 Y67.363
X67.39 Y67.853
X66.905 Y68.322
X66.401 Y68.77
X65.878 Y69.196
X65.337 Y69.6
X64.78 Y69.98
X64.207 Y70.336
X63.617 Y70.664
X63.013 Y70.965
X62.396 Y71.238
X61.767 Y71.482
X61.128 Y71.699
X60.48 Y71.887
X59.824 Y72.047
X59.162 Y72.178
X58.496 Y72.281
X57.825 Y72.356
X57.152 Y72.403
X56.477 Y72.421
X55.803 Y72.411
X55.129 Y72.373
X54.458 Y72.307
X53.79 Y72.211
X53.127 Y72.085
X52.47 Y71.928
X51.822 Y71.743
X51.182 Y71.528
X50.552 Y71.286
X49.933 Y71.017
X49.327 Y70.722
X48.733 Y70.401
X48.153 Y70.055
X47.589 Y69.686
X47.04 Y69.293
X46.508 Y68.878
X45.993 Y68.442
X45.498 Y67.984
X45.021 Y67.507
X44.565 Y67.009
X44.133 Y66.491
X43.724 Y65.954
X43.339 Y65.4
X42.98 Y64.829
X42.646 Y64.242
X42.338 Y63.642
X42.055 Y63.03
X41.799 Y62.405
X41.569 Y61.771
X41.365 Y61.128
X41.189 Y60.476
X41.039 Y59.819
X40.917 Y59.155
X40.822 Y58.487
X40.754 Y57.816
X40.715 Y57.142
X40.705 Y56.467
X40.725 Y55.793
X40.776 Y55.12
X40.856 Y54.45
X40.965 Y53.784
X41.102 Y53.123
X41.268 Y52.469
X41.461 Y51.823
X41.68 Y51.185
X41.927 Y50.557
X42.199 Y49.939
X42.496 Y49.333
X42.818 Y48.74
X43.164 Y48.161
X43.534 Y47.597
X43.927 Y47.048
X44.343 Y46.517
X44.782 Y46.005
X45.244 Y45.513
X45.727 Y45.042
X46.23 Y44.592
X46.752 Y44.165
X47.292 Y43.76
X47.848 Y43.378
X48.42 Y43.019
X49.006 Y42.685
X49.605 Y42.375
X50.217 Y42.09
X50.84 Y41.83
X51.472 Y41.596
X52.114 Y41.388
X52.764 Y41.207
X53.421 Y41.054
X54.085 Y40.93
X54.753 Y40.836
X55.425 Y40.771
X56.098 Y40.736
X56.773 Y40.73
X57.448 Y40.754
X58.12 Y40.805
X58.79 Y40.884
X59.457 Y40.992
X60.118 Y41.126
X60.773 Y41.287
X61.421 Y41.475
X62.061 Y41.689
X62.692 Y41.929
X63.312 Y42.194
X63.921 Y42.485
X64.517 Y42.801
X65.099 Y43.144
X65.664 Y43.511
X66.214 Y43.903
X66.746 Y44.318
X67.26 Y44.755
X67.756 Y45.213
X68.232 Y45.691
X68.688 Y46.188
X69.123 Y46.703
X69.538 Y47.236
X69.931 Y47.784
X70.301 Y48.348
X70.649 Y48.926
X70.974 Y49.518
X71.275 Y50.122
X71.551 Y50.737
X71.801 Y51.364
X72.023 Y52.001
X72.217 Y52.648
X72.384 Y53.301
X72.523 Y53.962
X72.634 Y54.627
X72.718 Y55.297
X72.774 Y55.969
X72.802 Y56.643
X72.804 Y57.318
X72.778 Y57.992
X72.725 Y58.665
X72.646 Y59.335
X72.54 Y60.001
X72.407 Y60.663
X72.248 Y61.319
X72.062 Y61.967
X71.848 Y62.608
X71.607 Y63.238
X71.339 Y63.857
X71.044 Y64.464
X70.724 Y65.058
X70.38 Y65.638
X70.011 Y66.203
X69.62 Y66.753
X69.207 Y67.286
X68.772 Y67.802
X68.317 Y68.301
X67.842 Y68.78
X67.349 Y69.241
X66.838 Y69.681
X66.309 Y70.1
X65.764 Y70.498
X65.203 Y70.873
X64.626 Y71.223
X64.035 Y71.548
X63.43 Y71.848
X62.814 Y72.121
X62.186 Y72.368
X61.548 Y72.589
X60.902 Y72.784
X60.248 Y72.951
X59.589 Y73.093
X58.924 Y73.207
X58.255 Y73.295
X57.583 Y73.357
X56.909 Y73.392
X56.234 Y73.4
X55.56 Y73.382
X54.886 Y73.336
X54.216 Y73.263
X53.549 Y73.162
X52.886 Y73.033
X52.23 Y72.875
X51.581 Y72.69
X50.941 Y72.479
X50.309 Y72.241
X49.688 Y71.978
X49.077 Y71.69
X48.479 Y71.378
X47.894 Y71.042
X47.322 Y70.684
X46.765 Y70.304
X46.223 Y69.902
X45.697 Y69.479
X45.188 Y69.036
X44.697 Y68.573
X44.225 Y68.091
X43.773 Y67.59
X43.343 Y67.07
X42.936 Y66.532
X42.551 Y65.978
X42.189 Y65.408
X41.851 Y64.824
X41.537 Y64.227
X41.247 Y63.617
X40.982 Y62.997
X40.742 Y62.367
X40.526 Y61.727
X40.335 Y61.08
X40.17 Y60.426
X40.03 Y59.766
X39.916 Y59.101
X39.828 Y58.432
X39.767 Y57.76
X39.733 Y57.086
X39.727 Y56.411
X39.75 Y55.737
X39.8 Y55.064
X39.878 Y54.393
X39.983 Y53.727
X40.114 Y53.065
X40.272 Y52.409
X40.456 Y51.76
X40.666 Y51.119
X40.901 Y50.486
X41.16 Y49.863
X41.443 Y49.25
X41.749 Y48.649
X42.079 Y48.061
X42.432 Y47.485
X42.807 Y46.924
X43.204 Y46.379
X43.624 Y45.851
X44.065 Y45.34
X44.527 Y44.849
X45.009 Y44.376
X45.51 Y43.924
X46.028 Y43.492
X46.564 Y43.082
X47.115 Y42.692
X47.681 Y42.325
X48.261 Y41.98
X48.854 Y41.658
X49.459 Y41.36
X50.075 Y41.085
X50.701 Y40.833
X51.337 Y40.607
X51.981 Y40.405
X52.632 Y40.23
X53.291 Y40.081
X53.954 Y39.96
X54.623 Y39.867
X55.294 Y39.801
X55.968 Y39.763
X56.643 Y39.753
X57.317 Y39.769
X57.991 Y39.812
X58.662 Y39.882
X59.33 Y39.978
X59.993 Y40.099
X60.652 Y40.246
X61.304 Y40.419
X61.95 Y40.616
X62.587 Y40.838
X63.215 Y41.084
X63.833 Y41.354
X64.44 Y41.65
X65.034 Y41.969
X65.615 Y42.313
X66.181 Y42.68
X66.731 Y43.07
X67.266 Y43.482
X67.784 Y43.914
X68.284 Y44.367
X68.767 Y44.839
X69.231 Y45.329
X69.676 Y45.836
X70.101 Y46.36
X70.506 Y46.9
X70.89 Y47.454
X71.253 Y48.023
X71.595 Y48.605
X71.914 Y49.199
X72.21 Y49.806
X72.482 Y50.423
X72.728 Y51.052
X72.95 Y51.689
X73.145 Y52.335
X73.314 Y52.988
X73.458 Y53.647
X73.575 Y54.312
X73.666 Y54.98
X73.732 Y55.652
X73.771 Y56.326
X73.785 Y57
X73.773 Y57.675
X73.736 Y58.349
X73.673 Y59.02
X73.585 Y59.689
X73.472 Y60.355
X73.333 Y61.015
X73.169 Y61.669
X72.979 Y62.317
X72.763 Y62.956
X72.521 Y63.586
X72.254 Y64.206
X71.962 Y64.814
X71.647 Y65.411
X71.308 Y65.994
X70.947 Y66.564
X70.563 Y67.119
X70.159 Y67.659
X69.734 Y68.184
X69.29 Y68.692
X68.827 Y69.182
X68.346 Y69.655
X67.847 Y70.11
X67.331 Y70.545
X66.799 Y70.96
X66.251 Y71.353
X65.688 Y71.725
X65.11 Y72.074
X64.519 Y72.399
X63.915 Y72.7
X63.3 Y72.977
X62.674 Y73.229
X62.039 Y73.457
X61.395 Y73.659
X60.744 Y73.837
X60.087 Y73.99
X59.424 Y74.117
X58.757 Y74.22
X58.087 Y74.298
X57.414 Y74.35
X56.74 Y74.377
X56.065 Y74.379
X55.391 Y74.355
X54.718 Y74.305
X54.048 Y74.229
X53.381 Y74.126
X52.719 Y73.997
X52.062 Y73.842
X51.412 Y73.661
X50.77 Y73.454
X50.136 Y73.223
X49.511 Y72.968
X48.896 Y72.69
X48.293 Y72.388
X47.701 Y72.064
X47.122 Y71.718
X46.555 Y71.351
X46.003 Y70.963
X45.466 Y70.555
X44.944 Y70.128
X44.439 Y69.68
X43.951 Y69.214
X43.481 Y68.73
X43.031 Y68.227
X42.601 Y67.707
X42.192 Y67.171
X41.804 Y66.619
X41.437 Y66.052
X41.093 Y65.472
X40.772 Y64.878
X40.473 Y64.273
X40.197 Y63.658
X39.944 Y63.032
X39.715 Y62.397
X39.509 Y61.755
X39.327 Y61.105
X39.169 Y60.449
X39.036 Y59.788
X38.927 Y59.122
X38.844 Y58.452
X38.786 Y57.78
X38.754 Y57.106
X38.749 Y56.431
X38.769 Y55.757
X38.816 Y55.083
X38.889 Y54.413
X38.987 Y53.745
X39.111 Y53.082
X39.259 Y52.424
X39.433 Y51.771
X39.63 Y51.126
X39.851 Y50.489
X40.096 Y49.86
X40.364 Y49.241
X40.654 Y48.632
X40.967 Y48.034
X41.302 Y47.448
X41.658 Y46.875
X42.036 Y46.316
X42.436 Y45.772
X42.856 Y45.244
X43.296 Y44.733
X43.756 Y44.239
X44.235 Y43.763
X44.731 Y43.306
X45.244 Y42.869
X45.774 Y42.451
X46.319 Y42.053
X46.878 Y41.675
X47.451 Y41.319
X48.037 Y40.984
X48.634 Y40.67
X49.243 Y40.379
X49.862 Y40.11
X50.49 Y39.864
X51.128 Y39.642
X51.773 Y39.445
X52.425 Y39.272
X53.083 Y39.125
X53.747 Y39.003
X54.415 Y38.907
X55.086 Y38.837
X55.76 Y38.793
X56.434 Y38.775
X57.109 Y38.782
X57.783 Y38.815
X58.455 Y38.873
X59.125 Y38.956
X59.791 Y39.063
X60.453 Y39.194
X61.109 Y39.35
X61.76 Y39.529
X62.403 Y39.732
X63.039 Y39.959
X63.665 Y40.209
X64.282 Y40.482
X64.888 Y40.779
X65.482 Y41.099
X66.064 Y41.441
X66.632 Y41.805
X67.186 Y42.191
X67.725 Y42.597
X68.248 Y43.023
X68.755 Y43.469
X69.245 Y43.932
X69.717 Y44.414
X70.173 Y44.912
X70.609 Y45.426
X71.027 Y45.956
X71.426 Y46.5
X71.805 Y47.058
X72.164 Y47.63
X72.501 Y48.214
X72.817 Y48.811
X73.111 Y49.418
X73.381 Y50.036
X73.629 Y50.664
X73.852 Y51.301
X74.051 Y51.945
X74.226 Y52.597
X74.376 Y53.255
X74.502 Y53.918
X74.603 Y54.585
X74.68 Y55.255
X74.732 Y55.928
X74.76 Y56.602
X74.764 Y57.277
X74.743 Y57.951
X74.698 Y58.625
X74.63 Y59.296
X74.536 Y59.964
X74.419 Y60.629
X74.277 Y61.288
X74.11 Y61.942
X73.92 Y62.589
X73.704 Y63.229
X73.465 Y63.86
X73.203 Y64.481
X72.916 Y65.093
X72.608 Y65.693
X72.277 Y66.281
X71.924 Y66.856
X71.551 Y67.418
X71.157 Y67.966
X70.744 Y68.499
X70.312 Y69.018
X69.861 Y69.52
X69.393 Y70.006
X68.908 Y70.474
X68.405 Y70.925
X67.887 Y71.357
X67.353 Y71.769
X66.804 Y72.162
X66.241 Y72.533
X65.664 Y72.884
X65.074 Y73.212
X64.473 Y73.517
X63.86 Y73.8
X63.237 Y74.06
X62.606 Y74.296
X61.965 Y74.509
X61.318 Y74.699
X60.664 Y74.865
X60.004 Y75.007
X59.34 Y75.126
X58.672 Y75.221
X58.001 Y75.292
X57.328 Y75.339
X56.653 Y75.361
X55.979 Y75.359
X55.304 Y75.333
X54.632 Y75.281
X53.961 Y75.205
X53.294 Y75.104
X52.631 Y74.979
X51.973 Y74.828
X51.321 Y74.654
X50.676 Y74.455
X50.039 Y74.233
X49.411 Y73.988
X48.791 Y73.721
X48.182 Y73.432
X47.583 Y73.121
X46.995 Y72.789
X46.42 Y72.436
X45.857 Y72.064
X45.308 Y71.671
X44.774 Y71.26
X44.254 Y70.829
X43.75 Y70.38
X43.263 Y69.913
X42.794 Y69.429
X42.342 Y68.927
X41.909 Y68.41
X41.496 Y67.876
X41.103 Y67.328
X40.73 Y66.766
X40.378 Y66.19
X40.047 Y65.602
X39.737 Y65.003
X39.449 Y64.393
X39.182 Y63.773
X38.938 Y63.144
X38.716 Y62.506
X38.517 Y61.862
X38.34 Y61.211
X38.187 Y60.553
X38.057 Y59.891
X37.951 Y59.225
X37.869 Y58.555
X37.811 Y57.883
X37.778 Y57.209
X37.769 Y56.534
X37.785 Y55.86
X37.825 Y55.186
X37.89 Y54.515
X37.98 Y53.846
X38.093 Y53.181
X38.23 Y52.52
X38.391 Y51.865
X38.574 Y51.215
X38.781 Y50.573
X39.01 Y49.938
X39.26 Y49.312
X39.533 Y48.695
X39.828 Y48.088
X40.144 Y47.492
X40.482 Y46.907
X40.84 Y46.335
X41.218 Y45.776
X41.616 Y45.232
X42.034 Y44.702
X42.471 Y44.188
X42.926 Y43.69
X43.4 Y43.209
X43.89 Y42.746
X44.397 Y42.3
X44.919 Y41.873
X45.457 Y41.465
X46.008 Y41.076
X46.573 Y40.707
X47.15 Y40.357
X47.739 Y40.028
X48.339 Y39.72
X48.95 Y39.433
X49.571 Y39.168
X50.2 Y38.925
X50.838 Y38.705
X51.483 Y38.508
X52.135 Y38.335
X52.793 Y38.185
X53.456 Y38.059
X54.123 Y37.958
X54.794 Y37.881
X55.466 Y37.829
X56.141 Y37.8
X56.815 Y37.797
X57.49 Y37.817
X58.163 Y37.861
X58.834 Y37.928
X59.503 Y38.02
X60.168 Y38.134
X60.829 Y38.271
X61.484 Y38.432
X62.133 Y38.615
X62.776 Y38.822
X63.411 Y39.05
X64.037 Y39.301
X64.654 Y39.574
X65.261 Y39.869
X65.857 Y40.186
X66.441 Y40.524
X67.012 Y40.883
X67.57 Y41.262
X68.114 Y41.661
X68.644 Y42.079
X69.159 Y42.515
X69.658 Y42.969
X70.141 Y43.441
X70.607 Y43.928
X71.056 Y44.432
X71.488 Y44.95
X71.902 Y45.483
X72.297 Y46.03
X72.673 Y46.591
X73.029 Y47.164
X73.365 Y47.749
X73.681 Y48.345
X73.975 Y48.952
X74.248 Y49.569
X74.499 Y50.196
X74.727 Y50.831
X74.933 Y51.473
X75.116 Y52.123
X75.275 Y52.778
X75.412 Y53.439
X75.525 Y54.104
X75.615 Y54.773
X75.682 Y55.445
X75.725 Y56.118
X75.746 Y56.792
X75.743 Y57.467
X75.717 Y58.141
X75.668 Y58.814
X75.596 Y59.485
X75.5 Y60.153
X75.381 Y60.817
X75.239 Y61.477
X75.075 Y62.131
X74.887 Y62.779
X74.676 Y63.42
X74.442 Y64.053
X74.186 Y64.678
X73.908 Y65.292
X73.608 Y65.897
X73.287 Y66.49
X72.945 Y67.072
X72.583 Y67.642
X72.202 Y68.198
X71.802 Y68.742
X71.383 Y69.271
X70.946 Y69.785
X70.492 Y70.284
X70.021 Y70.767
X69.533 Y71.233
X69.03 Y71.683
X68.511 Y72.114
X67.977 Y72.527
X67.429 Y72.921
X66.868 Y73.295
X66.294 Y73.65
X65.707 Y73.983
X65.109 Y74.296
X64.5 Y74.587
X63.882 Y74.856
X63.254 Y75.103
X62.618 Y75.329
X61.975 Y75.532
X61.324 Y75.713
X60.669 Y75.871
X60.008 Y76.007
X59.342 Y76.12
X58.674 Y76.21
X58.002 Y76.278
X57.329 Y76.322
X56.655 Y76.343
X55.98 Y76.34
X55.306 Y76.315
X54.633 Y76.266
X53.962 Y76.193
X53.294 Y76.097
X52.63 Y75.978
X51.97 Y75.835
X51.316 Y75.67
X50.668 Y75.481
X50.027 Y75.271
X49.394 Y75.038
X48.769 Y74.783
X48.153 Y74.508
X47.547 Y74.212
X46.951 Y73.895
X46.366 Y73.558
X45.793 Y73.202
X45.233 Y72.826
X44.685 Y72.432
X44.152 Y72.019
X43.632 Y71.588
X43.128 Y71.14
X42.639 Y70.675
X42.167 Y70.193
X41.712 Y69.695
X41.274 Y69.181
X40.855 Y68.653
X40.454 Y68.11
X40.072 Y67.553
X39.71 Y66.984
X39.368 Y66.402
X39.046 Y65.809
X38.744 Y65.206
X38.463 Y64.593
X38.202 Y63.97
X37.963 Y63.339
X37.745 Y62.701
X37.55 Y62.055
X37.376 Y61.403
X37.224 Y60.745
X37.095 Y60.083
X36.988 Y59.417
X36.903 Y58.747
X36.842 Y58.076
X36.804 Y57.402
X36.789 Y56.727
X36.797 Y56.053
X36.829 Y55.379
X36.884 Y54.706
X36.962 Y54.036
X37.063 Y53.369
X37.186 Y52.705
X37.332 Y52.047
X37.501 Y51.393
X37.69 Y50.746
X37.902 Y50.105
X38.136 Y49.472
X38.39 Y48.847
X38.666 Y48.231
X38.962 Y47.625
X39.279 Y47.029
X39.615 Y46.444
X39.972 Y45.871
X40.347 Y45.311
X40.742 Y44.763
X41.155 Y44.23
X41.587 Y43.711
X42.036 Y43.208
X42.502 Y42.72
X42.985 Y42.248
X43.483 Y41.794
X43.997 Y41.356
X44.525 Y40.936
X45.067 Y40.534
X45.622 Y40.151
X46.19 Y39.786
X46.77 Y39.441
X47.361 Y39.116
X47.963 Y38.81
X48.574 Y38.525
X49.195 Y38.261
X49.825 Y38.018
X50.462 Y37.796
X51.106 Y37.597
X51.757 Y37.419
X52.414 Y37.264
X53.076 Y37.131
X53.741 Y37.022
X54.411 Y36.935
X55.082 Y36.872
X55.756 Y36.832
X56.431 Y36.815
X57.105 Y36.82
X57.779 Y36.849
X58.452 Y36.9
X59.123 Y36.973
X59.791 Y37.069
X60.455 Y37.188
X61.115 Y37.329
X61.77 Y37.492
X62.419 Y37.676
X63.061 Y37.882
X63.697 Y38.11
X64.324 Y38.358
X64.942 Y38.628
X65.552 Y38.918
X66.15 Y39.229
X66.738 Y39.561
X67.314 Y39.912
X67.878 Y40.282
X68.429 Y40.672
X68.967 Y41.08
X69.49 Y41.505
X69.999 Y41.948
X70.493 Y42.408
X70.972 Y42.884
X71.434 Y43.375
X71.88 Y43.881
X72.309 Y44.402
X72.72 Y44.937
X73.114 Y45.485
X73.49 Y46.046
X73.846 Y46.619
X74.184 Y47.203
X74.502 Y47.798
X74.801 Y48.403
X75.079 Y49.018
X75.336 Y49.641
X75.572 Y50.274
X75.786 Y50.913
X75.979 Y51.56
X76.15 Y52.213
X76.3 Y52.871
X76.427 Y53.533
X76.532 Y54.2
X76.615 Y54.87
X76.676 Y55.542
X76.714 Y56.215
X76.73 Y56.89
X76.724 Y57.564
X76.696 Y58.239
X76.645 Y58.912
X76.573 Y59.582
X76.478 Y60.25
X76.362 Y60.915
X76.223 Y61.575
X76.063 Y62.231
X75.881 Y62.881
X75.677 Y63.524
X75.451 Y64.16
X75.204 Y64.787
X74.936 Y65.407
X74.647 Y66.016
X74.338 Y66.616
X74.009 Y67.205
X73.66 Y67.783
X73.293 Y68.349
X72.907 Y68.903
X72.503 Y69.443
X72.081 Y69.97
X71.642 Y70.482
X71.186 Y70.98
X70.715 Y71.462
X70.227 Y71.929
X69.725 Y72.379
X69.208 Y72.812
X68.676 Y73.228
X68.132 Y73.627
X67.574 Y74.006
X67.003 Y74.367
X66.421 Y74.708
X65.828 Y75.03
X65.224 Y75.331
X64.611 Y75.612
X63.988 Y75.872
X63.357 Y76.112
X62.719 Y76.33
X62.074 Y76.527
X61.422 Y76.703
X60.765 Y76.857
X60.104 Y76.989
X59.438 Y77.1
X58.769 Y77.188
X58.098 Y77.255
X57.424 Y77.3
X56.75 Y77.323
X56.075
X55.401 Y77.302
X54.728 Y77.258
X54.056 Y77.192
X53.387 Y77.104
X52.721 Y76.994
X52.06 Y76.861
X51.403 Y76.707
X50.752 Y76.531
X50.106 Y76.333
X49.468 Y76.115
X48.837 Y75.875
X48.215 Y75.615
X47.601 Y75.335
X46.996 Y75.035
X46.402 Y74.715
X45.819 Y74.376
X45.247 Y74.019
X44.686 Y73.643
X44.138 Y73.249
X43.603 Y72.837
X43.082 Y72.409
X42.575 Y71.964
X42.083 Y71.503
X41.606 Y71.025
X41.145 Y70.532
X40.7 Y70.025
X40.273 Y69.503
X39.863 Y68.967
X39.471 Y68.417
X39.098 Y67.855
X38.743 Y67.282
X38.406 Y66.697
X38.089 Y66.101
X37.792 Y65.495
X37.515 Y64.88
X37.258 Y64.256
X37.021 Y63.624
X36.805 Y62.985
X36.609 Y62.339
X36.435 Y61.688
X36.281 Y61.031
X36.149 Y60.369
X36.038 Y59.703
X35.948 Y59.035
X35.881 Y58.363
X35.835 Y57.69
X35.811 Y57.016
X35.809 Y56.341
X35.83 Y55.666
X35.873 Y54.993
X35.937 Y54.321
X36.024 Y53.652
X36.132 Y52.986
X36.261 Y52.324
X36.412 Y51.666
X36.585 Y51.014
X36.778 Y50.368
X36.993 Y49.728
X37.228 Y49.095
X37.483 Y48.471
X37.758 Y47.854
X38.053 Y47.248
X38.367 Y46.65
X38.7 Y46.064
X39.052 Y45.488
X39.422 Y44.924
X39.811 Y44.372
X40.218 Y43.834
X40.641 Y43.309
X41.082 Y42.798
X41.54 Y42.302
X42.013 Y41.821
X42.502 Y41.356
X43.005 Y40.906
X43.523 Y40.474
X44.054 Y40.058
X44.599 Y39.66
X45.157 Y39.28
X45.726 Y38.918
X46.307 Y38.574
X46.898 Y38.249
X47.5 Y37.943
X48.111 Y37.657
X48.73 Y37.391
X49.359 Y37.144
X49.994 Y36.918
X50.637 Y36.712
X51.286 Y36.528
X51.941 Y36.365
X52.6 Y36.223
X53.264 Y36.103
X53.932 Y36.004
X54.602 Y35.928
X55.275 Y35.874
X55.949 Y35.841
X56.624 Y35.831
X57.298 Y35.842
X57.972 Y35.875
X58.645 Y35.93
X59.315 Y36.007
X59.983 Y36.105
X60.647 Y36.224
X61.307 Y36.365
X61.962 Y36.526
X62.611 Y36.709
X63.255 Y36.912
X63.892 Y37.135
X64.521 Y37.378
X65.142 Y37.642
X65.755 Y37.925
X66.358 Y38.228
X66.95 Y38.55
X67.532 Y38.892
X68.103 Y39.252
X68.662 Y39.63
X69.208 Y40.026
X69.741 Y40.439
X70.261 Y40.869
X70.767 Y41.316
X71.258 Y41.779
X71.734 Y42.257
X72.195 Y42.75
X72.64 Y43.257
X73.068 Y43.779
X73.48 Y44.313
X73.876 Y44.86
X74.253 Y45.419
X74.613 Y45.99
X74.955 Y46.571
X75.279 Y47.163
X75.584 Y47.765
X75.869 Y48.377
X76.135 Y48.997
X76.381 Y49.625
X76.607 Y50.261
X76.812 Y50.904
X76.996 Y51.553
X77.16 Y52.208
X77.303 Y52.867
X77.424 Y53.531
X77.525 Y54.198
X77.604 Y54.868
X77.662 Y55.54
X77.698 Y56.214
X77.713 Y56.889
X77.707 Y57.563
X77.68 Y58.238
X77.632 Y58.911
X77.562 Y59.582
X77.472 Y60.251
X77.361 Y60.916
X77.228 Y61.578
X77.075 Y62.235
X76.901 Y62.887
X76.706 Y63.533
X76.491 Y64.172
X76.255 Y64.805
X76 Y65.429
X75.724 Y66.045
X75.428 Y66.651
X75.114 Y67.248
X74.78 Y67.835
X74.428 Y68.41
X74.058 Y68.974
X73.67 Y69.526
X73.264 Y70.066
X72.842 Y70.592
X72.403 Y71.105
X71.948 Y71.603
X71.479 Y72.087
X70.994 Y72.557
X70.494 Y73.01
X69.981 Y73.448
X69.454 Y73.87
X68.914 Y74.274
X68.361 Y74.661
X67.796 Y75.031
X67.22 Y75.382
X66.633 Y75.714
X66.035 Y76.027
X65.428 Y76.322
X64.812 Y76.596
X64.187 Y76.851
X63.555 Y77.086
X62.915 Y77.301
X62.268 Y77.494
X61.616 Y77.668
X60.959 Y77.821
X60.297 Y77.953
X59.632 Y78.064
X58.963 Y78.155
X58.292 Y78.224
X57.619 Y78.273
X56.945 Y78.301
X56.27 Y78.307
X55.596 Y78.293
X54.922 Y78.257
X54.249 Y78.201
X53.579 Y78.123
X52.912 Y78.024
X52.248 Y77.904
X51.588 Y77.763
X50.933 Y77.601
X50.283 Y77.419
X49.64 Y77.216
X49.003 Y76.993
X48.373 Y76.749
X47.752 Y76.487
X47.139 Y76.204
X46.535 Y75.903
X45.941 Y75.583
X45.357 Y75.245
X44.784 Y74.889
X44.222 Y74.516
X43.672 Y74.125
X43.134 Y73.718
X42.609 Y73.294
X42.097 Y72.854
X41.599 Y72.399
X41.116 Y71.928
X40.647 Y71.443
X40.194 Y70.942
X39.757 Y70.428
X39.337 Y69.901
X38.933 Y69.36
X38.546 Y68.807
X38.177 Y68.242
X37.826 Y67.666
X37.494 Y67.079
X37.179 Y66.482
X36.884 Y65.875
X36.608 Y65.259
X36.351 Y64.635
X36.113 Y64.004
X35.895 Y63.365
X35.697 Y62.72
X35.518 Y62.07
X35.36 Y61.414
X35.222 Y60.753
X35.104 Y60.089
X35.006 Y59.421
X34.93 Y58.751
X34.874 Y58.079
X34.839 Y57.405
X34.825 Y56.73
X34.832 Y56.055
X34.86 Y55.381
X34.909 Y54.708
X34.979 Y54.037
X35.071 Y53.369
X35.183 Y52.703
X35.316 Y52.042
X35.469 Y51.385
X35.643 Y50.733
X35.836 Y50.086
X36.05 Y49.446
X36.283 Y48.813
X36.536 Y48.187
X36.807 Y47.57
X37.098 Y46.961
X37.407 Y46.361
X37.734 Y45.771
X38.079 Y45.191
X38.442 Y44.622
X38.823 Y44.065
X39.22 Y43.52
X39.635 Y42.987
X40.065 Y42.468
X40.512 Y41.962
X40.974 Y41.47
X41.452 Y40.993
X41.944 Y40.532
X42.45 Y40.086
X42.97 Y39.656
X43.503 Y39.242
X44.049 Y38.845
X44.606 Y38.465
X45.175 Y38.102
X45.755 Y37.757
X46.345 Y37.43
X46.945 Y37.121
X47.554 Y36.831
X48.172 Y36.559
X48.797 Y36.307
X49.431 Y36.073
X50.071 Y35.859
X50.717 Y35.666
X51.369 Y35.492
X52.026 Y35.338
X52.687 Y35.205
X53.353 Y35.093
X54.021 Y35.002
X54.692 Y34.931
X55.365 Y34.882
X56.04 Y34.854
X56.714 Y34.847
X57.389 Y34.861
X58.063 Y34.896
X58.735 Y34.951
X59.406 Y35.027
X60.073 Y35.124
X60.738 Y35.241
X61.399 Y35.378
X62.055 Y35.536
X62.706 Y35.713
X63.351 Y35.909
X63.99 Y36.126
X64.623 Y36.361
X65.248 Y36.616
X65.864 Y36.89
X66.472 Y37.183
X67.071 Y37.494
X67.66 Y37.823
X68.238 Y38.171
X68.806 Y38.536
X69.361 Y38.919
X69.905 Y39.318
X70.436 Y39.735
X70.954 Y40.167
X71.458 Y40.615
X71.949 Y41.079
X72.425 Y41.557
X72.886 Y42.049
X73.333 Y42.555
X73.764 Y43.074
X74.179 Y43.606
X74.578 Y44.15
X74.96 Y44.706
X75.326 Y45.273
X75.675 Y45.851
X76.006 Y46.439
X76.319 Y47.036
X76.615 Y47.643
X76.891 Y48.259
X77.149 Y48.882
X77.388 Y49.513
X77.607 Y50.151
X77.807 Y50.796
X77.986 Y51.446
X78.146 Y52.102
X78.285 Y52.762
X78.404 Y53.426
X78.503 Y54.094
X78.582 Y54.764
X78.64 Y55.436
X78.678 Y56.11
X78.695 Y56.784
X78.692 Y57.459
X78.669 Y58.134
X78.626 Y58.807
X78.563 Y59.479
X78.48 Y60.148
X78.376 Y60.815
X78.253 Y61.478
X78.11 Y62.138
X77.947 Y62.793
X77.764 Y63.442
X77.561 Y64.086
X77.339 Y64.723
X77.097 Y65.353
X76.836 Y65.975
X76.556 Y66.589
X76.257 Y67.194
X75.94 Y67.789
X75.604 Y68.375
X75.251 Y68.95
X74.88 Y69.513
X74.493 Y70.066
X74.089 Y70.606
X73.668 Y71.134
X73.233 Y71.649
X72.781 Y72.151
X72.315 Y72.639
X71.835 Y73.113
X71.341 Y73.572
X70.833 Y74.016
X70.312 Y74.445
X69.778 Y74.858
X69.232 Y75.255
X68.675 Y75.634
X68.105 Y75.997
X67.526 Y76.342
X66.936 Y76.669
X66.336 Y76.978
X65.727 Y77.268
X65.109 Y77.54
X64.483 Y77.792
X63.85 Y78.025
X63.21 Y78.239
X62.563 Y78.433
X61.912 Y78.607
X61.255 Y78.762
X60.594 Y78.897
X59.929 Y79.013
X59.261 Y79.108
X58.59 Y79.183
X57.918 Y79.239
X57.244 Y79.274
X56.57 Y79.29
X55.895 Y79.285
X55.221 Y79.26
X54.547 Y79.215
X53.876 Y79.15
X53.206 Y79.065
X52.54 Y78.959
X51.877 Y78.834
X51.218 Y78.688
X50.564 Y78.522
X49.915 Y78.336
X49.273 Y78.131
X48.636 Y77.906
X48.007 Y77.662
X47.386 Y77.4
X46.772 Y77.119
X46.167 Y76.819
X45.572 Y76.502
X44.986 Y76.168
X44.41 Y75.816
X43.845 Y75.448
X43.291 Y75.063
X42.748 Y74.662
X42.217 Y74.245
X41.699 Y73.812
X41.194 Y73.365
X40.703 Y72.903
X40.225 Y72.426
X39.762 Y71.935
X39.314 Y71.43
X38.882 Y70.913
X38.465 Y70.382
X38.064 Y69.839
X37.681 Y69.284
X37.314 Y68.718
X36.964 Y68.141
X36.632 Y67.553
X36.318 Y66.956
X36.021 Y66.35
X35.743 Y65.735
X35.483 Y65.113
X35.241 Y64.483
X35.019 Y63.846
X34.815 Y63.203
X34.629 Y62.554
X34.464 Y61.9
X34.317 Y61.241
X34.189 Y60.579
X34.082 Y59.912
X33.993 Y59.243
X33.925 Y58.572
X33.877 Y57.899
X33.848 Y57.225
X33.84 Y56.55
X33.852 Y55.876
X33.884 Y55.202
X33.937 Y54.529
X34.01 Y53.858
X34.103 Y53.19
X34.215 Y52.525
X34.348 Y51.863
X34.5 Y51.206
X34.672 Y50.553
X34.863 Y49.906
X35.073 Y49.265
X35.301 Y48.63
X35.548 Y48.002
X35.814 Y47.382
X36.097 Y46.769
X36.399 Y46.166
X36.718 Y45.571
X37.054 Y44.986
X37.407 Y44.411
X37.777 Y43.847
X38.164 Y43.294
X38.567 Y42.753
X38.986 Y42.224
X39.42 Y41.707
X39.87 Y41.205
X40.335 Y40.715
X40.814 Y40.24
X41.308 Y39.78
X41.814 Y39.335
X42.334 Y38.905
X42.867 Y38.49
X43.411 Y38.092
X43.967 Y37.709
X44.534 Y37.343
X45.112 Y36.994
X45.699 Y36.662
X46.296 Y36.347
X46.902 Y36.05
X47.516 Y35.771
X48.138 Y35.51
X48.767 Y35.267
X49.404 Y35.042
X50.047 Y34.837
X50.695 Y34.65
X51.349 Y34.483
X52.007 Y34.336
X52.67 Y34.208
X53.336 Y34.1
X54.005 Y34.012
X54.676 Y33.945
X55.349 Y33.897
X56.023 Y33.87
X56.698 Y33.863
X57.373 Y33.876
X58.047 Y33.909
X58.719 Y33.962
X59.39 Y34.035
X60.059 Y34.127
X60.724 Y34.238
X61.386 Y34.369
X62.044 Y34.52
X62.697 Y34.689
X63.345 Y34.877
X63.987 Y35.084
X64.623 Y35.309
X65.253 Y35.553
X65.874 Y35.815
X66.488 Y36.095
X67.093 Y36.393
X67.69 Y36.709
X68.276 Y37.042
X68.853 Y37.393
X69.418 Y37.761
X69.973 Y38.146
X70.516 Y38.546
X71.046 Y38.963
X71.565 Y39.395
X72.07 Y39.842
X72.562 Y40.304
X73.041 Y40.78
X73.505 Y41.269
X73.955 Y41.772
X74.391 Y42.287
X74.811 Y42.815
X75.216 Y43.354
X75.606 Y43.905
X75.98 Y44.467
X76.337 Y45.039
X76.678 Y45.622
X77.002 Y46.214
X77.309 Y46.815
X77.598 Y47.424
X77.87 Y48.042
X78.123 Y48.667
X78.358 Y49.3
X78.574 Y49.939
X78.771 Y50.585
X78.948 Y51.236
X79.107 Y51.891
X79.247 Y52.552
X79.367 Y53.216
X79.467 Y53.883
X79.548 Y54.553
X79.61 Y55.225
X79.652 Y55.898
X79.675 Y56.572
X79.679 Y57.247
X79.663 Y57.922
X79.628 Y58.595
X79.573 Y59.268
X79.5 Y59.939
X79.407 Y60.607
X79.295 Y61.272
X79.164 Y61.934
X79.014 Y62.592
X78.844 Y63.245
X78.656 Y63.893
X78.449 Y64.536
X78.223 Y65.171
X77.978 Y65.8
X77.715 Y66.421
X77.434 Y67.035
X77.134 Y67.639
X76.817 Y68.235
X76.483 Y68.821
X76.131 Y69.397
X75.763 Y69.963
X75.379 Y70.517
X74.979 Y71.061
X74.563 Y71.592
X74.132 Y72.111
X73.687 Y72.618
X73.227 Y73.112
X72.753 Y73.592
X72.266 Y74.059
X71.765 Y74.511
X71.252 Y74.949
X70.726 Y75.372
X70.188 Y75.78
X69.639 Y76.172
X69.079 Y76.547
X68.507 Y76.906
X67.925 Y77.248
X67.334 Y77.573
X66.733 Y77.88
X66.123 Y78.169
X65.506 Y78.44
X64.88 Y78.693
X64.247 Y78.928
X63.608 Y79.144
X62.963 Y79.341
X62.312 Y79.52
X61.657 Y79.68
X60.997 Y79.821
X60.333 Y79.943
X59.666 Y80.046
X58.997 Y80.13
X58.325 Y80.195
X57.652 Y80.241
X56.978 Y80.267
X56.303 Y80.275
X55.629 Y80.263
X54.954 Y80.232
X54.282 Y80.182
X53.611 Y80.112
X52.942 Y80.022
X52.276 Y79.913
X51.613 Y79.785
X50.955 Y79.637
X50.301 Y79.47
X49.653 Y79.284
X49.009 Y79.08
X48.373 Y78.857
X47.742 Y78.616
X47.12 Y78.356
X46.504 Y78.079
X45.897 Y77.785
X45.299 Y77.474
X44.709 Y77.145
X44.129 Y76.8
X43.559 Y76.439
X43 Y76.062
X42.451 Y75.669
X41.914 Y75.261
X41.388 Y74.838
X40.874 Y74.4
X40.374 Y73.948
X39.886 Y73.482
X39.412 Y73.002
X38.952 Y72.508
X38.506 Y72.002
X38.075 Y71.482
X37.66 Y70.95
X37.26 Y70.407
X36.877 Y69.852
X36.509 Y69.286
X36.158 Y68.71
X35.823 Y68.124
X35.506 Y67.529
X35.205 Y66.924
X34.922 Y66.312
X34.656 Y65.692
X34.408 Y65.064
X34.178 Y64.43
X33.966 Y63.789
X33.772 Y63.143
X33.596 Y62.492
X33.438 Y61.836
X33.299 Y61.175
X33.179 Y60.511
X33.077 Y59.844
X32.994 Y59.175
X32.93 Y58.503
X32.886 Y57.83
X32.861 Y57.155
X32.855 Y56.481
X32.869 Y55.806
X32.902 Y55.132
X32.955 Y54.459
X33.027 Y53.789
X33.118 Y53.12
X33.228 Y52.454
X33.358 Y51.792
X33.506 Y51.134
X33.672 Y50.48
X33.857 Y49.831
X34.06 Y49.188
X34.282 Y48.55
X34.521 Y47.919
X34.778 Y47.295
X35.052 Y46.679
X35.343 Y46.07
X35.652 Y45.47
X35.977 Y44.879
X36.318 Y44.297
X36.676 Y43.725
X37.05 Y43.163
X37.44 Y42.613
X37.846 Y42.073
X38.267 Y41.546
X38.703 Y41.031
X39.154 Y40.529
X39.619 Y40.04
X40.098 Y39.565
X40.59 Y39.103
X41.095 Y38.656
X41.613 Y38.223
X42.143 Y37.805
X42.684 Y37.403
X43.237 Y37.015
X43.8 Y36.644
X44.373 Y36.288
X44.957 Y35.949
X45.549 Y35.626
X46.15 Y35.32
X46.76 Y35.031
X47.377 Y34.759
X48.002 Y34.504
X48.634 Y34.267
X49.272 Y34.048
X49.916 Y33.847
X50.566 Y33.664
X51.221 Y33.501
X51.88 Y33.356
X52.543 Y33.23
X53.209 Y33.124
X53.878 Y33.036
X54.549 Y32.968
X55.222 Y32.919
X55.896 Y32.89
X56.571 Y32.879
X57.246 Y32.888
X57.92 Y32.916
X58.593 Y32.963
X59.264 Y33.029
X59.934 Y33.114
X60.601 Y33.218
X61.264 Y33.34
X61.924 Y33.48
X62.58 Y33.639
X63.231 Y33.816
X63.877 Y34.011
X64.517 Y34.224
X65.151 Y34.455
X65.779 Y34.703
X66.399 Y34.969
X67.011 Y35.253
X67.615 Y35.553
X68.21 Y35.871
X68.796 Y36.206
X69.372 Y36.557
X69.938 Y36.925
X70.493 Y37.308
X71.037 Y37.707
X71.57 Y38.122
X72.091 Y38.551
X72.599 Y38.994
X73.095 Y39.452
X73.578 Y39.923
X74.047 Y40.408
X74.503 Y40.905
X74.946 Y41.415
X75.373 Y41.937
X75.787 Y42.47
X76.185 Y43.015
X76.569 Y43.57
X76.937 Y44.135
X77.289 Y44.711
X77.626 Y45.296
X77.946 Y45.89
X78.249 Y46.492
X78.535 Y47.104
X78.804 Y47.722
X79.056 Y48.348
X79.289 Y48.981
X79.505 Y49.621
X79.703 Y50.266
X79.882 Y50.916
X80.043 Y51.572
X80.186 Y52.231
X80.31 Y52.894
X80.415 Y53.561
X80.502 Y54.23
X80.571 Y54.901
X80.62 Y55.574
X80.651 Y56.248
X80.664 Y56.923
X80.658 Y57.598
X80.633 Y58.272
X80.59 Y58.945
X80.528 Y59.617
X80.448 Y60.287
X80.35 Y60.955
X80.233 Y61.619
X80.098 Y62.28
X79.944 Y62.937
X79.772 Y63.59
X79.581 Y64.237
X79.373 Y64.879
X79.146 Y65.514
X78.901 Y66.143
X78.639 Y66.765
X78.359 Y67.379
X78.062 Y67.985
X77.749 Y68.582
X77.418 Y69.17
X77.071 Y69.749
X76.708 Y70.318
X76.33 Y70.877
X75.936 Y71.424
X75.527 Y71.961
X75.103 Y72.486
X74.666 Y73
X74.214 Y73.501
X73.748 Y73.99
X73.27 Y74.465
X72.778 Y74.927
X72.274 Y75.376
X71.758 Y75.81
X71.229 Y76.23
X70.69 Y76.635
X70.139 Y77.024
X69.577 Y77.398
X69.005 Y77.756
X68.423 Y78.098
X67.832 Y78.423
X67.231 Y78.731
X66.623 Y79.022
X66.006 Y79.296
X65.382 Y79.553
X64.751 Y79.792
X64.114 Y80.013
X63.47 Y80.217
X62.822 Y80.403
X62.168 Y80.57
X61.51 Y80.72
X60.848 Y80.852
X60.183 Y80.965
X59.515 Y81.06
X58.845 Y81.137
X58.173 Y81.195
X57.499 Y81.235
X56.825 Y81.257
X56.15 Y81.26
X55.475 Y81.245
X54.802 Y81.21
X54.129 Y81.157
X53.458 Y81.085
X52.789 Y80.995
X52.123 Y80.886
X51.461 Y80.758
X50.802 Y80.612
X50.148 Y80.448
X49.498 Y80.265
X48.854 Y80.065
X48.215 Y79.846
X47.583 Y79.611
X46.958 Y79.357
X46.339 Y79.087
X45.729 Y78.8
X45.126 Y78.496
X44.532 Y78.176
X43.947 Y77.84
X43.371 Y77.489
X42.805 Y77.122
X42.249 Y76.739
X41.704 Y76.342
X41.169 Y75.93
X40.646 Y75.504
X40.135 Y75.063
X39.636 Y74.609
X39.15 Y74.141
X38.677 Y73.66
X38.218 Y73.165
X37.772 Y72.659
X37.341 Y72.14
X36.924 Y71.609
X36.523 Y71.067
X36.136 Y70.514
X35.765 Y69.95
X35.41 Y69.377
X35.07 Y68.794
X34.747 Y68.201
X34.44 Y67.6
X34.149 Y66.991
X33.875 Y66.375
X33.618 Y65.751
X33.378 Y65.12
X33.156 Y64.483
X32.95 Y63.841
X32.762 Y63.193
X32.591 Y62.54
X32.438 Y61.883
X32.303 Y61.222
X32.186 Y60.557
X32.088 Y59.889
X32.007 Y59.22
X31.945 Y58.548
X31.902 Y57.874
X31.877 Y57.2
X31.87 Y56.525
X31.883 Y55.851
X31.914 Y55.177
X31.963 Y54.504
X32.031 Y53.832
X32.117 Y53.163
X32.222 Y52.496
X32.345 Y51.833
X32.486 Y51.173
X32.644 Y50.517
X32.821 Y49.866
X33.015 Y49.22
X33.227 Y48.579
X33.455 Y47.944
X33.701 Y47.316
X33.964 Y46.694
X34.243 Y46.08
X34.539 Y45.474
X34.851 Y44.875
X35.179 Y44.286
X35.524 Y43.706
X35.884 Y43.135
X36.259 Y42.575
X36.65 Y42.024
X37.056 Y41.485
X37.477 Y40.958
X37.911 Y40.442
X38.36 Y39.938
X38.823 Y39.447
X39.299 Y38.969
X39.788 Y38.504
X40.289 Y38.052
X40.803 Y37.614
X41.328 Y37.191
X41.865 Y36.782
X42.412 Y36.388
X42.97 Y36.008
X43.539 Y35.644
X44.116 Y35.295
X44.703 Y34.962
X45.299 Y34.645
X45.902 Y34.344
X46.514 Y34.059
X47.133 Y33.791
X47.76 Y33.54
X48.392 Y33.306
X49.031 Y33.089
X49.676 Y32.89
X50.326 Y32.709
X50.981 Y32.545
X51.64 Y32.4
X52.302 Y32.273
X52.968 Y32.164
X53.637 Y32.074
X54.308 Y32.002
X54.98 Y31.948
X55.654 Y31.913
X56.329 Y31.897
X57.004 Y31.899
X57.678 Y31.919
X58.352 Y31.957
X59.024 Y32.014
X59.695 Y32.089
X60.363 Y32.181
X61.029 Y32.292
X61.691 Y32.421
X62.35 Y32.567
X63.004 Y32.73
X63.654 Y32.911
X64.299 Y33.11
X64.938 Y33.326
X65.572 Y33.559
X66.198 Y33.81
X66.818 Y34.077
X67.43 Y34.361
X68.034 Y34.661
X68.63 Y34.978
X69.217 Y35.311
X69.794 Y35.66
X70.362 Y36.025
X70.92 Y36.405
X71.467 Y36.799
X72.003 Y37.209
X72.528 Y37.633
X73.041 Y38.071
X73.543 Y38.522
X74.032 Y38.987
X74.508 Y39.465
X74.972 Y39.955
X75.422 Y40.458
X75.859 Y40.972
X76.283 Y41.497
X76.692 Y42.034
X77.087 Y42.581
X77.467 Y43.138
X77.832 Y43.706
X78.182 Y44.283
X78.516 Y44.869
X78.835 Y45.463
X79.138 Y46.067
X79.424 Y46.678
X79.694 Y47.296
X79.946 Y47.922
X80.182 Y48.554
X80.401 Y49.192
X80.602 Y49.836
X80.786 Y50.485
X80.953 Y51.139
X81.101 Y51.797
X81.232 Y52.459
X81.346 Y53.125
X81.441 Y53.793
X81.518 Y54.463
X81.578 Y55.135
X81.62 Y55.808
X81.644 Y56.483
X81.65 Y57.158
X81.638 Y57.832
X81.608 Y58.506
X81.561 Y59.179
X81.496 Y59.851
X81.412 Y60.521
X81.311 Y61.188
X81.192 Y61.852
X81.056 Y62.513
X80.902 Y63.17
X80.73 Y63.822
X80.54 Y64.47
X80.333 Y65.112
X80.109 Y65.748
X79.868 Y66.378
X79.609 Y67.002
X79.334 Y67.618
X79.042 Y68.226
X78.734 Y68.827
X78.41 Y69.419
X78.071 Y70.001
X77.715 Y70.575
X77.345 Y71.139
X76.959 Y71.693
X76.559 Y72.236
X76.145 Y72.769
X75.717 Y73.29
X75.275 Y73.8
X74.819 Y74.298
X74.351 Y74.784
X73.87 Y75.257
X73.376 Y75.717
X72.871 Y76.164
X72.353 Y76.597
X71.824 Y77.016
X71.284 Y77.42
X70.734 Y77.81
X70.173 Y78.185
X69.602 Y78.545
X69.022 Y78.889
X68.432 Y79.218
X67.834 Y79.53
X67.228 Y79.826
X66.614 Y80.106
X65.992 Y80.369
X65.364 Y80.615
X64.729 Y80.844
X64.089 Y81.057
X63.443 Y81.252
X62.792 Y81.43
X62.137 Y81.59
X61.477 Y81.734
X60.815 Y81.86
X60.149 Y81.968
X59.48 Y82.059
X58.809 Y82.132
X58.137 Y82.187
X57.463 Y82.224
X56.789 Y82.244
X56.114 Y82.246
X55.439 Y82.229
X54.765 Y82.195
X54.093 Y82.143
X53.421 Y82.073
X52.752 Y81.985
X52.086 Y81.879
X51.423 Y81.755
X50.763 Y81.614
X50.107 Y81.455
X49.456 Y81.278
X48.81 Y81.084
X48.169 Y80.874
X47.534 Y80.646
X46.905 Y80.401
X46.283 Y80.14
X45.667 Y79.863
X45.06 Y79.569
X44.46 Y79.26
X43.869 Y78.935
X43.286 Y78.595
X42.712 Y78.24
X42.148 Y77.869
X41.594 Y77.484
X41.05 Y77.085
X40.517 Y76.672
X39.995 Y76.244
X39.484 Y75.803
X38.985 Y75.349
X38.498 Y74.882
X38.024 Y74.402
X37.563 Y73.909
X37.115 Y73.404
X36.681 Y72.888
X36.26 Y72.36
X35.854 Y71.822
X35.462 Y71.272
X35.085 Y70.713
X34.723 Y70.143
X34.376 Y69.564
X34.045 Y68.977
X33.729 Y68.38
X33.429 Y67.776
X33.145 Y67.164
X32.877 Y66.545
X32.625 Y65.919
X32.389 Y65.287
X32.171 Y64.648
X31.969 Y64.004
X31.783 Y63.356
X31.615 Y62.702
X31.464 Y62.045
X31.33 Y61.383
X31.214 Y60.719
X31.115 Y60.051
X31.034 Y59.381
X30.97 Y58.709
X30.924 Y58.036
X30.896 Y57.362
X30.886 Y56.687
X30.893 Y56.013
X30.918 Y55.338
X30.962 Y54.665
X31.023 Y53.993
X31.101 Y53.323
X31.198 Y52.655
X31.311 Y51.99
X31.443 Y51.328
X31.591 Y50.67
X31.757 Y50.016
X31.939 Y49.366
X32.139 Y48.722
X32.355 Y48.082
X32.588 Y47.449
X32.837 Y46.822
X33.103 Y46.202
X33.384 Y45.589
X33.682 Y44.983
X33.995 Y44.386
X34.324 Y43.796
X34.668 Y43.216
X35.028 Y42.645
X35.402 Y42.083
X35.791 Y41.532
X36.194 Y40.991
X36.611 Y40.461
X37.043 Y39.942
X37.487 Y39.435
X37.946 Y38.939
X38.417 Y38.456
X38.9 Y37.985
X39.396 Y37.528
X39.904 Y37.083
X40.423 Y36.652
X40.953 Y36.235
X41.494 Y35.832
X42.045 Y35.442
X42.606 Y35.068
X43.177 Y34.708
X43.757 Y34.363
X44.346 Y34.033
X44.943 Y33.719
X45.548 Y33.42
X46.16 Y33.137
X46.78 Y32.87
X47.407 Y32.62
X48.039 Y32.386
X48.678 Y32.168
X49.322 Y31.968
X49.972 Y31.784
X50.626 Y31.618
X51.284 Y31.469
X51.946 Y31.337
X52.611 Y31.223
X53.278 Y31.127
X53.949 Y31.048
X54.621 Y30.987
X55.294 Y30.943
X55.968 Y30.918
X56.643 Y30.91
X57.318 Y30.92
X57.992 Y30.947
X58.665 Y30.992
X59.337 Y31.054
X60.007 Y31.134
X60.675 Y31.231
X61.34 Y31.346
X62.001 Y31.477
X62.66 Y31.626
X63.314 Y31.792
X63.963 Y31.974
X64.608 Y32.174
X65.247 Y32.39
X65.88 Y32.623
X66.508 Y32.872
X67.128 Y33.137
X67.741 Y33.418
X68.347 Y33.715
X68.945 Y34.028
X69.534 Y34.357
X70.115 Y34.701
X70.686 Y35.06
X71.248 Y35.434
X71.8 Y35.822
X72.341 Y36.225
X72.872 Y36.641
X73.392 Y37.071
X73.9 Y37.515
X74.397 Y37.971
X74.882 Y38.44
X75.355 Y38.922
X75.816 Y39.415
X76.263 Y39.92
X76.697 Y40.436
X77.118 Y40.964
X77.526 Y41.502
X77.919 Y42.05
X78.298 Y42.608
X78.663 Y43.175
X79.014 Y43.752
X79.349 Y44.338
X79.669 Y44.932
X79.974 Y45.534
X80.263 Y46.143
X80.536 Y46.76
X80.793 Y47.384
X81.034 Y48.014
X81.259 Y48.651
X81.467 Y49.293
X81.658 Y49.94
X81.832 Y50.591
X81.99 Y51.248
X82.13 Y51.908
X82.254 Y52.571
X82.36 Y53.237
X82.449 Y53.906
X82.521 Y54.577
X82.576 Y55.25
X82.613 Y55.923
X82.633 Y56.598
X82.636 Y57.272
X82.622 Y57.947
X82.59 Y58.621
X82.541 Y59.294
X82.475 Y59.966
X82.392 Y60.635
X82.291 Y61.302
X82.174 Y61.967
X82.039 Y62.628
X81.888 Y63.286
X81.719 Y63.939
X81.534 Y64.588
X81.331 Y65.231
X81.113 Y65.87
X80.877 Y66.502
X80.626 Y67.128
X80.358 Y67.747
X80.074 Y68.36
X79.774 Y68.964
X79.459 Y69.561
X79.128 Y70.149
X78.783 Y70.728
X78.422 Y71.299
X78.047 Y71.86
X77.658 Y72.411
X77.255 Y72.952
X76.838 Y73.482
X76.407 Y74.002
X75.963 Y74.51
X75.507 Y75.007
X75.038 Y75.492
X74.556 Y75.965
X74.063 Y76.425
X73.558 Y76.872
X73.041 Y77.307
X72.514 Y77.728
X71.976 Y78.135
X71.427 Y78.528
X70.869 Y78.907
X70.301 Y79.271
X69.724 Y79.621
X69.138 Y79.955
X68.543 Y80.274
X67.94 Y80.577
X67.33 Y80.865
X66.712 Y81.137
X66.088 Y81.392
X65.457 Y81.632
X64.821 Y81.855
X64.178 Y82.062
X63.531 Y82.253
X62.879 Y82.427
X62.223 Y82.584
X61.563 Y82.724
X60.899 Y82.847
X60.233 Y82.953
X59.564 Y83.042
X58.893 Y83.114
X58.221 Y83.169
X57.547 Y83.207
X56.873 Y83.228
X56.198 Y83.232
X55.523 Y83.218
X54.849 Y83.187
X54.176 Y83.139
X53.505 Y83.074
X52.835 Y82.991
X52.168 Y82.891
X51.503 Y82.775
X50.842 Y82.641
X50.184 Y82.49
X49.531 Y82.322
X48.882 Y82.137
X48.237 Y81.936
X47.599 Y81.719
X46.966 Y81.485
X46.339 Y81.236
X45.718 Y80.97
X45.105 Y80.689
X44.499 Y80.392
X43.901 Y80.08
X43.311 Y79.753
X42.729 Y79.411
X42.156 Y79.055
X41.592 Y78.684
X41.038 Y78.299
X40.494 Y77.9
X39.96 Y77.488
X39.436 Y77.062
X38.924 Y76.623
X38.423 Y76.171
X37.933 Y75.707
X37.456 Y75.23
X36.99 Y74.741
X36.538 Y74.241
X36.098 Y73.729
X35.672 Y73.206
X35.259 Y72.673
X34.86 Y72.128
X34.475 Y71.574
X34.104 Y71.011
X33.748 Y70.438
X33.406 Y69.856
X33.079 Y69.265
X32.767 Y68.667
X32.471 Y68.061
X32.19 Y67.447
X31.925 Y66.827
X31.675 Y66.2
X31.442 Y65.567
X31.224 Y64.928
X31.023 Y64.284
X30.838 Y63.635
X30.669 Y62.982
X30.516 Y62.325
X30.381 Y61.664
X30.262 Y61
X30.159 Y60.333
X30.074 Y59.663
X30.005 Y58.992
X29.954 Y58.319
X29.92 Y57.645
X29.902 Y56.971
Y56.296
X29.919 Y55.622
X29.954 Y54.948
X30.005 Y54.275
X30.073 Y53.604
X30.159 Y52.934
X30.261 Y52.267
X30.38 Y51.603
X30.516 Y50.942
X30.668 Y50.285
X30.838 Y49.632
X31.023 Y48.983
X31.225 Y48.339
X31.443 Y47.701
X31.677 Y47.068
X31.927 Y46.441
X32.193 Y45.821
X32.474 Y45.207
X32.77 Y44.601
X33.082 Y44.003
X33.408 Y43.412
X33.75 Y42.83
X34.106 Y42.257
X34.476 Y41.693
X34.86 Y41.138
X35.259 Y40.594
X35.671 Y40.059
X36.096 Y39.536
X36.535 Y39.023
X36.986 Y38.521
X37.451 Y38.032
X37.927 Y37.554
X38.415 Y37.088
X38.915 Y36.635
X39.426 Y36.195
X39.949 Y35.767
X40.481 Y35.353
X41.024 Y34.953
X41.578 Y34.566
X42.14 Y34.194
X42.712 Y33.835
X43.292 Y33.492
X43.882 Y33.162
X44.479 Y32.848
X45.083 Y32.549
X45.695 Y32.265
X46.314 Y31.996
X46.94 Y31.743
X47.572 Y31.506
X48.209 Y31.285
X48.852 Y31.08
X49.5 Y30.891
X50.152 Y30.719
X50.809 Y30.564
X51.469 Y30.425
X52.133 Y30.303
X52.799 Y30.198
X53.468 Y30.109
X54.139 Y30.038
X54.812 Y29.984
X55.486 Y29.947
X56.16 Y29.927
X56.835 Y29.924
X57.509 Y29.938
X58.183 Y29.969
X58.856 Y30.017
X59.528 Y30.082
X60.198 Y30.164
X60.865 Y30.262
X61.53 Y30.378
X62.192 Y30.51
X62.85 Y30.658
X63.505 Y30.822
X64.155 Y31.003
X64.8 Y31.2
X65.44 Y31.413
X66.075 Y31.642
X66.704 Y31.887
X67.326 Y32.148
X67.942 Y32.424
X68.55 Y32.715
X69.152 Y33.022
X69.745 Y33.343
X70.33 Y33.68
X70.906 Y34.031
X71.473 Y34.396
X72.031 Y34.776
X72.579 Y35.17
X73.117 Y35.577
X73.645 Y35.997
X74.162 Y36.431
X74.668 Y36.877
X75.163 Y37.336
X75.646 Y37.807
X76.117 Y38.29
X76.576 Y38.784
X77.023 Y39.29
X77.457 Y39.807
X77.878 Y40.334
X78.286 Y40.871
X78.681 Y41.419
X79.062 Y41.975
X79.429 Y42.541
X79.782 Y43.116
X80.121 Y43.7
X80.446 Y44.291
X80.755 Y44.891
X81.05 Y45.498
X81.329 Y46.112
X81.594 Y46.733
X81.842 Y47.36
X82.075 Y47.994
X82.292 Y48.633
X82.493 Y49.277
X82.677 Y49.926
X82.846 Y50.579
X82.998 Y51.236
X83.134 Y51.897
X83.254 Y52.561
X83.356 Y53.228
X83.442 Y53.898
X83.512 Y54.569
X83.564 Y55.241
X83.6 Y55.915
X83.62 Y56.59
X83.622 Y57.264
X83.609 Y57.939
X83.578 Y58.613
X83.531 Y59.286
X83.467 Y59.958
X83.387 Y60.628
X83.291 Y61.296
X83.177 Y61.961
X83.048 Y62.623
X82.902 Y63.282
X82.74 Y63.937
X82.561 Y64.588
X82.366 Y65.234
X82.155 Y65.875
X81.929 Y66.51
X81.686 Y67.14
X81.428 Y67.763
X81.154 Y68.38
X80.865 Y68.99
X80.561 Y69.592
X80.242 Y70.186
X79.908 Y70.773
X79.559 Y71.35
X79.196 Y71.919
X78.819 Y72.479
X78.429 Y73.029
X78.025 Y73.569
X77.607 Y74.1
X77.177 Y74.619
X76.734 Y75.128
X76.278 Y75.626
X75.811 Y76.112
X75.331 Y76.587
X74.84 Y77.05
X74.338 Y77.5
X73.824 Y77.938
X73.3 Y78.364
X72.766 Y78.776
X72.222 Y79.174
X71.667 Y79.559
X71.104 Y79.93
X70.531 Y80.287
X69.95 Y80.629
X69.36 Y80.957
X68.762 Y81.27
X68.157 Y81.568
X67.544 Y81.851
X66.925 Y82.118
X66.299 Y82.37
X65.667 Y82.607
X65.029 Y82.827
X64.386 Y83.031
X63.738 Y83.22
X63.086 Y83.392
X62.429 Y83.548
X61.769 Y83.688
X61.106 Y83.812
X60.44 Y83.919
X59.771 Y84.01
X59.1 Y84.085
X58.428 Y84.143
X57.755 Y84.185
X57.08 Y84.21
X56.406 Y84.218
X55.731 Y84.21
X55.057 Y84.186
X54.383 Y84.144
X53.711 Y84.087
X53.04 Y84.012
X52.372 Y83.921
X51.706 Y83.814
X51.042 Y83.69
X50.382 Y83.549
X49.726 Y83.393
X49.074 Y83.22
X48.426 Y83.031
X47.783 Y82.826
X47.145 Y82.606
X46.513 Y82.369
X45.887 Y82.117
X45.268 Y81.85
X44.655 Y81.568
X44.049 Y81.27
X43.451 Y80.958
X42.861 Y80.632
X42.278 Y80.291
X41.704 Y79.936
X41.139 Y79.568
X40.583 Y79.185
X40.037 Y78.789
X39.5 Y78.38
X38.973 Y77.959
X38.457 Y77.524
X37.952 Y77.077
X37.458 Y76.618
X36.975 Y76.146
X36.503 Y75.663
X36.044 Y75.169
X35.597 Y74.663
X35.163 Y74.147
X34.742 Y73.62
X34.333 Y73.083
X33.938 Y72.536
X33.557 Y71.979
X33.189 Y71.413
X32.836 Y70.838
X32.497 Y70.255
X32.172 Y69.663
X31.862 Y69.064
X31.567 Y68.457
X31.287 Y67.844
X31.021 Y67.223
X30.771 Y66.597
X30.536 Y65.964
X30.317 Y65.326
X30.113 Y64.683
X29.925 Y64.035
X29.752 Y63.383
X29.596 Y62.726
X29.455 Y62.066
X29.33 Y61.403
X29.222 Y60.737
X29.129 Y60.069
X29.053 Y59.398
X28.994 Y58.726
X28.951 Y58.053
X28.924 Y57.379
X28.914 Y56.704
X28.92 Y56.029
X28.943 Y55.355
X28.982 Y54.681
X29.038 Y54.009
X29.11 Y53.338
X29.199 Y52.669
X29.304 Y52.003
X29.426 Y51.339
X29.563 Y50.678
X29.717 Y50.021
X29.887 Y49.368
X30.072 Y48.719
X30.274 Y48.075
X30.491 Y47.436
X30.723 Y46.803
X30.97 Y46.175
X31.233 Y45.554
X31.511 Y44.939
X31.803 Y44.331
X32.11 Y43.73
X32.432 Y43.137
X32.768 Y42.551
X33.118 Y41.975
X33.482 Y41.406
X33.859 Y40.847
X34.251 Y40.297
X34.655 Y39.757
X35.073 Y39.227
X35.503 Y38.708
X35.946 Y38.199
X36.401 Y37.701
X36.869 Y37.214
X37.348 Y36.739
X37.839 Y36.276
X38.341 Y35.825
X38.854 Y35.387
X39.377 Y34.961
X39.91 Y34.548
X40.454 Y34.148
X41.007 Y33.761
X41.569 Y33.388
X42.14 Y33.029
X42.72 Y32.683
X43.308 Y32.352
X43.904 Y32.035
X44.507 Y31.733
X45.117 Y31.445
X45.734 Y31.172
X46.357 Y30.913
X46.987 Y30.671
X47.622 Y30.443
X48.263 Y30.231
X48.908 Y30.034
X49.558 Y29.854
X50.213 Y29.689
X50.871 Y29.54
X51.532 Y29.408
X52.197 Y29.292
X52.864 Y29.191
X53.534 Y29.108
X54.205 Y29.041
X54.878 Y28.99
X55.552 Y28.956
X56.227 Y28.938
X56.901 Y28.937
X57.576 Y28.953
X58.25 Y28.984
X58.923 Y29.033
X59.595 Y29.097
X60.265 Y29.178
X60.932 Y29.274
X61.598 Y29.387
X62.26 Y29.516
X62.919 Y29.661
X63.574 Y29.822
X64.226 Y29.998
X64.873 Y30.19
X65.515 Y30.397
X66.152 Y30.62
X66.783 Y30.858
X67.408 Y31.111
X68.028 Y31.379
X68.64 Y31.662
X69.246 Y31.96
X69.844 Y32.272
X70.434 Y32.599
X71.016 Y32.94
X71.59 Y33.295
X72.155 Y33.664
X72.711 Y34.047
X73.257 Y34.443
X73.794 Y34.852
X74.32 Y35.274
X74.836 Y35.709
X75.342 Y36.156
X75.836 Y36.615
X76.319 Y37.086
X76.791 Y37.568
X77.252 Y38.061
X77.7 Y38.565
X78.136 Y39.08
X78.56 Y39.605
X78.971 Y40.14
X79.37 Y40.685
X79.755 Y41.239
X80.127 Y41.802
X80.486 Y42.373
X80.831 Y42.953
X81.162 Y43.541
X81.478 Y44.137
X81.781 Y44.74
X82.069 Y45.35
X82.342 Y45.967
X82.601 Y46.59
X82.844 Y47.22
X83.072 Y47.855
X83.285 Y48.495
X83.483 Y49.14
X83.664 Y49.79
X83.83 Y50.444
X83.98 Y51.102
X84.114 Y51.763
X84.232 Y52.428
X84.334 Y53.095
X84.42 Y53.764
X84.49 Y54.435
X84.544 Y55.108
X84.582 Y55.781
X84.604 Y56.456
X84.61 Y57.13
X84.599 Y57.805
X84.573 Y58.479
X84.531 Y59.153
X84.473 Y59.825
X84.398 Y60.496
X84.308 Y61.164
X84.202 Y61.831
X84.08 Y62.494
X83.943 Y63.155
X83.789 Y63.812
X83.62 Y64.465
X83.435 Y65.114
X83.235 Y65.759
X83.019 Y66.398
X82.788 Y67.032
X82.541 Y67.66
X82.28 Y68.282
X82.003 Y68.897
X81.712 Y69.506
X81.406 Y70.107
X81.085 Y70.701
X80.75 Y71.287
X80.401 Y71.864
X80.039 Y72.434
X79.663 Y72.994
X79.273 Y73.545
X78.871 Y74.086
X78.456 Y74.618
X78.028 Y75.14
X77.588 Y75.651
X77.136 Y76.152
X76.672 Y76.642
X76.196 Y77.121
X75.709 Y77.588
X75.212 Y78.044
X74.703 Y78.488
X74.185 Y78.919
X73.656 Y79.338
X73.117 Y79.744
X72.568 Y80.137
X72.011 Y80.517
X71.444 Y80.883
X70.869 Y81.236
X70.285 Y81.575
X69.694 Y81.899
X69.094 Y82.209
X68.487 Y82.504
X67.874 Y82.785
X67.254 Y83.051
X66.627 Y83.302
X65.995 Y83.537
X65.357 Y83.758
X64.714 Y83.963
X64.067 Y84.152
X63.415 Y84.326
X62.759 Y84.485
X62.1 Y84.628
X61.437 Y84.755
X60.771 Y84.866
X60.103 Y84.962
X59.433 Y85.042
X58.762 Y85.106
X58.089 Y85.154
X57.415 Y85.186
X56.74 Y85.203
X56.065
X55.391 Y85.187
X54.717 Y85.156
X54.044 Y85.108
X53.372 Y85.044
X52.702 Y84.964
X52.034 Y84.869
X51.369 Y84.757
X50.706 Y84.63
X50.047 Y84.486
X49.391 Y84.327
X48.739 Y84.152
X48.092 Y83.962
X47.449 Y83.756
X46.812 Y83.535
X46.18 Y83.298
X45.554 Y83.047
X44.934 Y82.781
X44.32 Y82.501
X43.713 Y82.206
X43.113 Y81.896
X42.521 Y81.573
X41.937 Y81.236
X41.36 Y80.885
X40.792 Y80.521
X40.233 Y80.144
X39.682 Y79.753
X39.141 Y79.35
X38.61 Y78.934
X38.088 Y78.506
X37.577 Y78.066
X37.076 Y77.613
X36.586 Y77.15
X36.108 Y76.674
X35.64 Y76.188
X35.184 Y75.69
X34.741 Y75.182
X34.309 Y74.663
X33.89 Y74.134
X33.484 Y73.595
X33.091 Y73.047
X32.711 Y72.489
X32.344 Y71.923
X31.991 Y71.348
X31.652 Y70.765
X31.326 Y70.174
X31.015 Y69.575
X30.718 Y68.969
X30.435 Y68.356
X30.167 Y67.737
X29.913 Y67.112
X29.674 Y66.481
X29.45 Y65.844
X29.241 Y65.203
X29.047 Y64.557
X28.868 Y63.906
X28.705 Y63.251
X28.556 Y62.593
X28.423 Y61.932
X28.306 Y61.267
X28.204 Y60.6
X28.118 Y59.931
X28.048 Y59.26
X27.994 Y58.587
X27.955 Y57.914
X27.932 Y57.239
X27.925 Y56.565
X27.935 Y55.89
X27.96 Y55.216
X28.002 Y54.542
X28.059 Y53.87
X28.133 Y53.199
X28.222 Y52.53
X28.327 Y51.864
X28.447 Y51.2
X28.584 Y50.539
X28.736 Y49.882
X28.903 Y49.228
X29.085 Y48.578
X29.283 Y47.933
X29.496 Y47.293
X29.724 Y46.658
X29.966 Y46.028
X30.223 Y45.404
X30.495 Y44.786
X30.781 Y44.175
X31.081 Y43.571
X31.395 Y42.974
X31.724 Y42.384
X32.065 Y41.803
X32.421 Y41.229
X32.789 Y40.664
X33.171 Y40.108
X33.566 Y39.561
X33.974 Y39.023
X34.394 Y38.495
X34.827 Y37.977
X35.272 Y37.47
X35.729 Y36.974
X36.198 Y36.488
X36.678 Y36.014
X37.169 Y35.551
X37.671 Y35.1
X38.183 Y34.661
X38.705 Y34.234
X39.238 Y33.819
X39.78 Y33.418
X40.331 Y33.028
X40.891 Y32.652
X41.46 Y32.289
X42.037 Y31.94
X42.622 Y31.604
X43.215 Y31.282
X43.815 Y30.973
X44.423 Y30.679
X45.037 Y30.399
X45.657 Y30.133
X46.283 Y29.882
X46.915 Y29.646
X47.552 Y29.424
X48.195 Y29.218
X48.842 Y29.026
X49.493 Y28.85
X50.148 Y28.689
X50.807 Y28.544
X51.47 Y28.415
X52.135 Y28.301
X52.802 Y28.203
X53.472 Y28.121
X54.144 Y28.055
X54.816 Y28.005
X55.49 Y27.971
X56.165 Y27.952
X56.84 Y27.95
X57.514 Y27.963
X58.188 Y27.993
X58.862 Y28.038
X59.534 Y28.099
X60.204 Y28.175
X60.872 Y28.267
X61.539 Y28.375
X62.202 Y28.498
X62.862 Y28.636
X63.519 Y28.79
X64.173 Y28.959
X64.822 Y29.143
X65.467 Y29.342
X66.107 Y29.556
X66.741 Y29.785
X67.371 Y30.028
X67.994 Y30.286
X68.611 Y30.559
X69.222 Y30.845
X69.826 Y31.146
X70.423 Y31.462
X71.012 Y31.791
X71.593 Y32.134
X72.165 Y32.491
X72.73 Y32.861
X73.285 Y33.244
X73.831 Y33.64
X74.368 Y34.049
X74.896 Y34.47
X75.413 Y34.903
X75.92 Y35.348
X76.416 Y35.805
X76.902 Y36.274
X77.377 Y36.753
X77.84 Y37.243
X78.292 Y37.744
X78.733 Y38.255
X79.162 Y38.777
X79.578 Y39.307
X79.982 Y39.848
X80.374 Y40.397
X80.753 Y40.955
X81.119 Y41.522
X81.472 Y42.097
X81.812 Y42.68
X82.138 Y43.271
X82.451 Y43.869
X82.75 Y44.474
X83.034 Y45.085
X83.304 Y45.704
X83.56 Y46.328
X83.801 Y46.958
X84.027 Y47.594
X84.239 Y48.235
X84.435 Y48.88
X84.616 Y49.53
X84.782 Y50.184
X84.933 Y50.842
X85.069 Y51.503
X85.189 Y52.167
X85.293 Y52.834
X85.382 Y53.502
X85.456 Y54.173
X85.514 Y54.845
X85.557 Y55.519
X85.584 Y56.193
X85.596 Y56.868
X85.592 Y57.542
X85.573 Y58.217
X85.538 Y58.891
X85.488 Y59.564
X85.422 Y60.235
X85.341 Y60.905
X85.245 Y61.573
X85.133 Y62.238
X85.006 Y62.901
X84.864 Y63.561
X84.707 Y64.217
X84.534 Y64.869
X84.346 Y65.517
X84.143 Y66.161
X83.925 Y66.799
X83.692 Y67.433
X83.445 Y68.06
X83.182 Y68.682
X82.906 Y69.297
X82.615 Y69.906
X82.31 Y70.508
X81.991 Y71.103
X81.658 Y71.689
X81.311 Y72.269
X80.952 Y72.839
X80.579 Y73.402
X80.193 Y73.956
X79.795 Y74.5
X79.384 Y75.035
X78.961 Y75.561
X78.526 Y76.077
X78.079 Y76.583
X77.621 Y77.078
X77.152 Y77.563
X76.671 Y78.036
X76.18 Y78.499
X75.678 Y78.95
X75.166 Y79.39
X74.644 Y79.817
X74.113 Y80.233
X73.572 Y80.636
X73.021 Y81.026
X72.462 Y81.404
X71.894 Y81.768
X71.317 Y82.119
X70.733 Y82.456
X70.141 Y82.78
X69.541 Y83.089
X68.935 Y83.385
X68.322 Y83.666
X67.702 Y83.933
X67.076 Y84.186
X66.445 Y84.424
X65.808 Y84.647
X65.166 Y84.856
X64.52 Y85.049
X63.869 Y85.228
X63.215 Y85.392
X62.557 Y85.54
X61.895 Y85.674
X61.231 Y85.792
X60.564 Y85.895
X59.895 Y85.983
X59.224 Y86.056
X58.552 Y86.113
X57.878 Y86.155
X57.204 Y86.181
X56.529 Y86.192
X55.855 Y86.188
X55.18 Y86.168
X54.506 Y86.133
X53.834 Y86.082
X53.162 Y86.015
X52.492 Y85.933
X51.825 Y85.836
X51.16 Y85.723
X50.497 Y85.595
X49.838 Y85.451
X49.182 Y85.292
X48.53 Y85.118
X47.882 Y84.929
X47.239 Y84.726
X46.601 Y84.507
X45.968 Y84.274
X45.34 Y84.026
X44.718 Y83.764
X44.102 Y83.488
X43.493 Y83.198
X42.891 Y82.894
X42.295 Y82.576
X41.707 Y82.245
X41.127 Y81.901
X40.555 Y81.544
X39.991 Y81.174
X39.435 Y80.791
X38.888 Y80.395
X38.35 Y79.988
X37.822 Y79.568
X37.304 Y79.136
X36.795 Y78.693
X36.296 Y78.238
X35.809 Y77.772
X35.332 Y77.295
X34.866 Y76.806
X34.412 Y76.308
X33.969 Y75.799
X33.538 Y75.279
X33.119 Y74.75
X32.712 Y74.212
X32.318 Y73.664
X31.937 Y73.108
X31.568 Y72.542
X31.213 Y71.969
X30.871 Y71.387
X30.542 Y70.798
X30.227 Y70.201
X29.925 Y69.598
X29.637 Y68.987
X29.364 Y68.371
X29.104 Y67.748
X28.859 Y67.119
X28.627 Y66.485
X28.411 Y65.846
X28.208 Y65.203
X28.02 Y64.555
X27.847 Y63.903
X27.689 Y63.247
X27.546 Y62.587
X27.417 Y61.925
X27.304 Y61.26
X27.205 Y60.592
X27.122 Y59.923
X27.055 Y59.251
X27.002 Y58.578
X26.966 Y57.905
X26.944 Y57.23
X26.938 Y56.556
X26.948 Y55.881
X26.973 Y55.207
X27.013 Y54.533
X27.069 Y53.861
X27.14 Y53.19
X27.226 Y52.52
X27.328 Y51.853
X27.445 Y51.189
X27.577 Y50.527
X27.724 Y49.869
X27.886 Y49.214
X28.063 Y48.562
X28.254 Y47.915
X28.46 Y47.273
X28.681 Y46.635
X28.916 Y46.003
X29.165 Y45.376
X29.428 Y44.754
X29.705 Y44.139
X29.996 Y43.53
X30.301 Y42.928
X30.619 Y42.333
X30.951 Y41.745
X31.295 Y41.165
X31.654 Y40.594
X32.025 Y40.03
X32.408 Y39.475
X32.805 Y38.929
X33.213 Y38.392
X33.634 Y37.865
X34.067 Y37.347
X34.512 Y36.84
X34.968 Y36.342
X35.435 Y35.856
X35.914 Y35.38
X36.403 Y34.915
X36.903 Y34.462
X37.413 Y34.02
X37.932 Y33.589
X38.462 Y33.171
X39 Y32.765
X39.548 Y32.371
X40.105 Y31.989
X40.67 Y31.62
X41.243 Y31.265
X41.824 Y30.922
X42.413 Y30.592
X43.009 Y30.275
X43.612 Y29.972
X44.221 Y29.683
X44.837 Y29.408
X45.459 Y29.146
X46.087 Y28.898
X46.72 Y28.665
X47.359 Y28.447
X48.002 Y28.243
X48.649 Y28.054
X49.301 Y27.879
X49.957 Y27.72
X50.616 Y27.575
X51.278 Y27.446
X51.943 Y27.332
X52.611 Y27.233
X53.28 Y27.149
X53.952 Y27.081
X54.624 Y27.028
X55.298 Y26.991
X55.972 Y26.969
X56.647 Y26.962
X57.322 Y26.971
X57.996 Y26.995
X58.67 Y27.034
X59.342 Y27.088
X60.013 Y27.158
X60.683 Y27.243
X61.35 Y27.342
X62.015 Y27.457
X62.677 Y27.587
X63.336 Y27.731
X63.992 Y27.89
X64.644 Y28.064
X65.292 Y28.252
X65.936 Y28.455
X66.575 Y28.672
X67.208 Y28.904
X67.837 Y29.15
X68.459 Y29.41
X69.076 Y29.684
X69.686 Y29.972
X70.289 Y30.274
X70.886 Y30.59
X71.475 Y30.919
X72.056 Y31.261
X72.63 Y31.616
X73.195 Y31.985
X73.752 Y32.366
X74.3 Y32.759
X74.839 Y33.165
X75.369 Y33.583
X75.889 Y34.013
X76.4 Y34.454
X76.9 Y34.907
X77.39 Y35.371
X77.87 Y35.845
X78.338 Y36.331
X78.796 Y36.826
X79.243 Y37.332
X79.679 Y37.847
X80.102 Y38.372
X80.514 Y38.907
X80.915 Y39.45
X81.303 Y40.002
X81.678 Y40.562
X82.041 Y41.131
X82.392 Y41.708
X82.729 Y42.292
X83.053 Y42.884
X83.364 Y43.483
X83.661 Y44.089
X83.945 Y44.701
X84.214 Y45.32
X84.47 Y45.944
X84.712 Y46.574
X84.939 Y47.209
X85.152 Y47.85
X85.351 Y48.494
X85.534 Y49.144
X85.704 Y49.797
X85.858 Y50.454
X85.998 Y51.114
X86.123 Y51.777
X86.233 Y52.443
X86.328 Y53.111
X86.408 Y53.781
X86.473 Y54.452
X86.523 Y55.125
X86.559 Y55.799
X86.579 Y56.473
X86.584 Y57.148
X86.574 Y57.823
X86.55 Y58.497
X86.51 Y59.171
X86.455 Y59.843
X86.386 Y60.514
X86.302 Y61.184
X86.202 Y61.851
X86.088 Y62.516
X85.958 Y63.179
X85.814 Y63.838
X85.656 Y64.494
X85.482 Y65.146
X85.294 Y65.794
X85.091 Y66.437
X84.874 Y67.076
X84.643 Y67.71
X84.397 Y68.338
X84.137 Y68.961
X83.863 Y69.578
X83.575 Y70.188
X83.274 Y70.792
X82.959 Y71.388
X82.631 Y71.978
X82.289 Y72.56
X81.935 Y73.134
X81.568 Y73.7
X81.188 Y74.258
X80.796 Y74.807
X80.392 Y75.347
X79.976 Y75.879
X79.548 Y76.4
X79.109 Y76.913
X78.658 Y77.415
X78.196 Y77.907
X77.724 Y78.389
X77.241 Y78.86
X76.748 Y79.32
X76.244 Y79.769
X75.73 Y80.207
X75.207 Y80.633
X74.674 Y81.047
X74.133 Y81.449
X73.582 Y81.839
X73.023 Y82.217
X72.455 Y82.581
X71.879 Y82.933
X71.296 Y83.272
X70.705 Y83.597
X70.106 Y83.91
X69.501 Y84.208
X68.89 Y84.493
X68.272 Y84.764
X67.648 Y85.021
X67.018 Y85.264
X66.384 Y85.493
X65.744 Y85.708
X65.1 Y85.908
X64.451 Y86.094
X63.798 Y86.265
X63.142 Y86.422
X62.483 Y86.565
X61.82 Y86.692
X61.155 Y86.805
X60.487 Y86.904
X59.818 Y86.987
X59.146 Y87.056
X58.474 Y87.11
X57.8 Y87.149
X57.126 Y87.172
X56.451 Y87.181
X55.776 Y87.175
X55.102 Y87.154
X54.428 Y87.118
X53.755 Y87.067
X53.084 Y87
X52.414 Y86.919
X51.746 Y86.823
X51.081 Y86.712
X50.418 Y86.586
X49.758 Y86.445
X49.101 Y86.29
X48.448 Y86.12
X47.799 Y85.935
X47.155 Y85.736
X46.514 Y85.523
X45.879 Y85.295
X45.249 Y85.054
X44.625 Y84.798
X44.006 Y84.529
X43.393 Y84.246
X42.787 Y83.95
X42.187 Y83.641
X41.595 Y83.318
X41.009 Y82.982
X40.431 Y82.634
X39.861 Y82.273
X39.299 Y81.9
X38.745 Y81.514
X38.2 Y81.116
X37.664 Y80.707
X37.137 Y80.285
X36.62 Y79.852
X36.112 Y79.408
X35.614 Y78.953
X35.126 Y78.486
X34.649 Y78.009
X34.183 Y77.522
X33.727 Y77.024
X33.283 Y76.516
X32.85 Y75.998
X32.429 Y75.471
X32.02 Y74.935
X31.622 Y74.39
X31.237 Y73.836
X30.864 Y73.273
X30.504 Y72.703
X30.157 Y72.124
X29.822 Y71.538
X29.501 Y70.945
X29.192 Y70.345
X28.897 Y69.738
X28.616 Y69.125
X28.348 Y68.506
X28.093 Y67.881
X27.852 Y67.25
X27.626 Y66.615
X27.413 Y65.974
X27.214 Y65.33
X27.029 Y64.681
X26.859 Y64.028
X26.703 Y63.371
X26.562 Y62.711
X26.435 Y62.049
X26.323 Y61.383
X26.225 Y60.716
X26.142 Y60.046
X26.074 Y59.375
X26.021 Y58.702
X25.983 Y58.028
X25.959 Y57.354
X25.951 Y56.679
X25.957 Y56.005
X25.979 Y55.33
X26.015 Y54.656
X26.066 Y53.984
X26.132 Y53.312
X26.213 Y52.642
X26.309 Y51.974
X26.419 Y51.309
X26.545 Y50.646
X26.684 Y49.985
X26.838 Y49.329
X27.007 Y48.675
X27.189 Y48.026
X27.386 Y47.38
X27.597 Y46.739
X27.822 Y46.103
X28.061 Y45.472
X28.314 Y44.846
X28.58 Y44.226
X28.86 Y43.612
X29.153 Y43.005
X29.46 Y42.404
X29.779 Y41.809
X30.112 Y41.222
X30.457 Y40.643
X30.815 Y40.071
X31.186 Y39.507
X31.569 Y38.951
X31.964 Y38.405
X32.371 Y37.866
X32.79 Y37.338
X33.221 Y36.818
X33.663 Y36.308
X34.116 Y35.808
X34.58 Y35.319
X35.055 Y34.839
X35.541 Y34.37
X36.036 Y33.912
X36.542 Y33.465
X37.057 Y33.03
X37.581 Y32.605
X38.115 Y32.193
X38.658 Y31.792
X39.209 Y31.403
X39.769 Y31.026
X40.337 Y30.662
X40.913 Y30.31
X41.496 Y29.97
X42.086 Y29.644
X42.684 Y29.33
X43.288 Y29.03
X43.899 Y28.743
X44.516 Y28.469
X45.138 Y28.209
X45.766 Y27.963
X46.4 Y27.731
X47.038 Y27.512
X47.681 Y27.308
X48.329 Y27.118
X48.98 Y26.942
X49.635 Y26.781
X50.294 Y26.634
X50.956 Y26.502
X51.62 Y26.384
X52.287 Y26.281
X52.956 Y26.193
X53.627 Y26.12
X54.299 Y26.062
X54.972 Y26.019
X55.647 Y25.99
X56.321 Y25.976
X56.996 Y25.977
X57.67 Y25.993
X58.345 Y26.024
X59.018 Y26.069
X59.69 Y26.129
X60.36 Y26.204
X61.029 Y26.293
X61.696 Y26.397
X62.36 Y26.515
X63.022 Y26.648
X63.68 Y26.796
X64.335 Y26.957
X64.987 Y27.133
X65.634 Y27.323
X66.277 Y27.527
X66.916 Y27.745
X67.55 Y27.977
X68.178 Y28.223
X68.801 Y28.482
X69.418 Y28.755
X70.029 Y29.041
X70.634 Y29.341
X71.231 Y29.654
X71.822 Y29.98
X72.406 Y30.319
X72.981 Y30.671
X73.549 Y31.035
X74.109 Y31.412
X74.661 Y31.8
X75.204 Y32.201
X75.738 Y32.613
X76.263 Y33.038
X76.778 Y33.473
X77.284 Y33.919
X77.78 Y34.377
X78.266 Y34.845
X78.742 Y35.323
X79.207 Y35.812
X79.662 Y36.31
X80.106 Y36.818
X80.539 Y37.336
X80.96 Y37.863
X81.37 Y38.399
X81.768 Y38.944
X82.155 Y39.497
X82.53 Y40.058
X82.892 Y40.627
X83.242 Y41.204
X83.579 Y41.789
X83.904 Y42.38
X84.215 Y42.979
X84.514 Y43.584
X84.8 Y44.195
X85.072 Y44.812
X85.33 Y45.436
X85.575 Y46.064
X85.806 Y46.698
X86.024 Y47.337
X86.227 Y47.98
X86.417 Y48.628
X86.592 Y49.28
X86.753 Y49.935
X86.899 Y50.594
X87.032 Y51.255
X87.15 Y51.92
X87.253 Y52.586
X87.342 Y53.255
X87.417 Y53.926
X87.477 Y54.598
X87.523 Y55.271
X87.554 Y55.945
X87.57 Y56.62
X87.572 Y57.294
X87.56 Y57.969
X87.533 Y58.643
X87.491 Y59.317
X87.435 Y59.989
X87.364 Y60.66
X87.279 Y61.33
X87.179 Y61.997
X87.065 Y62.662
X86.937 Y63.324
X86.794 Y63.984
X86.637 Y64.64
X86.466 Y65.293
X86.281 Y65.942
X86.081 Y66.586
X85.868 Y67.226
X85.64 Y67.862
X85.399 Y68.492
X85.144 Y69.116
X84.875 Y69.735
X84.593 Y70.348
X84.298 Y70.955
X83.99 Y71.555
X83.668 Y72.149
X83.334 Y72.735
X82.987 Y73.314
X82.628 Y73.885
X82.257 Y74.448
X81.873 Y75.003
X81.477 Y75.55
X81.07 Y76.088
X80.651 Y76.617
X80.221 Y77.137
X79.78 Y77.647
X79.327 Y78.148
X78.865 Y78.639
X78.391 Y79.119
X77.908 Y79.59
X77.414 Y80.05
X76.91 Y80.499
X76.397 Y80.937
X75.874 Y81.364
X75.343 Y81.78
X74.802 Y82.183
X74.253 Y82.575
X73.696 Y82.955
X73.13 Y83.323
X72.556 Y83.678
X71.975 Y84.021
X71.386 Y84.351
X70.791 Y84.668
X70.188 Y84.972
X69.58 Y85.263
X68.965 Y85.541
X68.344 Y85.805
X67.717 Y86.055
X67.085 Y86.292
X66.449 Y86.516
X65.807 Y86.725
X65.161 Y86.92
X64.511 Y87.102
X63.858 Y87.27
X63.201 Y87.423
X62.541 Y87.562
X61.877 Y87.687
X61.212 Y87.798
X60.544 Y87.894
X59.874 Y87.976
X59.203 Y88.044
X58.53 Y88.097
X57.857 Y88.135
X57.182 Y88.159
X56.508 Y88.169
X55.833 Y88.164
X55.158 Y88.145
X54.484 Y88.111
X53.811 Y88.062
X53.14 Y87.999
X52.469 Y87.922
X51.801 Y87.83
X51.135 Y87.724
X50.471 Y87.603
X49.81 Y87.468
X49.152 Y87.318
X48.497 Y87.155
X47.846 Y86.977
X47.199 Y86.786
X46.556 Y86.58
X45.918 Y86.361
X45.285 Y86.128
X44.657 Y85.881
X44.034 Y85.621
X43.417 Y85.348
X42.806 Y85.062
X42.201 Y84.763
X41.603 Y84.45
X41.012 Y84.125
X40.428 Y83.788
X39.851 Y83.438
X39.281 Y83.076
X38.72 Y82.701
X38.167 Y82.315
X37.622 Y81.918
X37.085 Y81.508
X36.558 Y81.087
X36.039 Y80.656
X35.53 Y80.213
X35.031 Y79.759
X34.541 Y79.295
X34.062 Y78.82
X33.592 Y78.335
X33.134 Y77.84
X32.686 Y77.336
X32.249 Y76.821
X31.823 Y76.298
X31.409 Y75.765
X31.006 Y75.224
X30.615 Y74.674
X30.236 Y74.116
X29.868 Y73.55
X29.514 Y72.976
X29.171 Y72.395
X28.841 Y71.806
X28.524 Y71.211
X28.219 Y70.608
X27.928 Y70
X27.649 Y69.385
X27.384 Y68.765
X27.132 Y68.139
X26.893 Y67.508
X26.668 Y66.872
X26.457 Y66.231
X26.259 Y65.586
X26.075 Y64.937
X25.905 Y64.284
X25.748 Y63.627
X25.606 Y62.968
X25.478 Y62.305
X25.363 Y61.64
X25.263 Y60.973
X25.178 Y60.304
X25.106 Y59.633
X25.049 Y58.961
X25.007 Y58.287
X24.978 Y57.613
X24.965 Y56.938
Y56.264
X24.98 Y55.589
X25.01 Y54.915
X25.054 Y54.242
X25.112 Y53.569
X25.185 Y52.899
X25.272 Y52.229
X25.374 Y51.562
X25.489 Y50.898
X25.619 Y50.235
X25.763 Y49.576
X25.921 Y48.92
X26.092 Y48.268
X26.278 Y47.619
X26.478 Y46.974
X26.691 Y46.334
X26.917 Y45.699
X27.158 Y45.068
X27.411 Y44.443
X27.678 Y43.823
X27.958 Y43.209
X28.25 Y42.601
X28.556 Y41.999
X28.874 Y41.404
X29.205 Y40.816
X29.549 Y40.236
X29.904 Y39.662
X30.272 Y39.097
X30.652 Y38.539
X31.044 Y37.989
X31.447 Y37.449
X31.862 Y36.916
X32.288 Y36.393
X32.725 Y35.879
X33.174 Y35.375
X33.632 Y34.88
X34.102 Y34.395
X34.581 Y33.921
X35.071 Y33.456
X35.57 Y33.003
X36.079 Y32.56
X36.598 Y32.128
X37.125 Y31.707
X37.661 Y31.297
X38.206 Y30.899
X38.759 Y30.512
X39.32 Y30.138
X39.889 Y29.775
X40.466 Y29.425
X41.05 Y29.087
X41.641 Y28.761
X42.238 Y28.448
X42.843 Y28.148
X43.453 Y27.86
X44.07 Y27.586
X44.692 Y27.324
X45.319 Y27.076
X45.952 Y26.842
X46.589 Y26.621
X47.231 Y26.413
X47.878 Y26.219
X48.528 Y26.039
X49.182 Y25.874
X49.84 Y25.722
X50.5 Y25.584
X51.163 Y25.46
X51.829 Y25.351
X52.497 Y25.256
X53.167 Y25.175
X53.839 Y25.108
X54.511 Y25.056
X55.185 Y25.019
X55.859 Y24.995
X56.534 Y24.986
X57.209 Y24.992
X57.883 Y25.011
X58.557 Y25.045
X59.23 Y25.094
X59.902 Y25.157
X60.572 Y25.234
X61.241 Y25.325
X61.907 Y25.43
X62.572 Y25.549
X63.233 Y25.683
X63.891 Y25.83
X64.547 Y25.991
X65.198 Y26.166
X65.846 Y26.355
X66.49 Y26.557
X67.129 Y26.773
X67.764 Y27.002
X68.393 Y27.245
X69.018 Y27.501
X69.636 Y27.77
X70.249 Y28.052
X70.856 Y28.347
X71.457 Y28.655
X72.05 Y28.976
X72.637 Y29.309
X73.217 Y29.655
X73.789 Y30.012
X74.353 Y30.382
X74.909 Y30.764
X75.457 Y31.158
X75.997 Y31.563
X76.528 Y31.979
X77.05 Y32.406
X77.563 Y32.845
X78.067 Y33.294
X78.561 Y33.753
X79.045 Y34.223
X79.519 Y34.704
X79.983 Y35.193
X80.437 Y35.693
X80.88 Y36.202
X81.312 Y36.72
X81.733 Y37.247
X82.144 Y37.783
X82.542 Y38.327
X82.93 Y38.879
X83.306 Y39.44
X83.67 Y40.008
X84.022 Y40.583
X84.362 Y41.166
X84.69 Y41.756
X85.005 Y42.353
X85.308 Y42.956
X85.597 Y43.565
X85.874 Y44.18
X86.138 Y44.801
X86.389 Y45.428
X86.627 Y46.059
X86.851 Y46.696
X87.062 Y47.337
X87.259 Y47.982
X87.443 Y48.631
X87.612 Y49.284
X87.769 Y49.941
X87.911 Y50.6
X88.039 Y51.263
X88.153 Y51.928
X88.254 Y52.595
X88.34 Y53.264
X88.412 Y53.935
X88.47 Y54.607
X88.514 Y55.281
X88.544 Y55.955
X88.559 Y56.629
X88.561 Y57.304
X88.548 Y57.979
X88.522 Y58.653
X88.481 Y59.327
X88.426 Y59.999
X88.357 Y60.67
X88.275 Y61.34
X88.178 Y62.008
X88.067 Y62.673
X87.942 Y63.336
X87.804 Y63.997
X87.651 Y64.654
X87.485 Y65.308
X87.305 Y65.958
X87.111 Y66.605
X86.904 Y67.247
X86.683 Y67.885
X86.449 Y68.517
X86.202 Y69.145
X85.941 Y69.767
X85.667 Y70.384
X85.38 Y70.995
X85.081 Y71.599
X84.768 Y72.198
X84.444 Y72.789
X84.106 Y73.374
X83.757 Y73.951
X83.395 Y74.52
X83.022 Y75.082
X82.636 Y75.636
X82.24 Y76.182
X81.832 Y76.719
X81.412 Y77.248
X80.982 Y77.768
X80.541 Y78.278
X80.089 Y78.78
X79.627 Y79.271
X79.155 Y79.753
X78.673 Y80.225
X78.181 Y80.687
X77.679 Y81.138
X77.168 Y81.579
X76.648 Y82.009
X76.119 Y82.428
X75.582 Y82.836
X75.036 Y83.232
X74.482 Y83.617
X73.919 Y83.99
X73.349 Y84.351
X72.772 Y84.7
X72.187 Y85.037
X71.595 Y85.362
X70.997 Y85.673
X70.392 Y85.972
X69.781 Y86.259
X69.164 Y86.532
X68.542 Y86.792
X67.914 Y87.04
X67.281 Y87.274
X66.643 Y87.494
X66.001 Y87.701
X65.355 Y87.894
X64.704 Y88.074
X64.05 Y88.241
X63.393 Y88.393
X62.733 Y88.532
X62.07 Y88.657
X61.404 Y88.768
X60.736 Y88.865
X60.067 Y88.949
X59.396 Y89.018
X58.723 Y89.074
X58.05 Y89.115
X57.375 Y89.142
X56.701 Y89.156
X56.026 Y89.155
X55.352 Y89.14
X54.677 Y89.111
X54.004 Y89.069
X53.332 Y89.012
X52.661 Y88.941
X51.991 Y88.855
X51.324 Y88.756
X50.659 Y88.643
X49.996 Y88.517
X49.336 Y88.376
X48.679 Y88.221
X48.026 Y88.053
X47.376 Y87.871
X46.73 Y87.676
X46.088 Y87.467
X45.451 Y87.245
X44.819 Y87.009
X44.192 Y86.76
X43.57 Y86.498
X42.954 Y86.224
X42.343 Y85.936
X41.739 Y85.636
X41.141 Y85.324
X40.549 Y84.999
X39.965 Y84.662
X39.387 Y84.313
X38.817 Y83.952
X38.254 Y83.58
X37.7 Y83.196
X37.153 Y82.8
X36.615 Y82.393
X36.085 Y81.976
X35.564 Y81.547
X35.051 Y81.108
X34.549 Y80.658
X34.055 Y80.198
X33.571 Y79.727
X33.097 Y79.247
X32.634 Y78.757
X32.18 Y78.257
X31.737 Y77.748
X31.305 Y77.23
X30.884 Y76.703
X30.473 Y76.167
X30.074 Y75.623
X29.687 Y75.071
X29.311 Y74.511
X28.946 Y73.943
X28.594 Y73.367
X28.254 Y72.784
X27.926 Y72.195
X27.611 Y71.598
X27.307 Y70.995
X27.017 Y70.387
X26.739 Y69.772
X26.474 Y69.151
X26.222 Y68.525
X25.982 Y67.894
X25.756 Y67.259
X25.543 Y66.618
X25.343 Y65.974
X25.157 Y65.326
X24.984 Y64.673
X24.824 Y64.018
X24.678 Y63.359
X24.545 Y62.697
X24.427 Y62.033
X24.322 Y61.367
X24.23 Y60.698
X24.153 Y60.028
X24.089 Y59.356
X24.04 Y58.683
X24.004 Y58.009
X23.982 Y57.335
X23.975 Y56.66
X23.981 Y55.985
X24.001 Y55.311
X24.036 Y54.637
X24.084 Y53.964
X24.146 Y53.292
X24.222 Y52.622
X24.312 Y51.953
X24.416 Y51.286
X24.534 Y50.622
X24.666 Y49.96
X24.811 Y49.301
X24.97 Y48.646
X25.142 Y47.993
X25.328 Y47.344
X25.527 Y46.7
X25.74 Y46.059
X25.966 Y45.423
X26.204 Y44.792
X26.456 Y44.166
X26.72 Y43.545
X26.997 Y42.93
X27.287 Y42.321
X27.589 Y41.718
X27.904 Y41.121
X28.231 Y40.53
X28.57 Y39.947
X28.921 Y39.371
X29.283 Y38.802
X29.658 Y38.24
X30.044 Y37.687
X30.441 Y37.141
X30.85 Y36.604
X31.269 Y36.076
X31.7 Y35.556
X32.141 Y35.046
X32.593 Y34.545
X33.055 Y34.053
X33.527 Y33.571
X34.008 Y33.098
X34.5 Y32.636
X35.001 Y32.185
X35.512 Y31.743
X36.031 Y31.313
X36.56 Y30.893
X37.097 Y30.484
X37.642 Y30.087
X38.195 Y29.7
X38.756 Y29.326
X39.325 Y28.962
X39.901 Y28.611
X40.484 Y28.271
X41.074 Y27.944
X41.67 Y27.629
X42.273 Y27.326
X42.882 Y27.035
X43.497 Y26.757
X44.118 Y26.492
X44.743 Y26.24
X45.374 Y26
X46.01 Y25.774
X46.65 Y25.561
X47.295 Y25.361
X47.943 Y25.174
X48.595 Y25.001
X49.251 Y24.841
X49.91 Y24.695
X50.571 Y24.563
X51.235 Y24.445
X51.902 Y24.34
X52.571 Y24.249
X53.241 Y24.172
X53.913 Y24.109
X54.586 Y24.06
X55.26 Y24.025
X55.934 Y24.004
X56.609 Y23.997
X57.283 Y24.004
X57.958 Y24.024
X58.632 Y24.059
X59.305 Y24.108
X59.977 Y24.17
X60.647 Y24.247
X61.316 Y24.337
X61.982 Y24.44
X62.647 Y24.558
X63.309 Y24.689
X63.968 Y24.833
X64.624 Y24.991
X65.277 Y25.163
X65.926 Y25.347
X66.571 Y25.545
X67.212 Y25.756
X67.848 Y25.98
X68.48 Y26.217
X69.107 Y26.467
X69.728 Y26.73
X70.344 Y27.006
X70.954 Y27.294
X71.558 Y27.594
X72.156 Y27.907
X72.747 Y28.233
X73.332 Y28.57
X73.909 Y28.919
X74.479 Y29.28
X75.041 Y29.653
X75.596 Y30.037
X76.142 Y30.433
X76.681 Y30.84
X77.21 Y31.258
X77.731 Y31.687
X78.244 Y32.126
X78.747 Y32.575
X79.241 Y33.035
X79.725 Y33.505
X80.199 Y33.985
X80.664 Y34.474
X81.119 Y34.973
X81.563 Y35.48
X81.997 Y35.997
X82.421 Y36.522
X82.833 Y37.056
X83.235 Y37.598
X83.626 Y38.148
X84.006 Y38.706
X84.374 Y39.272
X84.73 Y39.844
X85.075 Y40.424
X85.408 Y41.011
X85.729 Y41.605
X86.038 Y42.204
X86.335 Y42.811
X86.619 Y43.422
X86.891 Y44.04
X87.15 Y44.663
X87.396 Y45.291
X87.63 Y45.924
X87.85 Y46.562
X88.058 Y47.204
X88.252 Y47.85
X88.432 Y48.501
X88.6 Y49.154
X88.754 Y49.811
X88.894 Y50.471
X89.021 Y51.134
X89.134 Y51.799
X89.234 Y52.466
X89.32 Y53.136
X89.393 Y53.807
X89.451 Y54.479
X89.497 Y55.152
X89.528 Y55.826
X89.546 Y56.5
X89.55 Y57.175
X89.54 Y57.85
X89.517 Y58.524
X89.48 Y59.198
X89.43 Y59.871
X89.366 Y60.543
X89.288 Y61.213
X89.196 Y61.881
X89.092 Y62.548
X88.973 Y63.212
X88.841 Y63.874
X88.696 Y64.533
X88.537 Y65.189
X88.365 Y65.841
X88.18 Y66.49
X87.981 Y67.135
X87.769 Y67.775
X87.545 Y68.412
X87.307 Y69.043
X87.056 Y69.67
X86.793 Y70.291
X86.516 Y70.906
X86.227 Y71.516
X85.926 Y72.12
X85.612 Y72.717
X85.286 Y73.308
X84.949 Y73.892
X84.599 Y74.469
X84.237 Y75.039
X83.864 Y75.601
X83.48 Y76.156
X83.084 Y76.702
X82.678 Y77.241
X82.26 Y77.771
X81.832 Y78.292
X81.393 Y78.805
X80.944 Y79.309
X80.485 Y79.803
X80.016 Y80.288
X79.538 Y80.764
X79.049 Y81.23
X78.552 Y81.685
X78.045 Y82.131
X77.529 Y82.566
X77.005 Y82.99
X76.472 Y83.404
X75.93 Y83.807
X75.381 Y84.199
X74.824 Y84.579
X74.259 Y84.948
X73.686 Y85.305
X73.107 Y85.651
X72.52 Y85.985
X71.927 Y86.306
X71.327 Y86.615
X70.721 Y86.912
X70.109 Y87.196
X69.492 Y87.468
X68.869 Y87.727
X68.24 Y87.974
X67.607 Y88.207
X66.97 Y88.427
X66.328 Y88.635
X65.681 Y88.829
X65.031 Y89.01
X64.378 Y89.178
X63.721 Y89.333
X63.061 Y89.474
X62.399 Y89.602
X61.734 Y89.716
X61.067 Y89.817
X60.398 Y89.905
X59.727 Y89.979
X59.055 Y90.039
X58.382 Y90.086
X57.708 Y90.12
X57.033 Y90.14
X56.359 Y90.146
X55.684 Y90.138
X55.009 Y90.117
X54.336 Y90.082
X53.663 Y90.034
X52.991 Y89.972
X52.32 Y89.896
X51.651 Y89.807
X50.985 Y89.704
X50.32 Y89.588
X49.658 Y89.458
X48.998 Y89.314
X48.342 Y89.157
X47.689 Y88.987
X47.04 Y88.804
X46.394 Y88.607
X45.753 Y88.397
X45.116 Y88.175
X44.484 Y87.939
X43.856 Y87.691
X43.234 Y87.43
X42.617 Y87.157
X42.006 Y86.871
X41.4 Y86.573
X40.801 Y86.263
X40.208 Y85.941
X39.622 Y85.607
X39.042 Y85.261
X38.47 Y84.904
X37.905 Y84.536
X37.347 Y84.156
X36.797 Y83.765
X36.255 Y83.363
X35.721 Y82.95
X35.196 Y82.527
X34.679 Y82.093
X34.171 Y81.649
X33.672 Y81.195
X33.182 Y80.731
X32.702 Y80.257
X32.231 Y79.773
X31.77 Y79.28
X31.32 Y78.778
X30.879 Y78.267
X30.449 Y77.747
X30.03 Y77.218
X29.622 Y76.681
X29.224 Y76.136
X28.838 Y75.583
X28.463 Y75.022
X28.099 Y74.453
X27.747 Y73.878
X27.407 Y73.295
X27.079 Y72.706
X26.762 Y72.11
X26.458 Y71.508
X26.165 Y70.899
X25.885 Y70.285
X25.618 Y69.666
X25.363 Y69.041
X25.12 Y68.412
X24.89 Y67.777
X24.673 Y67.139
X24.468 Y66.495
X24.277 Y65.848
X24.098 Y65.198
X23.933 Y64.544
X23.781 Y63.886
X23.641 Y63.226
X23.515 Y62.563
X23.403 Y61.898
X23.303 Y61.231
X23.217 Y60.561
X23.145 Y59.89
X23.086 Y59.218
X23.04 Y58.545
X23.008 Y57.871
X22.99 Y57.197
X22.985 Y56.522
X22.994 Y55.847
X23.016 Y55.173
X23.053 Y54.499
X23.102 Y53.826
X23.166 Y53.154
X23.243 Y52.484
X23.333 Y51.815
X23.437 Y51.149
X23.554 Y50.484
X23.685 Y49.822
X23.829 Y49.163
X23.986 Y48.507
X24.156 Y47.854
X24.339 Y47.204
X24.535 Y46.559
X24.744 Y45.917
X24.966 Y45.28
X25.201 Y44.647
X25.448 Y44.019
X25.707 Y43.397
X25.979 Y42.779
X26.264 Y42.167
X26.56 Y41.561
X26.869 Y40.961
X27.189 Y40.367
X27.521 Y39.78
X27.865 Y39.199
X28.221 Y38.626
X28.587 Y38.059
X28.966 Y37.5
X29.355 Y36.949
X29.755 Y36.406
X30.166 Y35.871
X30.588 Y35.345
X31.021 Y34.827
X31.464 Y34.318
X31.917 Y33.818
X32.38 Y33.327
X32.853 Y32.845
X33.335 Y32.374
X33.827 Y31.912
X34.328 Y31.46
X34.838 Y31.018
X35.357 Y30.587
X35.884 Y30.166
X36.42 Y29.756
X36.964 Y29.356
X37.516 Y28.968
X38.075 Y28.59
X38.642 Y28.224
X39.216 Y27.869
X39.797 Y27.526
X40.384 Y27.194
X40.978 Y26.875
X41.579 Y26.567
X42.185 Y26.271
X42.797 Y25.987
X43.415 Y25.715
X44.038 Y25.456
X44.666 Y25.21
X45.299 Y24.976
X45.936 Y24.754
X46.578 Y24.546
X47.224 Y24.35
X47.873 Y24.167
X48.526 Y23.998
X49.183 Y23.841
X49.842 Y23.698
X50.504 Y23.569
X51.169 Y23.452
X51.836 Y23.349
X52.505 Y23.26
X53.175 Y23.184
X53.847 Y23.122
X54.52 Y23.073
X55.194 Y23.038
X55.868 Y23.016
X56.543 Y23.008
X57.218 Y23.014
X57.892 Y23.033
X58.566 Y23.065
X59.239 Y23.111
X59.912 Y23.17
X60.582 Y23.243
X61.252 Y23.329
X61.919 Y23.429
X62.584 Y23.541
X63.247 Y23.667
X63.907 Y23.806
X64.565 Y23.958
X65.219 Y24.123
X65.87 Y24.302
X66.517 Y24.492
X67.16 Y24.696
X67.799 Y24.913
X68.434 Y25.142
X69.064 Y25.384
X69.689 Y25.638
X70.309 Y25.904
X70.923 Y26.183
X71.532 Y26.474
X72.135 Y26.778
X72.731 Y27.093
X73.321 Y27.42
X73.905 Y27.759
X74.481 Y28.11
X75.051 Y28.472
X75.613 Y28.845
X76.167 Y29.23
X76.714 Y29.626
X77.252 Y30.032
X77.783 Y30.449
X78.305 Y30.877
X78.818 Y31.315
X79.323 Y31.763
X79.818 Y32.221
X80.304 Y32.689
X80.781 Y33.166
X81.249 Y33.652
X81.707 Y34.148
X82.155 Y34.653
X82.592 Y35.166
X83.02 Y35.688
X83.437 Y36.218
X83.844 Y36.757
X84.24 Y37.303
X84.626 Y37.857
X85 Y38.418
X85.363 Y38.987
X85.715 Y39.562
X86.056 Y40.145
X86.385 Y40.734
X86.702 Y41.329
X87.008 Y41.931
X87.302 Y42.538
X87.583 Y43.152
X87.852 Y43.77
X88.109 Y44.394
X88.353 Y45.023
X88.585 Y45.657
X88.804 Y46.295
X89.011 Y46.938
X89.204 Y47.584
X89.385 Y48.234
X89.553 Y48.888
X89.707 Y49.545
X89.849 Y50.204
X89.977 Y50.867
X90.093 Y51.532
X90.195 Y52.199
X90.284 Y52.867
X90.359 Y53.538
X90.422 Y54.21
X90.471 Y54.883
X90.507 Y55.557
X90.529 Y56.231
X90.539 Y56.906
X90.535 Y57.58
X90.517 Y58.255
X90.487 Y58.929
X90.443 Y59.602
X90.386 Y60.275
X90.316 Y60.946
X90.233 Y61.615
X90.136 Y62.283
X90.027 Y62.949
X89.904 Y63.612
X89.768 Y64.273
X89.619 Y64.931
X89.457 Y65.587
X89.283 Y66.238
X89.095 Y66.886
X88.894 Y67.53
X88.68 Y68.171
X88.454 Y68.806
X88.215 Y69.437
X87.964 Y70.063
X87.7 Y70.684
X87.424 Y71.3
X87.135 Y71.91
X86.835 Y72.514
X86.522 Y73.112
X86.198 Y73.704
X85.862 Y74.289
X85.515 Y74.868
X85.156 Y75.439
X84.785 Y76.003
X84.404 Y76.56
X84.012 Y77.109
X83.609 Y77.65
X83.196 Y78.183
X82.772 Y78.708
X82.338 Y79.225
X81.893 Y79.733
X81.439 Y80.232
X80.975 Y80.722
X80.502 Y81.202
X80.019 Y81.674
X79.527 Y82.136
X79.026 Y82.588
X78.516 Y83.03
X77.998 Y83.462
X77.471 Y83.883
X76.936 Y84.294
X76.393 Y84.695
X75.842 Y85.084
X75.283 Y85.462
X74.717 Y85.83
X74.144 Y86.186
X73.563 Y86.53
X72.976 Y86.863
X72.383 Y87.184
X71.783 Y87.493
X71.177 Y87.79
X70.566 Y88.075
X69.949 Y88.348
X69.326 Y88.609
X68.699 Y88.857
X68.067 Y89.092
X67.43 Y89.315
X66.789 Y89.526
X66.144 Y89.724
X65.495 Y89.909
X64.842 Y90.081
X64.187 Y90.24
X63.528 Y90.387
X62.866 Y90.52
X62.203 Y90.641
X61.536 Y90.748
X60.868 Y90.842
X60.198 Y90.924
X59.527 Y90.992
X58.855 Y91.047
X58.181 Y91.088
X57.507 Y91.117
X56.832 Y91.132
X56.158 Y91.135
X55.483 Y91.124
X54.809 Y91.099
X54.135 Y91.062
X53.462 Y91.01
X52.79 Y90.946
X52.12 Y90.869
X51.452 Y90.778
X50.785 Y90.674
X50.12 Y90.557
X49.458 Y90.426
X48.799 Y90.283
X48.143 Y90.127
X47.489 Y89.957
X46.84 Y89.775
X46.194 Y89.58
X45.552 Y89.373
X44.914 Y89.153
X44.281 Y88.92
X43.652 Y88.675
X43.028 Y88.417
X42.41 Y88.148
X41.796 Y87.866
X41.189 Y87.573
X40.587 Y87.267
X39.992 Y86.95
X39.402 Y86.622
X38.819 Y86.282
X38.243 Y85.93
X37.674 Y85.568
X37.112 Y85.194
X36.557 Y84.81
X36.01 Y84.415
X35.471 Y84.01
X34.94 Y83.594
X34.417 Y83.167
X33.902 Y82.731
X33.396 Y82.285
X32.899 Y81.828
X32.411 Y81.362
X31.932 Y80.887
X31.463 Y80.402
X31.003 Y79.908
X30.553 Y79.405
X30.113 Y78.894
X29.684 Y78.373
X29.264 Y77.845
X28.855 Y77.308
X28.457 Y76.763
X28.07 Y76.211
X27.693 Y75.651
X27.328 Y75.084
X26.973 Y74.51
X26.631 Y73.928
X26.299 Y73.341
X25.979 Y72.747
X25.671 Y72.146
X25.375 Y71.54
X25.09 Y70.928
X24.818 Y70.311
X24.557 Y69.689
X24.309 Y69.061
X24.073 Y68.429
X23.849 Y67.793
X23.637 Y67.152
X23.439 Y66.507
X23.252 Y65.858
X23.078 Y65.206
X22.917 Y64.551
X22.769 Y63.893
X22.633 Y63.232
X22.511 Y62.569
X22.401 Y61.903
X22.304 Y61.235
X22.221 Y60.565
X22.15 Y59.894
X22.093 Y59.222
X22.049 Y58.549
X22.018 Y57.875
X22 Y57.2
X21.996 Y56.525
X22.004 Y55.851
X22.026 Y55.176
X22.062 Y54.502
X22.11 Y53.829
X22.171 Y53.157
X22.246 Y52.487
X22.334 Y51.818
X22.435 Y51.151
X22.549 Y50.486
X22.675 Y49.823
X22.815 Y49.163
X22.968 Y48.505
X23.133 Y47.851
X23.311 Y47.2
X23.502 Y46.553
X23.705 Y45.91
X23.921 Y45.27
X24.149 Y44.635
X24.389 Y44.005
X24.641 Y43.379
X24.906 Y42.758
X25.182 Y42.143
X25.471 Y41.533
X25.771 Y40.928
X26.083 Y40.33
X26.406 Y39.738
X26.741 Y39.152
X27.087 Y38.573
X27.445 Y38.001
X27.813 Y37.436
X28.193 Y36.878
X28.583 Y36.327
X28.984 Y35.785
X29.396 Y35.25
X29.818 Y34.724
X30.251 Y34.206
X30.693 Y33.696
X31.145 Y33.196
X31.607 Y32.704
X32.079 Y32.221
X32.56 Y31.748
X33.05 Y31.284
X33.549 Y30.83
X34.057 Y30.385
X34.573 Y29.951
X35.098 Y29.527
X35.631 Y29.113
X36.171 Y28.71
X36.72 Y28.317
X37.276 Y27.934
X37.839 Y27.563
X38.41 Y27.203
X38.987 Y26.854
X39.571 Y26.516
X40.162 Y26.189
X40.758 Y25.874
X41.361 Y25.57
X41.969 Y25.278
X42.583 Y24.998
X43.202 Y24.73
X43.827 Y24.474
X44.456 Y24.23
X45.09 Y23.999
X45.728 Y23.78
X46.37 Y23.573
X47.017 Y23.379
X47.667 Y23.198
X48.32 Y23.029
X48.976 Y22.874
X49.636 Y22.731
X50.298 Y22.601
X50.963 Y22.484
X51.629 Y22.38
X52.298 Y22.289
X52.968 Y22.212
X53.64 Y22.147
X54.313 Y22.096
X54.986 Y22.057
X55.661 Y22.032
X56.335 Y22.021
X57.01 Y22.022
X57.685 Y22.036
X58.359 Y22.064
X59.032 Y22.104
X59.705 Y22.158
X60.376 Y22.224
X61.046 Y22.304
X61.715 Y22.397
X62.381 Y22.502
X63.046 Y22.62
X63.707 Y22.751
X64.367 Y22.895
X65.023 Y23.052
X65.676 Y23.221
X66.326 Y23.403
X66.972 Y23.597
X67.615 Y23.803
X68.253 Y24.022
X68.887 Y24.254
X69.516 Y24.498
X70.14 Y24.753
X70.76 Y25.021
X71.374 Y25.301
X71.982 Y25.593
X72.585 Y25.896
X73.181 Y26.212
X73.772 Y26.538
X74.355 Y26.877
X74.933 Y27.226
X75.503 Y27.587
X76.066 Y27.958
X76.622 Y28.341
X77.17 Y28.734
X77.711 Y29.138
X78.243 Y29.552
X78.768 Y29.976
X79.284 Y30.411
X79.792 Y30.855
X80.291 Y31.309
X80.781 Y31.773
X81.263 Y32.246
X81.735 Y32.728
X82.197 Y33.219
X82.651 Y33.719
X83.094 Y34.228
X83.528 Y34.744
X83.952 Y35.269
X84.366 Y35.802
X84.769 Y36.343
X85.162 Y36.892
X85.545 Y37.448
X85.916 Y38.011
X86.277 Y38.581
X86.627 Y39.158
X86.966 Y39.741
X87.293 Y40.331
X87.609 Y40.928
X87.914 Y41.53
X88.207 Y42.138
X88.488 Y42.751
X88.757 Y43.37
X89.014 Y43.994
X89.259 Y44.622
X89.492 Y45.256
X89.713 Y45.893
X89.921 Y46.535
X90.117 Y47.181
X90.3 Y47.83
X90.471 Y48.483
X90.629 Y49.139
X90.774 Y49.798
X90.907 Y50.459
X91.027 Y51.123
X91.134 Y51.79
X91.228 Y52.458
X91.31 Y53.127
X91.378 Y53.799
X91.434 Y54.471
X91.477 Y55.145
X91.507 Y55.819
X91.524 Y56.493
X91.528 Y57.168
X91.519 Y57.843
X91.498 Y58.517
X91.463 Y59.191
X91.416 Y59.864
X91.356 Y60.536
X91.283 Y61.207
X91.197 Y61.876
X91.098 Y62.544
X90.986 Y63.209
X90.862 Y63.872
X90.725 Y64.533
X90.575 Y65.191
X90.412 Y65.846
X90.237 Y66.497
X90.05 Y67.145
X89.849 Y67.79
X89.637 Y68.43
X89.412 Y69.066
X89.175 Y69.698
X88.925 Y70.325
X88.664 Y70.947
X88.39 Y71.564
X88.105 Y72.175
X87.808 Y72.781
X87.499 Y73.381
X87.179 Y73.975
X86.847 Y74.563
X86.504 Y75.144
X86.15 Y75.718
X85.785 Y76.286
X85.409 Y76.846
X85.023 Y77.399
X84.625 Y77.944
X84.218 Y78.482
X83.8 Y79.012
X83.372 Y79.534
X82.935 Y80.048
X82.487 Y80.553
X82.03 Y81.049
X81.564 Y81.537
X81.088 Y82.015
X80.604 Y82.485
X80.11 Y82.945
X79.607 Y83.395
X79.096 Y83.836
X78.577 Y84.266
X78.05 Y84.687
X77.514 Y85.098
X76.971 Y85.498
X76.42 Y85.887
X75.861 Y86.266
X75.296 Y86.634
X74.723 Y86.991
X74.144 Y87.337
X73.558 Y87.671
X72.965 Y87.994
X72.367 Y88.306
X71.762 Y88.606
X71.152 Y88.894
X70.537 Y89.171
X69.916 Y89.435
X69.29 Y89.688
X68.66 Y89.928
X68.025 Y90.157
X67.386 Y90.373
X66.742 Y90.576
X66.095 Y90.768
X65.445 Y90.947
X64.791 Y91.113
X64.134 Y91.267
X63.474 Y91.409
X62.812 Y91.537
X62.147 Y91.654
X61.48 Y91.757
X60.812 Y91.848
X60.142 Y91.926
X59.47 Y91.991
X58.797 Y92.044
X58.124 Y92.083
X57.449 Y92.11
X56.775 Y92.123
X56.1 Y92.124
X55.425 Y92.112
X54.751 Y92.087
X54.077 Y92.049
X53.405 Y91.998
X52.733 Y91.935
X52.063 Y91.858
X51.394 Y91.769
X50.727 Y91.667
X50.062 Y91.552
X49.399 Y91.424
X48.739 Y91.283
X48.082 Y91.13
X47.428 Y90.964
X46.777 Y90.786
X46.13 Y90.596
X45.487 Y90.393
X44.847 Y90.177
X44.212 Y89.95
X43.581 Y89.71
X42.955 Y89.459
X42.334 Y89.196
X41.718 Y88.92
X41.107 Y88.634
X40.502 Y88.335
X39.902 Y88.025
X39.309 Y87.704
X38.721 Y87.372
X38.14 Y87.029
X37.566 Y86.675
X36.999 Y86.31
X36.438 Y85.934
X35.885 Y85.547
X35.339 Y85.151
X34.801 Y84.743
X34.271 Y84.326
X33.749 Y83.899
X33.235 Y83.462
X32.729 Y83.015
X32.232 Y82.559
X31.744 Y82.093
X31.264 Y81.618
X30.794 Y81.134
X30.334 Y80.641
X29.882 Y80.14
X29.441 Y79.629
