(1005)
(T1  D=2.5 CR=0 - ZMIN=-19 - flat end mill)
G90 G94
G17
G21

(Face1)
S5000 M3
G54
G0 X46.625 Y-14.486
Z2
G1 Z-4.25 F333.3
G18 G3 X46.375 Z-4.5 I-0.25 K0 F1000
G1 X46.26
X-16.26
G17 G2 X-16.26 Y-12.74 I0 J0.873
G1 X46.26
G3 X46.26 Y-10.993 I0 J0.873
G1 X-16.26
G2 X-16.26 Y-9.247 I0 J0.873
G1 X46.26
G3 X46.26 Y-7.5 I0 J0.873
G1 X-16.26
G2 X-16.26 Y-5.754 I0 J0.873
G1 X46.26
G3 X46.26 Y-4.007 I0 J0.873
G1 X-16.26
G2 X-16.26 Y-2.261 I0 J0.873
G1 X46.26
G3 X46.26 Y-0.514 I0 J0.873
G1 X-16.26
G2 X-16.26 Y1.232 I0 J0.873
G1 X46.26
G3 X46.26 Y2.979 I0 J0.873
G1 X-16.26
G2 X-16.26 Y4.725 I0 J0.873
G1 X46.26
G3 X46.26 Y6.472 I0 J0.873
G1 X-16.26
G2 X-16.26 Y8.218 I0 J0.873
G1 X46.26
G3 X46.26 Y9.965 I0 J0.873
G1 X-16.26
G2 X-16.26 Y11.711 I0 J0.873
G1 X46.26
G3 X46.26 Y13.457 I0 J0.873
G1 X-16.26
G2 X-16.26 Y15.204 I0 J0.873
G1 X46.26
G3 X46.26 Y16.95 I0 J0.873
G1 X-16.26
G2 X-16.26 Y18.697 I0 J0.873
G1 X46.26
G3 X46.26 Y20.443 I0 J0.873
G1 X-16.26
G2 X-16.26 Y22.19 I0 J0.873
G1 X46.26
G3 X46.26 Y23.936 I0 J0.873
G1 X-16.26
G2 X-16.26 Y25.683 I0 J0.873
G1 X46.26
G3 X46.26 Y27.429 I0 J0.873
G1 X-16.26
G2 X-16.26 Y29.176 I0 J0.873
G1 X46.26
G3 X46.26 Y30.922 I0 J0.873
G1 X-16.26
G2 X-16.26 Y32.669 I0 J0.873
G1 X46.26
G3 X46.26 Y34.415 I0 J0.873
G1 X-16.26
G2 X-16.26 Y36.162 I0 J0.873
G1 X46.26
G3 X46.26 Y37.908 I0 J0.873
G1 X-16.26
G2 X-16.26 Y39.654 I0 J0.873
G1 X46.26
G3 X46.26 Y41.401 I0 J0.873
G1 X-16.26
G2 X-16.26 Y43.147 I0 J0.873
G1 X46.26
G3 X46.26 Y44.894 I0 J0.873
G1 X-16.26
G2 X-16.26 Y46.64 I0 J0.873
G1 X46.26
G3 X46.26 Y48.387 I0 J0.873
G1 X-16.26
G2 X-16.26 Y50.133 I0 J0.873
G1 X46.26
G3 X46.26 Y51.88 I0 J0.873
G1 X-16.26
G2 X-16.26 Y53.626 I0 J0.873
G1 X46.26
G3 X46.26 Y55.373 I0 J0.873
G1 X-16.26
G2 X-16.26 Y57.119 I0 J0.873
G1 X46.26
G3 X46.26 Y58.866 I0 J0.873
G1 X-16.26
G2 X-16.26 Y60.612 I0 J0.873
G1 X46.26
G3 X46.26 Y62.359 I0 J0.873
G1 X-16.26
G2 X-16.26 Y64.105 I0 J0.873
G1 X46.26
G3 X46.26 Y65.852 I0 J0.873
G1 X-16.26
G2 X-16.26 Y67.598 I0 J0.873
G1 X46.26
G3 X46.26 Y69.344 I0 J0.873
G1 X-16.26
G2 X-16.26 Y71.091 I0 J0.873
G1 X46.26
G3 X46.26 Y72.837 I0 J0.873
G1 X-16.26
G2 X-16.26 Y74.584 I0 J0.873
G1 X46.26
G3 X46.26 Y76.33 I0 J0.873
G1 X-16.26
G2 X-16.26 Y78.077 I0 J0.873
G1 X46.26
G3 X46.26 Y79.823 I0 J0.873
G1 X-16.26
G2 X-16.26 Y81.57 I0 J0.873
G1 X46.26
G3 X46.26 Y83.316 I0 J0.873
G1 X-16.26
G2 X-16.26 Y85.063 I0 J0.873
G1 X46.26
G3 X46.26 Y86.809 I0 J0.873
G1 X-16.26
G2 X-16.26 Y88.556 I0 J0.873
G1 X46.26
G3 X46.26 Y90.302 I0 J0.873
G1 X-16.26
G2 X-16.26 Y92.049 I0 J0.873
G1 X46.26
G3 X46.26 Y93.795 I0 J0.873
G1 X-16.26
G18 G3 X-16.51 Z-4.25 I0 K0.25
G0 Z2
G17

(Bore1 2)
M8
G0 X26.375 Y0.25
Z-1
Z-2.5
G1 Z-4.25 F1000
G18 G3 X26.125 Z-4.5 I-0.25 K0
G1 X26
G17 G3 X25.75 Y0 I0 J-0.25
X30.25 Y0 Z-4.622 I2.25 J0
X25.75 Y0 Z-4.744 I-2.25 J0
X30.25 Y0 Z-4.867 I2.25 J0
X25.75 Y0 Z-4.989 I-2.25 J0
X30.25 Y0 Z-5.111 I2.25 J0
X25.75 Y0 Z-5.233 I-2.25 J0
X30.25 Y0 Z-5.356 I2.25 J0
X25.75 Y0 Z-5.478 I-2.25 J0
X30.25 Y0 Z-5.6 I2.25 J0
X25.75 Y0 Z-5.722 I-2.25 J0
X30.25 Y0 Z-5.844 I2.25 J0
X25.75 Y0 Z-5.967 I-2.25 J0
X30.25 Y0 Z-6.089 I2.25 J0
X25.75 Y0 Z-6.211 I-2.25 J0
X30.25 Y0 Z-6.333 I2.25 J0
X25.75 Y0 Z-6.456 I-2.25 J0
X30.25 Y0 Z-6.578 I2.25 J0
X25.75 Y0 Z-6.7 I-2.25 J0
X30.25 Y0 Z-6.822 I2.25 J0
X25.75 Y0 Z-6.944 I-2.25 J0
X30.25 Y0 Z-7.067 I2.25 J0
X25.75 Y0 Z-7.189 I-2.25 J0
X30.25 Y0 Z-7.311 I2.25 J0
X25.75 Y0 Z-7.433 I-2.25 J0
X30.25 Y0 Z-7.556 I2.25 J0
X25.75 Y0 Z-7.678 I-2.25 J0
X30.25 Y0 Z-7.8 I2.25 J0
X25.75 Y0 Z-7.922 I-2.25 J0
X30.25 Y0 Z-8.044 I2.25 J0
X25.75 Y0 Z-8.167 I-2.25 J0
X30.25 Y0 Z-8.289 I2.25 J0
X25.75 Y0 Z-8.411 I-2.25 J0
X30.25 Y0 Z-8.533 I2.25 J0
X25.75 Y0 Z-8.656 I-2.25 J0
X30.25 Y0 Z-8.778 I2.25 J0
X25.75 Y0 Z-8.9 I-2.25 J0
X30.25 Y0 Z-9.022 I2.25 J0
X25.75 Y0 Z-9.144 I-2.25 J0
X30.25 Y0 Z-9.267 I2.25 J0
X25.75 Y0 Z-9.389 I-2.25 J0
X30.25 Y0 Z-9.511 I2.25 J0
X25.75 Y0 Z-9.633 I-2.25 J0
X30.25 Y0 Z-9.756 I2.25 J0
X25.75 Y0 Z-9.878 I-2.25 J0
X30.25 Y0 Z-10 I2.25 J0
X25.75 Y0 Z-10.122 I-2.25 J0
X30.25 Y0 Z-10.244 I2.25 J0
X25.75 Y0 Z-10.367 I-2.25 J0
X30.25 Y0 Z-10.489 I2.25 J0
X25.75 Y0 Z-10.611 I-2.25 J0
X30.25 Y0 Z-10.733 I2.25 J0
X25.75 Y0 Z-10.856 I-2.25 J0
X30.25 Y0 Z-10.978 I2.25 J0
X25.75 Y0 Z-11.1 I-2.25 J0
X30.25 Y0 Z-11.222 I2.25 J0
X25.75 Y0 Z-11.344 I-2.25 J0
X30.25 Y0 Z-11.467 I2.25 J0
X25.75 Y0 Z-11.589 I-2.25 J0
X30.25 Y0 Z-11.711 I2.25 J0
X25.75 Y0 Z-11.833 I-2.25 J0
X30.25 Y0 Z-11.956 I2.25 J0
X25.75 Y0 Z-12.078 I-2.25 J0
X30.25 Y0 Z-12.2 I2.25 J0
X25.75 Y0 Z-12.322 I-2.25 J0
X30.25 Y0 Z-12.444 I2.25 J0
X25.75 Y0 Z-12.567 I-2.25 J0
X30.25 Y0 Z-12.689 I2.25 J0
X25.75 Y0 Z-12.811 I-2.25 J0
X30.25 Y0 Z-12.933 I2.25 J0
X25.75 Y0 Z-13.056 I-2.25 J0
X30.25 Y0 Z-13.178 I2.25 J0
X25.75 Y0 Z-13.3 I-2.25 J0
X30.25 Y0 Z-13.422 I2.25 J0
X25.75 Y0 Z-13.544 I-2.25 J0
X30.25 Y0 Z-13.667 I2.25 J0
X25.75 Y0 Z-13.789 I-2.25 J0
X30.25 Y0 Z-13.911 I2.25 J0
X25.75 Y0 Z-14.033 I-2.25 J0
X30.25 Y0 Z-14.156 I2.25 J0
X25.75 Y0 Z-14.278 I-2.25 J0
X30.25 Y0 Z-14.4 I2.25 J0
X25.75 Y0 Z-14.522 I-2.25 J0
X30.25 Y0 Z-14.644 I2.25 J0
X25.75 Y0 Z-14.767 I-2.25 J0
X30.25 Y0 Z-14.889 I2.25 J0
X25.75 Y0 Z-15.011 I-2.25 J0
X30.25 Y0 Z-15.133 I2.25 J0
X25.75 Y0 Z-15.256 I-2.25 J0
X30.25 Y0 Z-15.378 I2.25 J0
X25.75 Y0 Z-15.5 I-2.25 J0
X30.25 Y0 Z-15.622 I2.25 J0
X25.75 Y0 Z-15.744 I-2.25 J0
X30.25 Y0 Z-15.867 I2.25 J0
X25.75 Y0 Z-15.989 I-2.25 J0
X30.25 Y0 Z-16.111 I2.25 J0
X25.75 Y0 Z-16.233 I-2.25 J0
X30.25 Y0 Z-16.356 I2.25 J0
X25.75 Y0 Z-16.478 I-2.25 J0
X30.25 Y0 Z-16.6 I2.25 J0
X25.75 Y0 Z-16.722 I-2.25 J0
X30.25 Y0 Z-16.844 I2.25 J0
X25.75 Y0 Z-16.967 I-2.25 J0
X30.25 Y0 Z-17.089 I2.25 J0
X25.75 Y0 Z-17.211 I-2.25 J0
X30.25 Y0 Z-17.333 I2.25 J0
X25.75 Y0 Z-17.456 I-2.25 J0
X30.25 Y0 Z-17.578 I2.25 J0
X25.75 Y0 Z-17.7 I-2.25 J0
X30.25 Y0 Z-17.822 I2.25 J0
X25.75 Y0 Z-17.944 I-2.25 J0
X30.25 Y0 Z-18.067 I2.25 J0
X25.75 Y0 Z-18.189 I-2.25 J0
X30.25 Y0 Z-18.311 I2.25 J0
X25.75 Y0 Z-18.433 I-2.25 J0
X30.25 Y0 Z-18.556 I2.25 J0
X25.75 Y0 Z-18.678 I-2.25 J0
X30.25 Y0 Z-18.8 I2.25 J0
X25.75 Y0 Z-18.922 I-2.25 J0
X28.932 Y-2.048 Z-19 I2.25 J0
X27.068 Y2.048 I-0.932 J2.048
X28.932 Y-2.048 I0.932 J-2.048
X29.056 Y-1.717 I-0.104 J0.228
G1 X29.004 Y-1.603
X28.981 Y-1.553 Z-18.994
X28.959 Y-1.504 Z-18.975
X28.939 Y-1.461 Z-18.945
X28.923 Y-1.425 Z-18.906
X28.911 Y-1.398 Z-18.858
X28.903 Y-1.381 Z-18.806
X28.9 Y-1.376 Z-18.75
G0 Z-1
X-1.625 Y0.25
Z-2.5
G1 Z-4.25 F1000
G18 G3 X-1.875 Z-4.5 I-0.25 K0
G1 X-2
G17 G3 X-2.25 Y0 I0 J-0.25
X2.25 Y0 Z-4.622 I2.25 J0
X-2.25 Y0 Z-4.744 I-2.25 J0
X2.25 Y0 Z-4.867 I2.25 J0
X-2.25 Y0 Z-4.989 I-2.25 J0
X2.25 Y0 Z-5.111 I2.25 J0
X-2.25 Y0 Z-5.233 I-2.25 J0
X2.25 Y0 Z-5.356 I2.25 J0
X-2.25 Y0 Z-5.478 I-2.25 J0
X2.25 Y0 Z-5.6 I2.25 J0
X-2.25 Y0 Z-5.722 I-2.25 J0
X2.25 Y0 Z-5.844 I2.25 J0
X-2.25 Y0 Z-5.967 I-2.25 J0
X2.25 Y0 Z-6.089 I2.25 J0
X-2.25 Y0 Z-6.211 I-2.25 J0
X2.25 Y0 Z-6.333 I2.25 J0
X-2.25 Y0 Z-6.456 I-2.25 J0
X2.25 Y0 Z-6.578 I2.25 J0
X-2.25 Y0 Z-6.7 I-2.25 J0
X2.25 Y0 Z-6.822 I2.25 J0
X-2.25 Y0 Z-6.944 I-2.25 J0
X2.25 Y0 Z-7.067 I2.25 J0
X-2.25 Y0 Z-7.189 I-2.25 J0
X2.25 Y0 Z-7.311 I2.25 J0
X-2.25 Y0 Z-7.433 I-2.25 J0
X2.25 Y0 Z-7.556 I2.25 J0
X-2.25 Y0 Z-7.678 I-2.25 J0
X2.25 Y0 Z-7.8 I2.25 J0
X-2.25 Y0 Z-7.922 I-2.25 J0
X2.25 Y0 Z-8.044 I2.25 J0
X-2.25 Y0 Z-8.167 I-2.25 J0
X2.25 Y0 Z-8.289 I2.25 J0
X-2.25 Y0 Z-8.411 I-2.25 J0
X2.25 Y0 Z-8.533 I2.25 J0
X-2.25 Y0 Z-8.656 I-2.25 J0
X2.25 Y0 Z-8.778 I2.25 J0
X-2.25 Y0 Z-8.9 I-2.25 J0
X2.25 Y0 Z-9.022 I2.25 J0
X-2.25 Y0 Z-9.144 I-2.25 J0
X2.25 Y0 Z-9.267 I2.25 J0
X-2.25 Y0 Z-9.389 I-2.25 J0
X2.25 Y0 Z-9.511 I2.25 J0
X-2.25 Y0 Z-9.633 I-2.25 J0
X2.25 Y0 Z-9.756 I2.25 J0
X-2.25 Y0 Z-9.878 I-2.25 J0
X2.25 Y0 Z-10 I2.25 J0
X-2.25 Y0 Z-10.122 I-2.25 J0
X2.25 Y0 Z-10.244 I2.25 J0
X-2.25 Y0 Z-10.367 I-2.25 J0
X2.25 Y0 Z-10.489 I2.25 J0
X-2.25 Y0 Z-10.611 I-2.25 J0
X2.25 Y0 Z-10.733 I2.25 J0
X-2.25 Y0 Z-10.856 I-2.25 J0
X2.25 Y0 Z-10.978 I2.25 J0
X-2.25 Y0 Z-11.1 I-2.25 J0
X2.25 Y0 Z-11.222 I2.25 J0
X-2.25 Y0 Z-11.344 I-2.25 J0
X2.25 Y0 Z-11.467 I2.25 J0
X-2.25 Y0 Z-11.589 I-2.25 J0
X2.25 Y0 Z-11.711 I2.25 J0
X-2.25 Y0 Z-11.833 I-2.25 J0
X2.25 Y0 Z-11.956 I2.25 J0
X-2.25 Y0 Z-12.078 I-2.25 J0
X2.25 Y0 Z-12.2 I2.25 J0
X-2.25 Y0 Z-12.322 I-2.25 J0
X2.25 Y0 Z-12.444 I2.25 J0
X-2.25 Y0 Z-12.567 I-2.25 J0
X2.25 Y0 Z-12.689 I2.25 J0
X-2.25 Y0 Z-12.811 I-2.25 J0
X2.25 Y0 Z-12.933 I2.25 J0
X-2.25 Y0 Z-13.056 I-2.25 J0
X2.25 Y0 Z-13.178 I2.25 J0
X-2.25 Y0 Z-13.3 I-2.25 J0
X2.25 Y0 Z-13.422 I2.25 J0
X-2.25 Y0 Z-13.544 I-2.25 J0
X2.25 Y0 Z-13.667 I2.25 J0
X-2.25 Y0 Z-13.789 I-2.25 J0
X2.25 Y0 Z-13.911 I2.25 J0
X-2.25 Y0 Z-14.033 I-2.25 J0
X2.25 Y0 Z-14.156 I2.25 J0
X-2.25 Y0 Z-14.278 I-2.25 J0
X2.25 Y0 Z-14.4 I2.25 J0
X-2.25 Y0 Z-14.522 I-2.25 J0
X2.25 Y0 Z-14.644 I2.25 J0
X-2.25 Y0 Z-14.767 I-2.25 J0
X2.25 Y0 Z-14.889 I2.25 J0
X-2.25 Y0 Z-15.011 I-2.25 J0
X2.25 Y0 Z-15.133 I2.25 J0
X-2.25 Y0 Z-15.256 I-2.25 J0
X2.25 Y0 Z-15.378 I2.25 J0
X-2.25 Y0 Z-15.5 I-2.25 J0
X2.25 Y0 Z-15.622 I2.25 J0
X-2.25 Y0 Z-15.744 I-2.25 J0
X2.25 Y0 Z-15.867 I2.25 J0
X-2.25 Y0 Z-15.989 I-2.25 J0
X2.25 Y0 Z-16.111 I2.25 J0
X-2.25 Y0 Z-16.233 I-2.25 J0
X2.25 Y0 Z-16.356 I2.25 J0
X-2.25 Y0 Z-16.478 I-2.25 J0
X2.25 Y0 Z-16.6 I2.25 J0
X-2.25 Y0 Z-16.722 I-2.25 J0
X2.25 Y0 Z-16.844 I2.25 J0
X-2.25 Y0 Z-16.967 I-2.25 J0
X2.25 Y0 Z-17.089 I2.25 J0
X-2.25 Y0 Z-17.211 I-2.25 J0
X2.25 Y0 Z-17.333 I2.25 J0
X-2.25 Y0 Z-17.456 I-2.25 J0
X2.25 Y0 Z-17.578 I2.25 J0
X-2.25 Y0 Z-17.7 I-2.25 J0
X2.25 Y0 Z-17.822 I2.25 J0
X-2.25 Y0 Z-17.944 I-2.25 J0
X2.25 Y0 Z-18.067 I2.25 J0
X-2.25 Y0 Z-18.189 I-2.25 J0
X2.25 Y0 Z-18.311 I2.25 J0
X-2.25 Y0 Z-18.433 I-2.25 J0
X2.25 Y0 Z-18.556 I2.25 J0
X-2.25 Y0 Z-18.678 I-2.25 J0
X2.25 Y0 Z-18.8 I2.25 J0
X-2.25 Y0 Z-18.922 I-2.25 J0
X0.932 Y-2.048 Z-19 I2.25 J0
X-0.932 Y2.048 I-0.932 J2.048
X0.932 Y-2.048 I0.932 J-2.048
X1.056 Y-1.717 I-0.104 J0.228
G1 X1.004 Y-1.603
X0.981 Y-1.553 Z-18.994
X0.959 Y-1.504 Z-18.975
X0.939 Y-1.461 Z-18.945
X0.923 Y-1.425 Z-18.906
X0.911 Y-1.398 Z-18.858
X0.903 Y-1.381 Z-18.806
X0.9 Y-1.376 Z-18.75
G0 Z-1
X-1.625 Y45.1
Z-2.5
G1 Z-4.25 F1000
G18 G3 X-1.875 Z-4.5 I-0.25 K0
G1 X-2
G17 G3 X-2.25 Y44.85 I0 J-0.25
X2.25 Y44.85 Z-4.622 I2.25 J0
X-2.25 Y44.85 Z-4.744 I-2.25 J0
X2.25 Y44.85 Z-4.867 I2.25 J0
X-2.25 Y44.85 Z-4.989 I-2.25 J0
X2.25 Y44.85 Z-5.111 I2.25 J0
X-2.25 Y44.85 Z-5.233 I-2.25 J0
X2.25 Y44.85 Z-5.356 I2.25 J0
X-2.25 Y44.85 Z-5.478 I-2.25 J0
X2.25 Y44.85 Z-5.6 I2.25 J0
X-2.25 Y44.85 Z-5.722 I-2.25 J0
X2.25 Y44.85 Z-5.844 I2.25 J0
X-2.25 Y44.85 Z-5.967 I-2.25 J0
X2.25 Y44.85 Z-6.089 I2.25 J0
X-2.25 Y44.85 Z-6.211 I-2.25 J0
X2.25 Y44.85 Z-6.333 I2.25 J0
X-2.25 Y44.85 Z-6.456 I-2.25 J0
X2.25 Y44.85 Z-6.578 I2.25 J0
X-2.25 Y44.85 Z-6.7 I-2.25 J0
X2.25 Y44.85 Z-6.822 I2.25 J0
X-2.25 Y44.85 Z-6.944 I-2.25 J0
X2.25 Y44.85 Z-7.067 I2.25 J0
X-2.25 Y44.85 Z-7.189 I-2.25 J0
X2.25 Y44.85 Z-7.311 I2.25 J0
X-2.25 Y44.85 Z-7.433 I-2.25 J0
X2.25 Y44.85 Z-7.556 I2.25 J0
X-2.25 Y44.85 Z-7.678 I-2.25 J0
X2.25 Y44.85 Z-7.8 I2.25 J0
X-2.25 Y44.85 Z-7.922 I-2.25 J0
X2.25 Y44.85 Z-8.044 I2.25 J0
X-2.25 Y44.85 Z-8.167 I-2.25 J0
X2.25 Y44.85 Z-8.289 I2.25 J0
X-2.25 Y44.85 Z-8.411 I-2.25 J0
X2.25 Y44.85 Z-8.533 I2.25 J0
X-2.25 Y44.85 Z-8.656 I-2.25 J0
X2.25 Y44.85 Z-8.778 I2.25 J0
X-2.25 Y44.85 Z-8.9 I-2.25 J0
X2.25 Y44.85 Z-9.022 I2.25 J0
X-2.25 Y44.85 Z-9.144 I-2.25 J0
X2.25 Y44.85 Z-9.267 I2.25 J0
X-2.25 Y44.85 Z-9.389 I-2.25 J0
X2.25 Y44.85 Z-9.511 I2.25 J0
X-2.25 Y44.85 Z-9.633 I-2.25 J0
X2.25 Y44.85 Z-9.756 I2.25 J0
X-2.25 Y44.85 Z-9.878 I-2.25 J0
X2.25 Y44.85 Z-10 I2.25 J0
X-2.25 Y44.85 Z-10.122 I-2.25 J0
X2.25 Y44.85 Z-10.244 I2.25 J0
X-2.25 Y44.85 Z-10.367 I-2.25 J0
X2.25 Y44.85 Z-10.489 I2.25 J0
X-2.25 Y44.85 Z-10.611 I-2.25 J0
X2.25 Y44.85 Z-10.733 I2.25 J0
X-2.25 Y44.85 Z-10.856 I-2.25 J0
X2.25 Y44.85 Z-10.978 I2.25 J0
X-2.25 Y44.85 Z-11.1 I-2.25 J0
X2.25 Y44.85 Z-11.222 I2.25 J0
X-2.25 Y44.85 Z-11.344 I-2.25 J0
X2.25 Y44.85 Z-11.467 I2.25 J0
X-2.25 Y44.85 Z-11.589 I-2.25 J0
X2.25 Y44.85 Z-11.711 I2.25 J0
X-2.25 Y44.85 Z-11.833 I-2.25 J0
X2.25 Y44.85 Z-11.956 I2.25 J0
X-2.25 Y44.85 Z-12.078 I-2.25 J0
X2.25 Y44.85 Z-12.2 I2.25 J0
X-2.25 Y44.85 Z-12.322 I-2.25 J0
X2.25 Y44.85 Z-12.444 I2.25 J0
X-2.25 Y44.85 Z-12.567 I-2.25 J0
X2.25 Y44.85 Z-12.689 I2.25 J0
X-2.25 Y44.85 Z-12.811 I-2.25 J0
X2.25 Y44.85 Z-12.933 I2.25 J0
X-2.25 Y44.85 Z-13.056 I-2.25 J0
X2.25 Y44.85 Z-13.178 I2.25 J0
X-2.25 Y44.85 Z-13.3 I-2.25 J0
X2.25 Y44.85 Z-13.422 I2.25 J0
X-2.25 Y44.85 Z-13.544 I-2.25 J0
X2.25 Y44.85 Z-13.667 I2.25 J0
X-2.25 Y44.85 Z-13.789 I-2.25 J0
X2.25 Y44.85 Z-13.911 I2.25 J0
X-2.25 Y44.85 Z-14.033 I-2.25 J0
X2.25 Y44.85 Z-14.156 I2.25 J0
X-2.25 Y44.85 Z-14.278 I-2.25 J0
X2.25 Y44.85 Z-14.4 I2.25 J0
X-2.25 Y44.85 Z-14.522 I-2.25 J0
X2.25 Y44.85 Z-14.644 I2.25 J0
X-2.25 Y44.85 Z-14.767 I-2.25 J0
X2.25 Y44.85 Z-14.889 I2.25 J0
X-2.25 Y44.85 Z-15.011 I-2.25 J0
X2.25 Y44.85 Z-15.133 I2.25 J0
X-2.25 Y44.85 Z-15.256 I-2.25 J0
X2.25 Y44.85 Z-15.378 I2.25 J0
X-2.25 Y44.85 Z-15.5 I-2.25 J0
X2.25 Y44.85 Z-15.622 I2.25 J0
X-2.25 Y44.85 Z-15.744 I-2.25 J0
X2.25 Y44.85 Z-15.867 I2.25 J0
X-2.25 Y44.85 Z-15.989 I-2.25 J0
X2.25 Y44.85 Z-16.111 I2.25 J0
X-2.25 Y44.85 Z-16.233 I-2.25 J0
X2.25 Y44.85 Z-16.356 I2.25 J0
X-2.25 Y44.85 Z-16.478 I-2.25 J0
X2.25 Y44.85 Z-16.6 I2.25 J0
X-2.25 Y44.85 Z-16.722 I-2.25 J0
X2.25 Y44.85 Z-16.844 I2.25 J0
X-2.25 Y44.85 Z-16.967 I-2.25 J0
X2.25 Y44.85 Z-17.089 I2.25 J0
X-2.25 Y44.85 Z-17.211 I-2.25 J0
X2.25 Y44.85 Z-17.333 I2.25 J0
X-2.25 Y44.85 Z-17.456 I-2.25 J0
X2.25 Y44.85 Z-17.578 I2.25 J0
X-2.25 Y44.85 Z-17.7 I-2.25 J0
X2.25 Y44.85 Z-17.822 I2.25 J0
X-2.25 Y44.85 Z-17.944 I-2.25 J0
X2.25 Y44.85 Z-18.067 I2.25 J0
X-2.25 Y44.85 Z-18.189 I-2.25 J0
X2.25 Y44.85 Z-18.311 I2.25 J0
X-2.25 Y44.85 Z-18.433 I-2.25 J0
X2.25 Y44.85 Z-18.556 I2.25 J0
X-2.25 Y44.85 Z-18.678 I-2.25 J0
X2.25 Y44.85 Z-18.8 I2.25 J0
X-2.25 Y44.85 Z-18.922 I-2.25 J0
X0.932 Y42.802 Z-19 I2.25 J0
X-0.932 Y46.898 I-0.932 J2.048
X0.932 Y42.802 I0.932 J-2.048
X1.056 Y43.133 I-0.104 J0.228
G1 X1.004 Y43.247
X0.981 Y43.297 Z-18.994
X0.959 Y43.346 Z-18.975
X0.939 Y43.389 Z-18.945
X0.923 Y43.425 Z-18.906
X0.911 Y43.452 Z-18.858
X0.903 Y43.469 Z-18.806
X0.9 Y43.474 Z-18.75
G0 Z-1

(2D Adaptive2 2)
Z2.56
X-12.786 Y-15.599
Z-15
G1 Z-15.25 F500
X-12.784 Y-15.593 Z-15.306
X-12.779 Y-15.575 Z-15.358
X-12.772 Y-15.546 Z-15.406
X-12.762 Y-15.508 Z-15.445
X-12.751 Y-15.462 Z-15.475
X-12.737 Y-15.411 Z-15.494
X-12.724 Y-15.357 Z-15.5
G3 X-12.5 Y-13.802 I-7.063 J1.809
G1 Y-13.652
X-12.614 Y-13.095
X-12.676 Y-12.53
X-12.71 Y-11.962
X-12.729 Y-11.394
X-12.739 Y-10.825
X-12.744 Y-10.257
X-12.747 Y-9.688
X-12.749 Y-8.551
X-12.75 Y-3.433
Y36.37
Y86.408
Y91.383
X-12.716 Y91.521
X-12.587 Y91.775
X-12.393 Y91.983
X-11.933 Y92.317
X-11.399 Y92.511
X-10.84 Y92.62
X-10.275 Y92.68
X-9.707 Y92.712
X-9.139 Y92.73
X-8.57 Y92.739
X-8.002 Y92.744
X-7.433 Y92.747
X-6.296 Y92.749
X-0.61 Y92.75
X31.801
X41.326
X41.466 Y92.729
X41.729 Y92.62
X41.945 Y92.436
X42.295 Y91.987
X42.498 Y91.456
X42.613 Y90.9
X42.676 Y90.334
X42.71 Y89.767
X42.729 Y89.199
X42.738 Y88.63
X42.744 Y88.061
X42.747 Y87.493
X42.749 Y86.356
X42.75 Y81.238
Y52.807
Y2.769
Y-11.304
X42.737 Y-11.446
X42.689 Y-11.58
X42.543 Y-11.823
X42.136 Y-12.221
X41.618 Y-12.456
X41.066 Y-12.589
X40.502 Y-12.663
X39.935 Y-12.703
X39.366 Y-12.725
X38.798 Y-12.736
X38.229 Y-12.743
X37.661 Y-12.746
X36.523 Y-12.749
X32.543 Y-12.75
X6.955
X-10.245
X-10.386 Y-12.734
X-10.653 Y-12.636
X-10.878 Y-12.462
X-11.246 Y-12.028
X-11.466 Y-11.504
X-11.592 Y-10.95
X-11.663 Y-10.385
X-11.702 Y-9.818
X-11.724 Y-9.25
X-11.736 Y-8.681
X-11.742 Y-8.113
X-11.746 Y-7.544
X-11.749 Y-6.407
X-11.75 Y-2.995
Y19.749
Y69.787
Y89.973
X-11.723 Y90.256
X-11.62 Y90.521
X-11.455 Y90.753
X-11.041 Y91.142
X-10.529 Y91.391
X-9.981 Y91.542
X-9.419 Y91.631
X-8.853 Y91.682
X-8.285 Y91.712
X-7.717 Y91.728
X-7.148 Y91.738
X-6.58 Y91.743
X-6.011 Y91.746
X-4.874 Y91.749
X-0.894 Y91.75
X17.302
X40.047
X40.327 Y91.705
X40.584 Y91.583
X40.806 Y91.405
X41.179 Y90.976
X41.414 Y90.458
X41.556 Y89.908
X41.639 Y89.345
X41.687 Y88.779
X41.715 Y88.211
X41.73 Y87.642
X41.739 Y87.074
X41.744 Y86.505
X41.747 Y85.936
X41.749 Y84.799
X41.75 Y80.25
Y64.898
Y14.86
Y-10.16
X41.675 Y-10.434
X41.53 Y-10.678
X41.141 Y-11.093
X40.639 Y-11.361
X40.095 Y-11.524
X39.534 Y-11.62
X38.968 Y-11.676
X38.401 Y-11.708
X37.832 Y-11.727
X37.264 Y-11.737
X36.695 Y-11.743
X36.127 Y-11.746
X34.989 Y-11.749
X31.578 Y-11.75
X17.362
X-9.078
X-9.356 Y-11.689
X-9.607 Y-11.556
X-9.82 Y-11.375
X-9.908 Y-11.314
X-10.006 Y-11.269
X-10.111 Y-11.243
X-10.239 Y-11.224
X-10.368 Y-11.19
X-10.465 Y-11.16
X-10.497 Y-11.147
X-10.626 Y-11.079
X-10.732 Y-11.008
X-10.755 Y-10.991
X-10.888 Y-10.879
X-10.947 Y-10.814
X-10.995 Y-10.75
X-11.084 Y-10.621
X-11.145 Y-10.491
X-11.192 Y-10.362
X-11.226 Y-10.233
X-11.243 Y-10.104
X-11.248 Y-9.975
X-11.25 Y-9.587
Y89.717
X-11.248 Y89.975
X-11.243 Y90.104
X-11.226 Y90.233
X-11.192 Y90.362
X-11.145 Y90.491
X-11.084 Y90.621
X-10.995 Y90.75
X-10.947 Y90.814
X-10.884 Y90.882
X-10.755 Y90.991
X-10.732 Y91.008
X-10.626 Y91.079
X-10.497 Y91.147
X-10.465 Y91.16
X-10.368 Y91.19
X-10.239 Y91.224
X-10.11 Y91.244
X-9.98 Y91.247
X-9.722 Y91.25
X9.772
X10.03 Y91.249
X10.159 Y91.236
X10.288 Y91.213
X10.417 Y91.178
X10.516 Y91.137
X10.654 Y91.08
X10.969 Y90.989
X11.431 Y90.895
X11.995 Y90.827
X12.563 Y90.791
X13.131 Y90.772
X13.699 Y90.762
X14.268 Y90.756
X14.837 Y90.753
X15.974 Y90.751
X21.091 Y90.75
X38.719
X39.003 Y90.749
X39.28 Y90.686
X39.534 Y90.559
X39.98 Y90.205
X40.279 Y89.722
X40.468 Y89.185
X40.583 Y88.628
X40.652 Y88.064
X40.693 Y87.497
X40.717 Y86.929
X40.731 Y86.36
X40.739 Y85.792
X40.744 Y85.223
X40.746 Y84.655
X40.749 Y83.517
X40.75 Y79.537
Y69.871
Y19.832
Y11.253
X40.77 Y11.102
X40.829 Y10.961
X40.922 Y10.84
X40.946 Y10.816
X41.013 Y10.731
X41.043 Y10.687
X41.114 Y10.557
X41.142 Y10.499
X41.172 Y10.428
X41.211 Y10.299
X41.235 Y10.17
X41.246 Y10.041
X41.25 Y9.653
Y-9.717
X41.248 Y-9.975
X41.243 Y-10.104
X41.226 Y-10.233
X41.192 Y-10.362
X41.145 Y-10.491
X41.084 Y-10.621
X40.995 Y-10.75
X40.947 Y-10.814
X40.884 Y-10.882
X40.755 Y-10.991
X40.732 Y-11.008
X40.626 Y-11.079
X40.497 Y-11.147
X40.465 Y-11.16
X40.368 Y-11.19
X40.239 Y-11.224
X40.11 Y-11.244
X39.98 Y-11.247
X39.722 Y-11.25
X-9.722
X-9.98 Y-11.247
X-10.111 Y-11.243
G3 X-10.388 Y-11.463 I-0.028 J-0.248
X-10.168 Y-11.74 I0.248 J-0.028
G1 X-10.112 Y-11.746 Z-15.494
X-10.06 Y-11.752 Z-15.475
X-10.013 Y-11.758 Z-15.445
X-9.973 Y-11.762 Z-15.406
X-9.944 Y-11.766 Z-15.358
X-9.926 Y-11.768 Z-15.306
X-9.919 Z-15.25
G0 Z2.56
X41.856 Y10.405
Z-15
G1 Z-15.25 F500
X41.849 Y10.406 Z-15.306
X41.832 Y10.411 Z-15.358
X41.803 Y10.418 Z-15.406
X41.764 Y10.428 Z-15.445
X41.718 Y10.439 Z-15.475
X41.667 Y10.452 Z-15.494
X41.613 Y10.466 Z-15.5
G2 X40.922 Y10.84 I0.384 J1.535
G1 X40.816 Y10.945
X40.755 Y10.994
X40.639 Y11.074
X40.515 Y11.159
X40.413 Y11.269
X40.326 Y11.391
X40.248 Y11.527
X40.165 Y11.703
X40.078 Y11.934
X39.987 Y12.251
X39.893 Y12.716
X39.826 Y13.281
X39.791 Y13.848
X39.772 Y14.416
X39.762 Y14.985
X39.756 Y15.553
X39.753 Y16.122
X39.751 Y17.259
X39.75 Y22.377
Y61.043
Y82.081
X39.748 Y83.787
X39.746 Y84.356
X39.744 Y84.925
X39.739 Y85.493
X39.731 Y86.062
X39.717 Y86.63
X39.693 Y87.198
X39.65 Y87.765
X39.569 Y88.328
X39.483 Y88.599
X39.331 Y88.839
X38.918 Y89.23
X38.399 Y89.462
X37.845 Y89.592
X37.281 Y89.665
X36.714 Y89.704
X36.146 Y89.725
X35.577 Y89.737
X35.009 Y89.743
X34.44 Y89.746
X33.303 Y89.749
X29.322 Y89.75
X17.382
X15.676 Y89.752
X15.107 Y89.753
X14.539 Y89.756
X13.97 Y89.762
X13.401 Y89.772
X12.833 Y89.791
X12.266 Y89.826
X11.7 Y89.884
X11.673 Y89.888
X11.514 Y89.939
X11.376 Y90.033
X11.27 Y90.162
X11.205 Y90.315
X11.198 Y90.367
X11.203 Y90.419
X11.219 Y90.469
X11.235 Y90.49
X11.259 Y90.499
X11.284 Y90.495
X11.304 Y90.493
X11.322 Y90.502
X11.333 Y90.519
X11.332 Y90.539
X11.32 Y90.556
X11.299 Y90.562
X11.278 Y90.554
X11.245 Y90.516
X11.219 Y90.471
X11.204 Y90.422
X11.198 Y90.371
X11.205 Y90.315
X11.226 Y90.233
X11.243 Y90.104
X11.247 Y90.001
X11.261 Y89.852
X11.326 Y89.717
X11.42 Y89.6
X11.53 Y89.498
X11.651 Y89.408
X11.795 Y89.32
X11.971 Y89.231
X12.203 Y89.135
X12.507 Y89.038
X12.938 Y88.938
X13.5 Y88.855
X14.067 Y88.808
X14.635 Y88.782
X15.204 Y88.768
X15.772 Y88.76
X16.341 Y88.756
X16.909 Y88.753
X18.047 Y88.751
X23.164 Y88.75
X32.262
X33.399 Y88.748
X33.968 Y88.747
X34.536 Y88.744
X35.105 Y88.739
X35.673 Y88.729
X36.242 Y88.71
X36.809 Y88.674
X37.373 Y88.603
X37.631 Y88.482
X37.85 Y88.301
X38.213 Y87.863
X38.437 Y87.34
X38.57 Y86.788
X38.647 Y86.224
X38.691 Y85.657
X38.717 Y85.089
X38.731 Y84.521
X38.739 Y83.952
X38.744 Y83.384
X38.747 Y82.815
X38.749 Y81.678
X38.75 Y77.129
Y65.188
Y18.562
X38.752 Y16.856
X38.754 Y16.287
X38.757 Y15.719
X38.763 Y15.15
X38.774 Y14.581
X38.795 Y14.013
X38.833 Y13.446
X38.897 Y12.881
X38.987 Y12.375
X39.09 Y11.98
X39.196 Y11.678
X39.232 Y11.597
X39.32 Y11.456
X39.444 Y11.345
X39.595 Y11.275
X39.759 Y11.249
X39.98 Y11.247
X40.032 Y11.254
X40.081 Y11.271
X40.126 Y11.298
X40.164 Y11.334
X40.194 Y11.377
X40.205 Y11.411
X40.202 Y11.446
X40.187 Y11.479
X40.161 Y11.503
X40.127 Y11.516
X40.092 Y11.515
X40.059 Y11.502
X40.033 Y11.477
X39.972 Y11.379
X39.943 Y11.336
X39.905 Y11.301
X39.86 Y11.273
X39.811 Y11.256
X39.759 Y11.249
X39.335 Y11.25
X39.185 Y11.257
X39.045 Y11.31
X38.916 Y11.387
X38.799 Y11.481
X38.692 Y11.587
X38.591 Y11.708
X38.486 Y11.858
X38.382 Y12.036
X38.266 Y12.274
X38.157 Y12.555
X38.042 Y12.939
X37.929 Y13.466
X37.856 Y14.03
X37.812 Y14.597
X37.786 Y15.165
X37.771 Y15.733
X37.762 Y16.302
X37.757 Y16.87
X37.754 Y17.439
X37.751 Y18.576
X37.75 Y21.988
Y61.222
Y80.555
X37.747 Y82.261
X37.745 Y82.829
X37.742 Y83.398
X37.735 Y83.967
X37.724 Y84.535
X37.704 Y85.103
X37.666 Y85.671
X37.597 Y86.235
X37.518 Y86.508
X37.372 Y86.752
X36.974 Y87.158
X36.464 Y87.41
X35.915 Y87.557
X35.353 Y87.642
X34.786 Y87.69
X34.218 Y87.717
X33.65 Y87.732
X33.081 Y87.74
X32.512 Y87.744
X31.944 Y87.747
X30.807 Y87.749
X25.12 Y87.75
X18.866 Y87.751
X17.728 Y87.752
X17.16 Y87.753
X16.591 Y87.756
X16.023 Y87.76
X15.454 Y87.769
X14.886 Y87.783
X14.318 Y87.808
X13.751 Y87.852
X13.186 Y87.923
X12.667 Y88.023
X12.275 Y88.131
X11.951 Y88.25
X11.696 Y88.367
X11.548 Y88.45
X11.39 Y88.58
X11.286 Y88.757
X11.25 Y88.959
Y89.717
X11.248 Y89.975
X11.247 Y90.001
X11.252 Y90.053 Z-15.473
X11.268 Y90.103 Z-15.447
X11.294 Y90.148 Z-15.42
X11.329 Y90.187 Z-15.393
X11.371 Y90.218 Z-15.367
X11.43 Y90.246 Z-15.333
X11.493 Y90.262 Z-15.3
G2 X11.889 Y89.843 I0.054 J-0.346
X11.493 Y89.24 I-0.978 J0.211
G1 X11.439 Y89.203 Z-15.333
X11.382 Y89.171 Z-15.367
X11.339 Y89.141 Z-15.393
X11.303 Y89.104 Z-15.42
X11.275 Y89.06 Z-15.447
X11.257 Y89.01 Z-15.473
X11.25 Y88.959 Z-15.5
Y88.515
X11.257 Y88.366
X11.305 Y88.223
X11.375 Y88.091
X11.462 Y87.968
X11.561 Y87.856
X11.674 Y87.749
X11.807 Y87.642
X11.984 Y87.522
X12.188 Y87.406
X12.452 Y87.283
X12.78 Y87.162
X13.218 Y87.038
X13.776 Y86.927
X14.341 Y86.858
X14.908 Y86.816
X15.476 Y86.79
X16.044 Y86.774
X16.613 Y86.764
X17.181 Y86.758
X17.75 Y86.755
X18.887 Y86.752
X21.73 Y86.75
X30.259 Y86.749
X31.396 Y86.748
X31.965 Y86.746
X32.534 Y86.742
X33.102 Y86.736
X33.671 Y86.724
X34.239 Y86.702
X34.806 Y86.661
X35.369 Y86.583
X35.629 Y86.466
X35.85 Y86.288
X36.215 Y85.852
X36.44 Y85.33
X36.573 Y84.777
X36.65 Y84.213
X36.693 Y83.646
X36.718 Y83.078
X36.732 Y82.51
X36.74 Y81.941
X36.744 Y81.373
X36.747 Y80.804
X36.749 Y79.667
X36.75 Y74.549
Y61.471
Y19.962
X36.752 Y18.256
X36.754 Y17.688
X36.757 Y17.119
X36.762 Y16.551
X36.771 Y15.982
X36.786 Y15.414
X36.811 Y14.846
X36.852 Y14.278
X36.917 Y13.714
X37.014 Y13.153
X37.136 Y12.666
X37.264 Y12.286
X37.405 Y11.958
X37.544 Y11.695
X37.684 Y11.475
X37.822 Y11.292
X37.849 Y11.269
X37.881 Y11.255
X37.915 Y11.25
X39.335
X39.387 Y11.257 Z-15.473
X39.436 Y11.275 Z-15.447
X39.48 Y11.303 Z-15.42
X39.518 Y11.339 Z-15.393
X39.547 Y11.382 Z-15.367
X39.572 Y11.443 Z-15.333
X39.584 Y11.507 Z-15.3
G3 X39.378 Y11.841 I-0.327 J0.03
X38.196 Y11.493 I-0.368 J-0.93
G1 X38.16 Y11.439 Z-15.333
X38.127 Y11.382 Z-15.367
X38.098 Y11.339 Z-15.393
X38.061 Y11.303 Z-15.42
X38.016 Y11.275 Z-15.447
X37.967 Y11.257 Z-15.473
X37.915 Y11.25 Z-15.5
X37.715
X37.565 Y11.257
X37.42 Y11.297
X37.284 Y11.36
X37.157 Y11.44
X37.039 Y11.533
X36.924 Y11.641
X36.81 Y11.767
X36.681 Y11.936
X36.557 Y12.129
X36.424 Y12.376
X36.29 Y12.681
X36.152 Y13.08
X36.02 Y13.593
X35.923 Y14.153
X35.86 Y14.718
X35.819 Y15.285
X35.793 Y15.853
X35.776 Y16.422
X35.766 Y16.99
X35.76 Y17.559
X35.756 Y18.127
X35.752 Y19.265
X35.75 Y21.539
Y60.773
Y78.401
X35.748 Y80.106
X35.746 Y80.675
X35.743 Y81.244
X35.738 Y81.812
X35.729 Y82.381
X35.713 Y82.949
X35.681 Y83.517
X35.621 Y84.082
X35.56 Y84.36
X35.449 Y84.622
X35.274 Y84.845
X34.842 Y85.216
X34.321 Y85.442
X33.768 Y85.576
X33.204 Y85.652
X32.637 Y85.695
X32.069 Y85.719
X31.501 Y85.733
X30.932 Y85.741
X30.364 Y85.745
X29.795 Y85.747
X28.089 Y85.75
X20.129 Y85.751
X18.423 Y85.753
X17.854 Y85.756
X17.286 Y85.759
X16.717 Y85.766
X16.149 Y85.776
X15.58 Y85.794
X15.012 Y85.822
X14.445 Y85.866
X13.881 Y85.936
X13.321 Y86.035
X12.813 Y86.163
X12.408 Y86.3
X12.057 Y86.451
X11.775 Y86.6
X11.538 Y86.751
X11.481 Y86.794
X11.357 Y86.922
X11.277 Y87.082
X11.25 Y87.259
Y88.515
X11.257 Y88.567 Z-15.473
X11.275 Y88.616 Z-15.447
X11.303 Y88.66 Z-15.42
X11.339 Y88.698 Z-15.393
X11.382 Y88.727 Z-15.367
X11.443 Y88.753 Z-15.333
X11.506 Y88.767 Z-15.3
G2 X11.908 Y88.443 I0.044 J-0.356
X11.493 Y87.54 I-0.996 J-0.09
G1 X11.439 Y87.504 Z-15.333
X11.382 Y87.471 Z-15.367
X11.339 Y87.442 Z-15.393
X11.303 Y87.404 Z-15.42
X11.275 Y87.36 Z-15.447
X11.257 Y87.311 Z-15.473
X11.25 Y87.259 Z-15.5
Y86.805
X11.257 Y86.655
X11.299 Y86.511
X11.362 Y86.374
X11.441 Y86.247
X11.532 Y86.128
X11.644 Y86.006
X11.777 Y85.884
X11.939 Y85.757
X12.152 Y85.616
X12.392 Y85.483
X12.716 Y85.336
X13.114 Y85.194
X13.629 Y85.055
X14.188 Y84.951
X14.753 Y84.881
X15.319 Y84.835
X15.887 Y84.804
X16.455 Y84.784
X17.024 Y84.771
X17.593 Y84.763
X18.161 Y84.758
X18.73 Y84.755
X19.867 Y84.752
X22.71 Y84.75
X28.396 Y84.749
X29.533 Y84.747
X30.102 Y84.745
X30.671 Y84.74
X31.239 Y84.732
X31.808 Y84.718
X32.376 Y84.692
X32.942 Y84.643
X33.222 Y84.591
X33.495 Y84.512
X33.737 Y84.364
X34.144 Y83.967
X34.398 Y83.458
X34.549 Y82.91
X34.636 Y82.348
X34.686 Y81.781
X34.714 Y81.213
X34.73 Y80.645
X34.739 Y80.076
X34.744 Y79.508
X34.746 Y78.939
X34.749 Y77.802
X34.75 Y73.822
Y57.9
X34.751 Y20.94
X34.753 Y19.235
X34.755 Y18.666
X34.758 Y18.097
X34.762 Y17.529
X34.77 Y16.96
X34.783 Y16.392
X34.802 Y15.823
X34.832 Y15.256
X34.877 Y14.689
X34.946 Y14.124
X35.046 Y13.564
X35.18 Y13.014
X35.328 Y12.569
X35.49 Y12.188
X35.651 Y11.879
X35.816 Y11.616
X35.915 Y11.484
X36.043 Y11.358
X36.204 Y11.278
X36.382 Y11.25
X37.715
X37.766 Y11.257 Z-15.473
X37.816 Y11.275 Z-15.447
X37.86 Y11.303 Z-15.42
X37.897 Y11.339 Z-15.393
X37.927 Y11.382 Z-15.367
X37.952 Y11.443 Z-15.333
X37.965 Y11.507 Z-15.3
G3 X37.695 Y11.888 I-0.347 J0.04
X36.663 Y11.493 I-0.218 J-0.976
G1 X36.626 Y11.439 Z-15.333
X36.594 Y11.382 Z-15.367
X36.565 Y11.339 Z-15.393
X36.527 Y11.303 Z-15.42
X36.483 Y11.275 Z-15.447
X36.434 Y11.257 Z-15.473
X36.382 Y11.25 Z-15.5
X35.907
X35.758 Y11.257
X35.614 Y11.299
X35.477 Y11.362
X35.349 Y11.44
X35.229 Y11.531
X35.113 Y11.634
X34.98 Y11.773
X34.845 Y11.938
X34.706 Y12.14
X34.555 Y12.402
X34.407 Y12.715
X34.256 Y13.114
X34.106 Y13.633
X33.992 Y14.19
X33.913 Y14.753
X33.859 Y15.319
X33.822 Y15.886
X33.797 Y16.454
X33.78 Y17.023
X33.769 Y17.591
X33.762 Y18.16
X33.758 Y18.729
X33.755 Y19.297
X33.752 Y20.434
X33.75 Y23.277
Y60.806
X33.749 Y76.727
X33.747 Y78.433
X33.745 Y79.002
X33.741 Y79.57
X33.734 Y80.139
X33.72 Y80.707
X33.696 Y81.275
X33.652 Y81.842
X33.567 Y82.405
X33.443 Y82.66
X33.258 Y82.877
X32.816 Y83.234
X32.291 Y83.452
X31.737 Y83.58
X31.173 Y83.654
X30.606 Y83.696
X30.038 Y83.72
X29.469 Y83.733
X28.901 Y83.741
X28.332 Y83.745
X27.763 Y83.747
X26.058 Y83.749
X20.94 Y83.751
X19.803 Y83.752
X18.666 Y83.757
X18.097 Y83.761
X17.528 Y83.767
X16.96 Y83.777
X16.391 Y83.793
X15.823 Y83.816
X15.256 Y83.851
X14.69 Y83.903
X14.126 Y83.979
X13.568 Y84.085
X13.019 Y84.228
X12.573 Y84.383
X12.183 Y84.554
X11.871 Y84.722
X11.606 Y84.894
X11.478 Y84.992
X11.355 Y85.121
X11.277 Y85.28
X11.25 Y85.455
Y86.805
X11.257 Y86.856 Z-15.473
X11.275 Y86.905 Z-15.447
X11.303 Y86.95 Z-15.42
X11.339 Y86.987 Z-15.393
X11.382 Y87.017 Z-15.367
X11.443 Y87.042 Z-15.333
X11.507 Y87.055 Z-15.3
G2 X11.881 Y86.796 I0.039 J-0.344
X11.493 Y85.736 I-0.969 J-0.247
G1 X11.439 Y85.7 Z-15.333
X11.382 Y85.667 Z-15.367
X11.339 Y85.638 Z-15.393
X11.303 Y85.6 Z-15.42
X11.275 Y85.556 Z-15.447
X11.257 Y85.507 Z-15.473
X11.25 Y85.455 Z-15.5
Y84.997
X11.257 Y84.847
X11.295 Y84.702
X11.354 Y84.564
X11.429 Y84.434
X11.517 Y84.312
X11.616 Y84.195
X11.75 Y84.062
X11.913 Y83.923
X12.107 Y83.783
X12.365 Y83.627
X12.665 Y83.477
X13.056 Y83.319
X13.556 Y83.162
X14.11 Y83.036
X14.672 Y82.947
X15.237 Y82.884
X15.804 Y82.841
X16.372 Y82.81
X16.94 Y82.79
X17.509 Y82.776
X18.077 Y82.767
X18.646 Y82.761
X19.214 Y82.757
X20.352 Y82.753
X22.057 Y82.751
X26.606 Y82.749
X27.744 Y82.746
X28.312 Y82.743
X28.881 Y82.738
X29.449 Y82.728
X30.018 Y82.709
X30.585 Y82.675
X31.15 Y82.611
X31.426 Y82.54
X31.678 Y82.41
X31.892 Y82.222
X32.243 Y81.776
X32.458 Y81.249
X32.584 Y80.694
X32.656 Y80.13
X32.697 Y79.563
X32.72 Y78.995
X32.733 Y78.427
X32.741 Y77.858
X32.745 Y77.29
X32.747 Y76.721
X32.749 Y75.015
X32.75 Y53.976
X32.751 Y22.134
X32.752 Y20.428
X32.756 Y19.291
X32.759 Y18.722
X32.765 Y18.154
X32.773 Y17.585
X32.785 Y17.017
X32.804 Y16.448
X32.831 Y15.88
X32.871 Y15.313
X32.929 Y14.747
X33.01 Y14.185
X33.122 Y13.627
X33.269 Y13.078
X33.43 Y12.62
X33.603 Y12.23
X33.785 Y11.896
X33.961 Y11.626
X34.077 Y11.476
X34.205 Y11.355
X34.364 Y11.277
X34.539 Y11.25
X35.907
X35.959 Y11.257 Z-15.473
X36.008 Y11.275 Z-15.447
X36.052 Y11.303 Z-15.42
X36.09 Y11.339 Z-15.393
X36.119 Y11.382 Z-15.367
X36.144 Y11.443 Z-15.333
X36.158 Y11.507 Z-15.3
G3 X35.913 Y11.872 I-0.34 J0.037
X34.819 Y11.493 I-0.28 J-0.96
G1 X34.783 Y11.439 Z-15.333
X34.75 Y11.382 Z-15.367
X34.721 Y11.339 Z-15.393
X34.684 Y11.303 Z-15.42
X34.639 Y11.275 Z-15.447
X34.59 Y11.257 Z-15.473
X34.539 Y11.25 Z-15.5
X34.1
X33.95 Y11.257
X33.804 Y11.29
X33.664 Y11.345
X33.532 Y11.416
X33.409 Y11.501
X33.285 Y11.601
X33.156 Y11.726
X33.008 Y11.892
X32.869 Y12.076
X32.709 Y12.33
X32.555 Y12.622
X32.387 Y13.013
X32.222 Y13.505
X32.085 Y14.056
X31.986 Y14.616
X31.914 Y15.18
X31.864 Y15.747
X31.828 Y16.314
X31.803 Y16.882
X31.785 Y17.451
X31.773 Y18.019
X31.765 Y18.588
X31.76 Y19.156
X31.756 Y19.725
X31.753 Y20.862
X31.75 Y23.137
Y60.665
X31.749 Y74.881
X31.748 Y76.018
X31.747 Y76.586
X31.744 Y77.155
X31.739 Y77.724
X31.731 Y78.292
X31.716 Y78.861
X31.687 Y79.428
X31.631 Y79.994
X31.576 Y80.273
X31.49 Y80.544
X31.33 Y80.78
X30.918 Y81.171
X30.404 Y81.414
X29.854 Y81.558
X29.292 Y81.642
X28.725 Y81.689
X28.157 Y81.716
X27.589 Y81.731
X27.02 Y81.739
X26.452 Y81.744
X25.883 Y81.747
X24.746 Y81.749
X21.334 Y81.751
X20.197 Y81.754
X19.628 Y81.756
X19.06 Y81.759
X18.491 Y81.765
X17.922 Y81.773
X17.354 Y81.784
X16.786 Y81.802
X16.217 Y81.827
X15.65 Y81.863
X15.084 Y81.914
X14.519 Y81.984
X13.959 Y82.08
X13.405 Y82.21
X12.895 Y82.368
X12.454 Y82.544
X12.079 Y82.729
X11.777 Y82.91
X11.519 Y83.095
X11.457 Y83.147
X11.345 Y83.273
X11.274 Y83.426
X11.25 Y83.593
Y84.997
X11.257 Y85.048 Z-15.473
X11.275 Y85.098 Z-15.447
X11.303 Y85.142 Z-15.42
X11.339 Y85.179 Z-15.393
X11.382 Y85.209 Z-15.367
X11.443 Y85.234 Z-15.333
X11.507 Y85.246 Z-15.3
G2 X11.852 Y85.028 I0.032 J-0.331
X11.493 Y83.874 I-0.94 J-0.341
G1 X11.439 Y83.837 Z-15.333
X11.382 Y83.805 Z-15.367
X11.339 Y83.776 Z-15.393
X11.303 Y83.738 Z-15.42
X11.275 Y83.694 Z-15.447
X11.257 Y83.645 Z-15.473
X11.25 Y83.593 Z-15.5
Y83.131
X11.257 Y82.981
X11.294 Y82.835
X11.351 Y82.697
X11.424 Y82.566
X11.509 Y82.442
X11.615 Y82.315
X11.754 Y82.172
X11.91 Y82.036
X12.123 Y81.878
X12.366 Y81.726
X12.697 Y81.555
X13.079 Y81.395
X13.586 Y81.229
X14.139 Y81.096
X14.699 Y80.998
X15.263 Y80.927
X15.829 Y80.874
X16.396 Y80.837
X16.964 Y80.81
X17.533 Y80.791
X18.101 Y80.777
X18.67 Y80.768
X19.238 Y80.762
X19.807 Y80.758
X20.944 Y80.753
X22.65 Y80.751
X24.924 Y80.748
X25.493 Y80.747
X26.062 Y80.745
X26.63 Y80.74
X27.199 Y80.732
X27.767 Y80.718
X28.335 Y80.693
X28.902 Y80.645
X29.462 Y80.549
X29.709 Y80.408
X30.125 Y80.02
X30.386 Y79.515
X30.542 Y78.968
X30.632 Y78.407
X30.684 Y77.841
X30.713 Y77.273
X30.729 Y76.704
X30.738 Y76.136
X30.743 Y75.567
X30.746 Y74.999
X30.749 Y73.861
X30.75 Y69.881
Y49.979
Y23.255
X30.752 Y21.549
X30.754 Y20.411
X30.757 Y19.843
X30.761 Y19.274
X30.766 Y18.706
X30.775 Y18.137
X30.787 Y17.569
X30.805 Y17
X30.83 Y16.432
X30.866 Y15.865
X30.916 Y15.298
X30.985 Y14.734
X31.078 Y14.173
X31.201 Y13.618
X31.359 Y13.072
X31.54 Y12.591
X31.72 Y12.208
X31.909 Y11.877
X32.099 Y11.598
X32.206 Y11.467
X32.333 Y11.35
X32.489 Y11.276
X32.659 Y11.25
X34.1
X34.152 Y11.257 Z-15.473
X34.201 Y11.275 Z-15.447
X34.245 Y11.303 Z-15.42
X34.283 Y11.339 Z-15.393
X34.312 Y11.382 Z-15.367
X34.337 Y11.443 Z-15.333
X34.349 Y11.507 Z-15.3
G3 X34.159 Y11.826 I-0.319 J0.026
X32.94 Y11.493 I-0.405 J-0.914
G1 X32.904 Y11.439 Z-15.333
X32.871 Y11.382 Z-15.367
X32.842 Y11.339 Z-15.393
X32.804 Y11.303 Z-15.42
X32.76 Y11.275 Z-15.447
X32.711 Y11.257 Z-15.473
X32.659 Y11.25 Z-15.5
X32.196
X32.046 Y11.257
X31.9 Y11.293
X31.761 Y11.349
X31.63 Y11.422
X31.504 Y11.508
X31.382 Y11.607
X31.245 Y11.738
X31.094 Y11.908
X30.947 Y12.102
X30.777 Y12.369
X30.616 Y12.674
X30.442 Y13.078
X30.267 Y13.597
X30.129 Y14.148
X30.026 Y14.708
X29.949 Y15.271
X29.892 Y15.837
X29.85 Y16.404
X29.82 Y16.972
X29.799 Y17.54
X29.783 Y18.108
X29.773 Y18.677
X29.765 Y19.245
X29.76 Y19.814
X29.757 Y20.383
X29.753 Y21.52
X29.75 Y23.794
Y60.754
Y72.695
X29.747 Y74.401
X29.745 Y74.97
X29.742 Y75.538
X29.735 Y76.107
X29.722 Y76.675
X29.7 Y77.243
X29.658 Y77.81
X29.577 Y78.373
X29.46 Y78.632
X29.281 Y78.853
X28.845 Y79.218
X28.323 Y79.443
X27.77 Y79.575
X27.206 Y79.651
X26.639 Y79.694
X26.071 Y79.719
X25.503 Y79.733
X24.934 Y79.74
X24.365 Y79.745
X23.228 Y79.749
X20.954 Y79.754
X20.385 Y79.756
X19.817 Y79.759
X19.248 Y79.764
X18.679 Y79.771
X18.111 Y79.781
X17.542 Y79.795
X16.974 Y79.816
X16.406 Y79.844
X15.839 Y79.884
X15.273 Y79.938
X14.709 Y80.011
X14.149 Y80.108
X13.595 Y80.235
X13.05 Y80.398
X12.58 Y80.578
X12.192 Y80.764
X11.859 Y80.958
X11.585 Y81.148
X11.463 Y81.249
X11.348 Y81.376
X11.275 Y81.53
X11.25 Y81.7
Y83.131
X11.257 Y83.182 Z-15.473
X11.275 Y83.232 Z-15.447
X11.303 Y83.276 Z-15.42
X11.339 Y83.313 Z-15.393
X11.382 Y83.343 Z-15.367
X11.443 Y83.367 Z-15.333
X11.507 Y83.38 Z-15.3
G2 X11.833 Y83.183 I0.028 J-0.323
X11.493 Y81.98 I-0.921 J-0.389
G1 X11.439 Y81.944 Z-15.333
X11.382 Y81.911 Z-15.367
X11.339 Y81.882 Z-15.393
X11.303 Y81.845 Z-15.42
X11.275 Y81.8 Z-15.447
X11.257 Y81.751 Z-15.473
X11.25 Y81.7 Z-15.5
Y81.252
X11.257 Y81.102
X11.289 Y80.956
X11.343 Y80.816
X11.414 Y80.683
X11.497 Y80.558
X11.593 Y80.436
X11.72 Y80.299
X11.885 Y80.148
X12.073 Y80.002
X12.333 Y79.831
X12.628 Y79.67
X13.023 Y79.493
X13.527 Y79.315
X14.077 Y79.169
X14.635 Y79.059
X15.197 Y78.976
X15.763 Y78.914
X16.329 Y78.868
X16.897 Y78.834
X17.465 Y78.809
X18.033 Y78.791
X18.602 Y78.778
X19.17 Y78.769
X19.739 Y78.763
X20.307 Y78.759
X21.445 Y78.754
X23.719 Y78.747
X24.288 Y78.744
X24.856 Y78.738
X25.425 Y78.729
X25.993 Y78.711
X26.561 Y78.678
X27.126 Y78.615
X27.402 Y78.547
X27.658 Y78.424
X27.875 Y78.241
X28.234 Y77.799
X28.453 Y77.274
X28.581 Y76.72
X28.655 Y76.157
X28.697 Y75.589
X28.72 Y75.021
X28.733 Y74.453
X28.741 Y73.884
X28.745 Y73.316
X28.747 Y72.747
X28.749 Y71.041
X28.75 Y46.022
X28.751 Y23.846
X28.752 Y22.14
X28.755 Y21.003
X28.757 Y20.434
X28.761 Y19.866
X28.767 Y19.297
X28.775 Y18.729
X28.786 Y18.16
X28.802 Y17.592
X28.825 Y17.024
X28.856 Y16.456
X28.898 Y15.889
X28.955 Y15.323
X29.031 Y14.76
X29.131 Y14.2
X29.26 Y13.646
X29.424 Y13.101
X29.611 Y12.611
X29.799 Y12.219
X29.995 Y11.882
X30.192 Y11.598
X30.302 Y11.463
X30.429 Y11.348
X30.584 Y11.275
X30.753 Y11.25
X32.196
X32.247 Y11.257 Z-15.473
X32.296 Y11.275 Z-15.447
X32.341 Y11.303 Z-15.42
X32.378 Y11.339 Z-15.393
X32.407 Y11.382 Z-15.367
X32.432 Y11.443 Z-15.333
X32.444 Y11.507 Z-15.3
G3 X32.256 Y11.825 I-0.319 J0.026
X31.034 Y11.493 I-0.408 J-0.913
G1 X30.998 Y11.439 Z-15.333
X30.965 Y11.382 Z-15.367
X30.936 Y11.339 Z-15.393
X30.898 Y11.303 Z-15.42
X30.854 Y11.275 Z-15.447
X30.805 Y11.257 Z-15.473
X30.753 Y11.25 Z-15.5
X30.298
X30.148 Y11.257
X30.002 Y11.29
X29.862 Y11.345
X29.73 Y11.415
X29.604 Y11.498
X29.479 Y11.598
X29.342 Y11.725
X29.186 Y11.895
X29.038 Y12.086
X28.864 Y12.35
X28.699 Y12.654
X28.517 Y13.061
X28.334 Y13.58
X28.188 Y14.13
X28.077 Y14.687
X27.992 Y15.25
X27.928 Y15.815
X27.879 Y16.381
X27.843 Y16.949
X27.816 Y17.517
X27.797 Y18.085
X27.783 Y18.653
X27.773 Y19.222
X27.766 Y19.79
X27.761 Y20.359
X27.757 Y20.928
X27.753 Y22.065
X27.751 Y23.771
X27.75 Y31.731
Y60.731
X27.749 Y70.966
X27.748 Y72.103
X27.746 Y72.672
X27.744 Y73.24
X27.739 Y73.809
X27.729 Y74.377
X27.712 Y74.946
X27.681 Y75.513
X27.62 Y76.079
X27.555 Y76.356
X27.445 Y76.618
X27.27 Y76.842
X26.838 Y77.211
X26.317 Y77.439
X25.764 Y77.573
X25.201 Y77.65
X24.634 Y77.694
X24.066 Y77.719
X23.497 Y77.733
X22.929 Y77.742
X22.36 Y77.747
X20.654 Y77.757
X20.086 Y77.761
X19.517 Y77.767
X18.949 Y77.776
X18.38 Y77.787
X17.812 Y77.803
X17.244 Y77.825
X16.676 Y77.855
X16.109 Y77.895
X15.542 Y77.948
X14.978 Y78.019
X14.417 Y78.109
X13.86 Y78.227
X13.312 Y78.378
X12.808 Y78.556
X12.368 Y78.751
X12 Y78.952
X11.703 Y79.147
X11.45 Y79.343
X11.44 Y79.352
X11.337 Y79.476
X11.272 Y79.623
X11.25 Y79.783
Y81.252
X11.257 Y81.304 Z-15.473
X11.275 Y81.353 Z-15.447
X11.303 Y81.397 Z-15.42
X11.339 Y81.435 Z-15.393
X11.382 Y81.464 Z-15.367
X11.443 Y81.488 Z-15.333
X11.507 Y81.499 Z-15.3
G2 X11.802 Y81.332 I0.02 J-0.308
X11.493 Y80.064 I-0.891 J-0.455
G1 X11.439 Y80.027 Z-15.333
X11.382 Y79.995 Z-15.367
X11.339 Y79.965 Z-15.393
X11.303 Y79.928 Z-15.42
X11.275 Y79.883 Z-15.447
X11.257 Y79.834 Z-15.473
X11.25 Y79.783 Z-15.5
Y79.315
X11.257 Y79.165
X11.293 Y79.019
X11.349 Y78.88
X11.42 Y78.748
X11.504 Y78.624
X11.615 Y78.486
X11.746 Y78.348
X11.911 Y78.2
X12.125 Y78.036
X12.379 Y77.872
X12.709 Y77.695
X13.13 Y77.512
X13.66 Y77.33
X14.21 Y77.189
X14.769 Y77.081
X15.331 Y76.998
X15.896 Y76.935
X16.463 Y76.886
X17.03 Y76.849
X17.598 Y76.822
X18.167 Y76.802
X18.735 Y76.786
X19.303 Y76.775
X19.872 Y76.767
X20.441 Y76.761
X22.146 Y76.748
X22.715 Y76.742
X23.283 Y76.733
X23.852 Y76.717
X24.42 Y76.689
X24.986 Y76.634
X25.265 Y76.579
X25.536 Y76.495
X25.772 Y76.336
X26.167 Y75.927
X26.412 Y75.414
X26.557 Y74.864
X26.641 Y74.301
X26.688 Y73.735
X26.715 Y73.167
X26.731 Y72.598
X26.739 Y72.03
X26.744 Y71.461
X26.747 Y70.893
X26.749 Y69.755
X26.75 Y65.206
Y41.893
Y24.835
X26.753 Y22.56
X26.756 Y21.423
X26.759 Y20.854
X26.763 Y20.286
X26.769 Y19.717
X26.777 Y19.149
X26.788 Y18.58
X26.804 Y18.012
X26.826 Y17.444
X26.855 Y16.876
X26.894 Y16.308
X26.945 Y15.742
X27.012 Y15.178
X27.1 Y14.616
X27.212 Y14.058
X27.356 Y13.508
X27.534 Y12.968
X27.724 Y12.51
X27.92 Y12.128
X28.126 Y11.796
X28.321 Y11.531
X28.39 Y11.451
X28.516 Y11.342
X28.667 Y11.274
X28.831 Y11.25
X30.298
X30.35 Y11.257 Z-15.473
X30.399 Y11.275 Z-15.447
X30.443 Y11.303 Z-15.42
X30.481 Y11.339 Z-15.393
X30.51 Y11.382 Z-15.367
X30.534 Y11.443 Z-15.333
X30.546 Y11.507 Z-15.3
G3 X30.376 Y11.804 I-0.309 J0.021
X29.112 Y11.493 I-0.451 J-0.892
G1 X29.075 Y11.439 Z-15.333
X29.043 Y11.382 Z-15.367
X29.014 Y11.339 Z-15.393
X28.976 Y11.303 Z-15.42
X28.932 Y11.275 Z-15.447
X28.883 Y11.257 Z-15.473
X28.831 Y11.25 Z-15.5
X28.362
X28.212 Y11.257
X28.066 Y11.293
X27.926 Y11.347
X27.794 Y11.419
X27.67 Y11.502
X27.542 Y11.603
X27.395 Y11.741
X27.249 Y11.901
X27.087 Y12.109
X26.916 Y12.371
X26.733 Y12.707
X26.553 Y13.113
X26.365 Y13.649
X26.22 Y14.199
X26.108 Y14.756
X26.021 Y15.318
X25.954 Y15.883
X25.902 Y16.449
X25.862 Y17.016
X25.832 Y17.584
X25.81 Y18.152
X25.793 Y18.721
X25.78 Y19.289
X25.771 Y19.858
X25.765 Y20.426
X25.76 Y20.995
X25.755 Y22.132
X25.751 Y23.838
X25.75 Y27.818
Y60.798
X25.749 Y68.759
X25.747 Y70.465
X25.745 Y71.033
X25.741 Y71.602
X25.733 Y72.17
X25.719 Y72.739
X25.694 Y73.307
X25.648 Y73.874
X25.557 Y74.435
X25.423 Y74.686
X25.234 Y74.898
X24.785 Y75.247
X24.258 Y75.46
X23.703 Y75.586
X23.14 Y75.659
X22.572 Y75.701
X22.004 Y75.725
X21.436 Y75.741
X20.867 Y75.751
X19.73 Y75.769
X19.162 Y75.78
X18.593 Y75.793
X18.025 Y75.811
X17.457 Y75.835
X16.889 Y75.866
X16.322 Y75.907
X15.756 Y75.96
X15.191 Y76.027
X14.629 Y76.114
X14.072 Y76.227
X13.522 Y76.371
X12.982 Y76.55
X12.525 Y76.74
X12.132 Y76.941
X11.801 Y77.147
X11.534 Y77.343
X11.451 Y77.416
X11.342 Y77.541
X11.274 Y77.692
X11.25 Y77.856
Y79.315
X11.257 Y79.367 Z-15.473
X11.275 Y79.416 Z-15.447
X11.303 Y79.46 Z-15.42
X11.339 Y79.498 Z-15.393
X11.382 Y79.527 Z-15.367
X11.443 Y79.551 Z-15.333
X11.507 Y79.563 Z-15.3
G2 X11.811 Y79.387 I0.022 J-0.312
X11.493 Y78.137 I-0.9 J-0.437
G1 X11.439 Y78.101 Z-15.333
X11.382 Y78.068 Z-15.367
X11.339 Y78.039 Z-15.393
X11.303 Y78.001 Z-15.42
X11.275 Y77.957 Z-15.447
X11.257 Y77.908 Z-15.473
X11.25 Y77.856 Z-15.5
Y77.378
X11.257 Y77.228
X11.294 Y77.083
X11.35 Y76.943
X11.422 Y76.812
X11.506 Y76.687
X11.608 Y76.559
X11.747 Y76.41
X11.909 Y76.263
X12.121 Y76.1
X12.386 Y75.928
X12.728 Y75.743
X13.135 Y75.563
X13.672 Y75.376
X14.222 Y75.232
X14.78 Y75.12
X15.342 Y75.033
X15.906 Y74.965
X16.472 Y74.912
X17.04 Y74.871
X17.607 Y74.84
X18.175 Y74.816
X18.744 Y74.797
X19.312 Y74.782
X19.881 Y74.77
X21.018 Y74.748
X21.586 Y74.732
X22.154 Y74.708
X22.721 Y74.667
X23.285 Y74.591
X23.554 Y74.501
X23.788 Y74.338
X24.177 Y73.924
X24.418 Y73.409
X24.56 Y72.858
X24.643 Y72.296
X24.69 Y71.729
X24.716 Y71.161
X24.731 Y70.592
X24.739 Y70.024
X24.744 Y69.455
X24.747 Y68.887
X24.749 Y67.749
X24.75 Y63.201
Y37.613
X24.751 Y25.103
X24.752 Y23.397
X24.755 Y22.26
X24.761 Y21.123
X24.766 Y20.554
X24.772 Y19.986
X24.781 Y19.417
X24.794 Y18.849
X24.81 Y18.28
X24.833 Y17.712
X24.862 Y17.144
X24.901 Y16.577
X24.951 Y16.011
X25.015 Y15.446
X25.098 Y14.883
X25.202 Y14.324
X25.333 Y13.771
X25.497 Y13.226
X25.693 Y12.711
X25.9 Y12.275
X26.099 Y11.931
X26.305 Y11.634
X26.444 Y11.464
X26.571 Y11.349
X26.726 Y11.275
X26.896 Y11.25
X28.362
X28.413 Y11.257 Z-15.473
X28.462 Y11.275 Z-15.447
X28.507 Y11.303 Z-15.42
X28.544 Y11.339 Z-15.393
X28.574 Y11.382 Z-15.367
X28.598 Y11.443 Z-15.333
X28.609 Y11.507 Z-15.3
G3 X28.439 Y11.805 I-0.309 J0.021
X27.176 Y11.493 I-0.449 J-0.893
G1 X27.14 Y11.439 Z-15.333
X27.107 Y11.382 Z-15.367
X27.078 Y11.339 Z-15.393
X27.041 Y11.303 Z-15.42
X26.996 Y11.275 Z-15.447
X26.947 Y11.257 Z-15.473
X26.896 Y11.25 Z-15.5
X26.425
X26.275 Y11.257
X26.129 Y11.291
X25.99 Y11.347
X25.857 Y11.417
X25.733 Y11.5
X25.594 Y11.61
X25.458 Y11.736
X25.3 Y11.909
X25.14 Y12.115
X24.965 Y12.381
X24.787 Y12.707
X24.595 Y13.137
X24.406 Y13.673
X24.259 Y14.222
X24.144 Y14.779
X24.053 Y15.34
X23.982 Y15.904
X23.926 Y16.47
X23.883 Y17.037
X23.849 Y17.605
X23.823 Y18.173
X23.804 Y18.741
X23.789 Y19.31
X23.778 Y19.878
X23.77 Y20.447
X23.764 Y21.015
X23.76 Y21.584
X23.755 Y22.721
X23.752 Y24.427
X23.75 Y28.407
Y60.818
X23.749 Y67.073
X23.748 Y68.21
X23.746 Y68.779
X23.743 Y69.347
X23.737 Y69.916
X23.727 Y70.485
X23.709 Y71.053
X23.674 Y71.62
X23.607 Y72.185
X23.533 Y72.46
X23.394 Y72.708
X23.009 Y73.126
X22.505 Y73.389
X21.959 Y73.548
X21.398 Y73.642
X20.832 Y73.698
X20.265 Y73.734
X19.697 Y73.76
X18.56 Y73.802
X17.992 Y73.826
X17.424 Y73.855
X16.857 Y73.891
X16.29 Y73.937
X15.724 Y73.996
X15.161 Y74.069
X14.6 Y74.161
X14.043 Y74.278
X13.494 Y74.427
X12.956 Y74.611
X12.498 Y74.807
X12.103 Y75.015
X11.776 Y75.222
X11.511 Y75.421
X11.446 Y75.479
X11.34 Y75.604
X11.273 Y75.753
X11.25 Y75.916
Y77.378
X11.257 Y77.43 Z-15.473
X11.275 Y77.479 Z-15.447
X11.303 Y77.523 Z-15.42
X11.339 Y77.561 Z-15.393
X11.382 Y77.59 Z-15.367
X11.443 Y77.614 Z-15.333
X11.507 Y77.626 Z-15.3
G2 X11.808 Y77.453 I0.022 J-0.311
X11.493 Y76.196 I-0.897 J-0.443
G1 X11.439 Y76.16 Z-15.333
X11.382 Y76.127 Z-15.367
X11.339 Y76.098 Z-15.393
X11.303 Y76.061 Z-15.42
X11.275 Y76.016 Z-15.447
X11.257 Y75.967 Z-15.473
X11.25 Y75.916 Z-15.5
Y75.441
X11.257 Y75.291
X11.293 Y75.145
X11.348 Y75.006
X11.419 Y74.874
X11.502 Y74.749
X11.605 Y74.618
X11.746 Y74.467
X11.905 Y74.321
X12.118 Y74.155
X12.38 Y73.983
X12.726 Y73.793
X13.131 Y73.612
X13.667 Y73.422
X14.217 Y73.275
X14.773 Y73.16
X15.335 Y73.069
X15.899 Y72.996
X16.464 Y72.939
X17.031 Y72.893
X17.599 Y72.856
X18.166 Y72.826
X18.734 Y72.8
X19.302 Y72.775
X19.87 Y72.748
X20.438 Y72.71
X21.003 Y72.652
X21.282 Y72.595
X21.552 Y72.506
X21.786 Y72.345
X22.175 Y71.93
X22.417 Y71.416
X22.56 Y70.865
X22.642 Y70.303
X22.689 Y69.736
X22.716 Y69.168
X22.731 Y68.6
X22.739 Y68.031
X22.744 Y67.462
X22.747 Y66.894
X22.749 Y65.757
X22.75 Y61.208
Y33.914
X22.751 Y25.954
X22.753 Y23.679
X22.756 Y22.542
X22.759 Y21.973
X22.763 Y21.405
X22.768 Y20.836
X22.775 Y20.267
X22.785 Y19.699
X22.798 Y19.13
X22.815 Y18.562
X22.837 Y17.994
X22.866 Y17.426
X22.904 Y16.859
X22.952 Y16.292
X23.013 Y15.727
X23.089 Y15.163
X23.184 Y14.603
X23.304 Y14.047
X23.455 Y13.499
X23.64 Y12.961
X23.838 Y12.502
X24.045 Y12.109
X24.256 Y11.777
X24.456 Y11.512
X24.515 Y11.446
X24.64 Y11.34
X24.789 Y11.273
X24.951 Y11.25
X26.425
X26.477 Y11.257 Z-15.473
X26.526 Y11.275 Z-15.447
X26.57 Y11.303 Z-15.42
X26.608 Y11.339 Z-15.393
X26.637 Y11.382 Z-15.367
X26.661 Y11.443 Z-15.333
X26.672 Y11.507 Z-15.3
G3 X26.508 Y11.798 I-0.306 J0.019
X25.232 Y11.493 I-0.463 J-0.886
G1 X25.196 Y11.439 Z-15.333
X25.163 Y11.382 Z-15.367
X25.134 Y11.339 Z-15.393
X25.096 Y11.303 Z-15.42
X25.052 Y11.275 Z-15.447
X25.003 Y11.257 Z-15.473
X24.951 Y11.25 Z-15.5
X24.489
X24.339 Y11.257
X24.193 Y11.29
X24.052 Y11.344
X23.919 Y11.413
X23.794 Y11.495
X23.665 Y11.595
X23.516 Y11.731
X23.368 Y11.89
X23.203 Y12.097
X23.028 Y12.358
X22.839 Y12.696
X22.654 Y13.1
X22.459 Y13.634
X22.308 Y14.182
X22.188 Y14.738
X22.093 Y15.299
X22.017 Y15.862
X21.957 Y16.427
X21.909 Y16.994
X21.871 Y17.561
X21.842 Y18.129
X21.819 Y18.697
X21.801 Y19.266
X21.788 Y19.834
X21.778 Y20.403
X21.77 Y20.971
X21.764 Y21.54
X21.76 Y22.109
X21.755 Y23.246
X21.752 Y24.952
X21.75 Y28.932
Y60.774
X21.749 Y65.323
X21.747 Y66.461
X21.745 Y67.029
X21.741 Y67.598
X21.733 Y68.166
X21.72 Y68.735
X21.695 Y69.303
X21.651 Y69.87
X21.562 Y70.431
X21.435 Y70.686
X21.25 Y70.902
X20.808 Y71.259
X20.285 Y71.482
X19.733 Y71.62
X19.171 Y71.707
X18.606 Y71.767
X18.039 Y71.814
X17.472 Y71.857
X16.905 Y71.903
X16.339 Y71.955
X15.774 Y72.017
X15.21 Y72.094
X14.65 Y72.189
X14.094 Y72.307
X13.545 Y72.456
X13.006 Y72.639
X12.532 Y72.839
X12.137 Y73.046
X11.801 Y73.256
X11.531 Y73.458
X11.448 Y73.531
X11.341 Y73.656
X11.273 Y73.806
X11.25 Y73.969
Y75.441
X11.257 Y75.493 Z-15.473
X11.275 Y75.542 Z-15.447
X11.303 Y75.586 Z-15.42
X11.339 Y75.624 Z-15.393
X11.382 Y75.653 Z-15.367
X11.443 Y75.677 Z-15.333
X11.507 Y75.688 Z-15.3
G2 X11.8 Y75.523 I0.02 J-0.307
X11.493 Y74.25 I-0.888 J-0.459
G1 X11.439 Y74.213 Z-15.333
X11.382 Y74.181 Z-15.367
X11.339 Y74.152 Z-15.393
X11.303 Y74.114 Z-15.42
X11.275 Y74.07 Z-15.447
X11.257 Y74.021 Z-15.473
X11.25 Y73.969 Z-15.5
Y73.504
X11.257 Y73.354
X11.291 Y73.208
X11.344 Y73.068
X11.414 Y72.935
X11.497 Y72.808
X11.595 Y72.681
X11.729 Y72.534
X11.893 Y72.381
X12.097 Y72.219
X12.362 Y72.042
X12.693 Y71.856
X13.105 Y71.667
X13.639 Y71.472
X14.187 Y71.32
X14.743 Y71.2
X15.303 Y71.103
X15.867 Y71.024
X16.431 Y70.96
X16.997 Y70.904
X17.564 Y70.854
X18.13 Y70.802
X18.695 Y70.74
X19.257 Y70.65
X19.527 Y70.561
X19.764 Y70.404
X20.16 Y69.996
X20.407 Y69.484
X20.554 Y68.935
X20.639 Y68.372
X20.687 Y67.806
X20.715 Y67.238
X20.73 Y66.669
X20.739 Y66.101
X20.744 Y65.532
X20.746 Y64.964
X20.749 Y63.826
X20.75 Y59.278
Y29.71
X20.751 Y25.729
X20.754 Y24.023
X20.757 Y22.886
X20.76 Y22.318
X20.764 Y21.749
X20.77 Y21.18
X20.777 Y20.612
X20.787 Y20.043
X20.8 Y19.475
X20.816 Y18.906
X20.838 Y18.338
X20.866 Y17.77
X20.902 Y17.203
X20.947 Y16.636
X21.003 Y16.07
X21.073 Y15.506
X21.16 Y14.944
X21.267 Y14.385
X21.4 Y13.833
X21.564 Y13.288
X21.762 Y12.768
X21.975 Y12.32
X22.186 Y11.955
X22.392 Y11.657
X22.549 Y11.464
X22.676 Y11.349
X22.831 Y11.275
X23.001 Y11.25
X24.489
X24.54 Y11.257 Z-15.473
X24.589 Y11.275 Z-15.447
X24.634 Y11.303 Z-15.42
X24.671 Y11.339 Z-15.393
X24.701 Y11.382 Z-15.367
X24.725 Y11.443 Z-15.333
X24.735 Y11.507 Z-15.3
G3 X24.582 Y11.785 I-0.299 J0.016
X23.281 Y11.493 I-0.487 J-0.873
G1 X23.245 Y11.439 Z-15.333
X23.213 Y11.382 Z-15.367
X23.183 Y11.339 Z-15.393
X23.146 Y11.303 Z-15.42
X23.101 Y11.275 Z-15.447
X23.052 Y11.257 Z-15.473
X23.001 Y11.25 Z-15.5
X22.513
X22.363 Y11.257
X22.218 Y11.294
X22.079 Y11.351
X21.947 Y11.422
X21.822 Y11.506
X21.677 Y11.621
X21.539 Y11.75
X21.38 Y11.925
X21.213 Y12.142
X21.037 Y12.413
X20.853 Y12.753
X20.655 Y13.199
X20.468 Y13.736
X20.32 Y14.285
X20.203 Y14.841
X20.108 Y15.402
X20.032 Y15.966
X19.971 Y16.531
X19.922 Y17.097
X19.883 Y17.665
X19.852 Y18.232
X19.828 Y18.8
X19.809 Y19.369
X19.794 Y19.937
X19.783 Y20.506
X19.774 Y21.074
X19.768 Y21.643
X19.763 Y22.211
X19.757 Y23.349
X19.752 Y25.054
X19.75 Y27.898
Y60.309
X19.749 Y63.72
X19.746 Y64.858
X19.743 Y65.426
X19.737 Y65.995
X19.726 Y66.563
X19.707 Y67.132
X19.671 Y67.699
X19.601 Y68.263
X19.523 Y68.537
X19.381 Y68.783
X18.997 Y69.203
X18.5 Y69.478
X17.96 Y69.657
X17.405 Y69.779
X16.844 Y69.872
X15.718 Y70.035
X15.157 Y70.124
X14.598 Y70.228
X14.043 Y70.354
X13.496 Y70.51
X12.96 Y70.699
X12.493 Y70.902
X12.102 Y71.111
X11.769 Y71.325
X11.505 Y71.527
X11.443 Y71.583
X11.339 Y71.707
X11.273 Y71.855
X11.25 Y72.016
Y73.504
X11.257 Y73.556 Z-15.473
X11.275 Y73.605 Z-15.447
X11.303 Y73.649 Z-15.42
X11.339 Y73.686 Z-15.393
X11.382 Y73.716 Z-15.367
X11.443 Y73.74 Z-15.333
X11.507 Y73.751 Z-15.3
G2 X11.786 Y73.597 I0.016 J-0.3
X11.493 Y72.297 I-0.874 J-0.486
G1 X11.439 Y72.261 Z-15.333
X11.382 Y72.228 Z-15.367
X11.339 Y72.199 Z-15.393
X11.303 Y72.161 Z-15.42
X11.275 Y72.117 Z-15.447
X11.257 Y72.068 Z-15.473
X11.25 Y72.016 Z-15.5
Y71.535
X11.257 Y71.385
X11.293 Y71.239
X11.349 Y71.1
X11.42 Y70.968
X11.503 Y70.843
X11.607 Y70.711
X11.749 Y70.557
X11.911 Y70.408
X12.13 Y70.237
X12.397 Y70.061
X12.755 Y69.864
X13.19 Y69.669
X13.726 Y69.478
X14.274 Y69.327
X14.829 Y69.204
X15.388 Y69.099
X15.949 Y69.006
X16.51 Y68.913
X17.068 Y68.806
X17.342 Y68.728
X17.603 Y68.617
X17.828 Y68.442
X18.2 Y68.012
X18.43 Y67.492
X18.567 Y66.94
X18.646 Y66.377
X18.691 Y65.81
X18.717 Y65.242
X18.731 Y64.674
X18.74 Y64.105
X18.744 Y63.537
X18.747 Y62.968
X18.749 Y61.831
X18.75 Y57.282
Y27.714
X18.751 Y26.008
X18.754 Y24.302
X18.758 Y23.165
X18.761 Y22.597
X18.766 Y22.028
X18.771 Y21.459
X18.779 Y20.891
X18.789 Y20.322
X18.802 Y19.754
X18.819 Y19.185
X18.841 Y18.617
X18.868 Y18.049
X18.902 Y17.482
X18.945 Y16.915
X18.998 Y16.349
X19.064 Y15.784
X19.144 Y15.221
X19.243 Y14.661
X19.365 Y14.105
X19.516 Y13.557
X19.701 Y13.02
X19.903 Y12.546
X20.113 Y12.144
X20.328 Y11.803
X20.531 Y11.532
X20.606 Y11.447
X20.731 Y11.341
X20.881 Y11.273
X21.043 Y11.25
X22.513
X22.565 Y11.257 Z-15.473
X22.614 Y11.275 Z-15.447
X22.658 Y11.303 Z-15.42
X22.696 Y11.339 Z-15.393
X22.725 Y11.382 Z-15.367
X22.75 Y11.443 Z-15.333
X22.761 Y11.507 Z-15.3
G3 X22.593 Y11.802 I-0.308 J0.02
X21.324 Y11.493 I-0.456 J-0.89
G1 X21.288 Y11.439 Z-15.333
X21.255 Y11.382 Z-15.367
X21.226 Y11.339 Z-15.393
X21.188 Y11.303 Z-15.42
X21.144 Y11.275 Z-15.447
X21.095 Y11.257 Z-15.473
X21.043 Y11.25 Z-15.5
X20.545
X20.395 Y11.257
X20.25 Y11.296
X20.111 Y11.354
X19.98 Y11.426
X19.852 Y11.513
X19.721 Y11.619
X19.568 Y11.763
X19.414 Y11.934
X19.243 Y12.157
X19.064 Y12.434
X18.867 Y12.801
X18.674 Y13.243
X18.488 Y13.78
X18.342 Y14.33
X18.225 Y14.886
X18.13 Y15.447
X18.053 Y16.01
X17.991 Y16.575
X17.94 Y17.142
X17.899 Y17.709
X17.866 Y18.276
X17.84 Y18.844
X17.819 Y19.413
X17.802 Y19.981
X17.79 Y20.549
X17.78 Y21.118
X17.772 Y21.687
X17.766 Y22.255
X17.762 Y22.824
X17.756 Y23.961
X17.752 Y25.667
X17.75 Y29.078
Y60.352
X17.748 Y62.058
X17.747 Y62.627
X17.744 Y63.195
X17.74 Y63.764
X17.732 Y64.333
X17.718 Y64.901
X17.692 Y65.469
X17.646 Y66.036
X17.55 Y66.596
X17.425 Y66.852
X17.069 Y67.295
X16.59 Y67.602
X16.064 Y67.818
X15.52 Y67.983
X14.969 Y68.125
X14.418 Y68.264
X13.87 Y68.415
X13.328 Y68.589
X12.799 Y68.795
X12.332 Y69.018
X11.963 Y69.233
X11.657 Y69.445
X11.463 Y69.605
X11.348 Y69.732
X11.275 Y69.886
X11.25 Y70.056
Y71.535
X11.257 Y71.587 Z-15.473
X11.275 Y71.636 Z-15.447
X11.303 Y71.68 Z-15.42
X11.339 Y71.718 Z-15.393
X11.382 Y71.747 Z-15.367
X11.443 Y71.771 Z-15.333
X11.507 Y71.782 Z-15.3
G2 X11.794 Y71.622 I0.018 J-0.304
X11.493 Y70.337 I-0.882 J-0.472
G1 X11.439 Y70.3 Z-15.333
X11.382 Y70.268 Z-15.367
X11.339 Y70.238 Z-15.393
X11.303 Y70.201 Z-15.42
X11.275 Y70.156 Z-15.447
X11.257 Y70.107 Z-15.473
X11.25 Y70.056 Z-15.5
Y69.572
X11.257 Y69.422
X11.293 Y69.276
X11.349 Y69.137
X11.419 Y69.004
X11.502 Y68.879
X11.616 Y68.734
X11.748 Y68.592
X11.922 Y68.431
X12.147 Y68.255
X12.429 Y68.069
X12.8 Y67.865
X13.318 Y67.632
X13.854 Y67.44
X14.397 Y67.272
X14.942 Y67.11
X15.481 Y66.928
X15.72 Y66.774
X16.125 Y66.375
X16.381 Y65.867
X16.536 Y65.32
X16.627 Y64.759
X16.68 Y64.193
X16.71 Y63.625
X16.727 Y63.057
X16.737 Y62.488
X16.743 Y61.919
X16.746 Y61.351
X16.749 Y60.214
X16.75 Y56.802
Y28.371
X16.753 Y25.528
X16.755 Y24.391
X16.76 Y23.254
X16.764 Y22.685
X16.769 Y22.116
X16.776 Y21.548
X16.784 Y20.979
X16.796 Y20.411
X16.81 Y19.842
X16.828 Y19.274
X16.851 Y18.706
X16.88 Y18.138
X16.915 Y17.57
X16.959 Y17.004
X17.013 Y16.437
X17.078 Y15.873
X17.158 Y15.31
X17.255 Y14.749
X17.375 Y14.194
X17.524 Y13.645
X17.705 Y13.106
X17.915 Y12.6
X18.125 Y12.191
X18.341 Y11.841
X18.549 Y11.559
X18.643 Y11.451
X18.768 Y11.342
X18.919 Y11.274
X19.083 Y11.25
X20.545
X20.596 Y11.257 Z-15.473
X20.646 Y11.275 Z-15.447
X20.69 Y11.303 Z-15.42
X20.727 Y11.339 Z-15.393
X20.757 Y11.382 Z-15.367
X20.781 Y11.443 Z-15.333
X20.793 Y11.507 Z-15.3
G3 X20.619 Y11.809 I-0.311 J0.022
X19.364 Y11.493 I-0.442 J-0.897
G1 X19.328 Y11.439 Z-15.333
X19.295 Y11.382 Z-15.367
X19.266 Y11.339 Z-15.393
X19.228 Y11.303 Z-15.42
X19.184 Y11.275 Z-15.447
X19.135 Y11.257 Z-15.473
X19.083 Y11.25 Z-15.5
X18.608
X18.458 Y11.257
X18.312 Y11.292
X18.173 Y11.346
X18.04 Y11.416
X17.908 Y11.503
X17.78 Y11.603
X17.635 Y11.736
X17.471 Y11.912
X17.31 Y12.116
X17.124 Y12.396
X16.938 Y12.73
X16.739 Y13.166
X16.546 Y13.701
X16.393 Y14.248
X16.27 Y14.803
X16.17 Y15.363
X16.089 Y15.926
X16.022 Y16.491
X15.967 Y17.057
X15.923 Y17.623
X15.886 Y18.191
X15.857 Y18.759
X15.833 Y19.327
X15.814 Y19.895
X15.799 Y20.464
X15.788 Y21.032
X15.778 Y21.601
X15.771 Y22.169
X15.766 Y22.738
X15.762 Y23.306
X15.756 Y24.444
X15.752 Y26.149
X15.75 Y29.561
X15.749 Y59.129
X15.748 Y60.266
X15.747 Y60.835
X15.744 Y61.404
X15.74 Y61.972
X15.732 Y62.541
X15.718 Y63.109
X15.692 Y63.677
X15.645 Y64.244
X15.557 Y64.806
X15.443 Y65.066
X15.117 Y65.532
X14.668 Y65.881
X14.169 Y66.154
X13.652 Y66.39
X13.133 Y66.621
X12.619 Y66.866
X12.163 Y67.116
X11.792 Y67.359
X11.509 Y67.58
X11.439 Y67.644
X11.337 Y67.768
X11.272 Y67.915
X11.25 Y68.074
Y69.572
X11.257 Y69.623 Z-15.473
X11.275 Y69.672 Z-15.447
X11.303 Y69.717 Z-15.42
X11.339 Y69.754 Z-15.393
X11.382 Y69.784 Z-15.367
X11.443 Y69.808 Z-15.333
X11.508 Y69.818 Z-15.3
G2 X11.776 Y69.672 I0.013 J-0.295
X11.493 Y68.355 I-0.864 J-0.504
G1 X11.439 Y68.318 Z-15.333
X11.382 Y68.286 Z-15.367
X11.339 Y68.256 Z-15.393
X11.303 Y68.219 Z-15.42
X11.275 Y68.175 Z-15.447
X11.257 Y68.126 Z-15.473
X11.25 Y68.074 Z-15.5
Y67.564
X11.257 Y67.414
X11.296 Y67.269
X11.353 Y67.13
X11.424 Y66.998
X11.517 Y66.858
X11.631 Y66.713
X11.788 Y66.543
X11.997 Y66.35
X12.298 Y66.115
X12.772 Y65.801
X13.266 Y65.52
X13.753 Y65.226
X14.136 Y64.806
X14.384 Y64.294
X14.535 Y63.746
X14.625 Y63.185
X14.678 Y62.619
X14.709 Y62.051
X14.726 Y61.483
X14.736 Y60.914
X14.742 Y60.345
X14.746 Y59.777
X14.749 Y58.64
X14.75 Y55.797
X14.751 Y28.503
X14.752 Y26.229
X14.757 Y24.523
X14.762 Y23.386
X14.767 Y22.817
X14.772 Y22.248
X14.779 Y21.68
X14.789 Y21.111
X14.801 Y20.543
X14.816 Y19.974
X14.835 Y19.406
X14.858 Y18.838
X14.887 Y18.27
X14.923 Y17.703
X14.967 Y17.136
X15.021 Y16.57
X15.086 Y16.005
X15.165 Y15.442
X15.261 Y14.881
X15.378 Y14.325
X15.52 Y13.774
X15.693 Y13.233
X15.9 Y12.71
X16.119 Y12.266
X16.328 Y11.916
X16.542 Y11.617
X16.675 Y11.458
X16.801 Y11.346
X16.954 Y11.274
X17.121 Y11.25
X18.608
X18.66 Y11.257 Z-15.473
X18.709 Y11.275 Z-15.447
X18.753 Y11.303 Z-15.42
X18.791 Y11.339 Z-15.393
X18.82 Y11.382 Z-15.367
X18.844 Y11.443 Z-15.333
X18.855 Y11.507 Z-15.3
G3 X18.701 Y11.786 I-0.3 J0.016
X17.402 Y11.493 I-0.485 J-0.875
G1 X17.366 Y11.439 Z-15.333
X17.333 Y11.382 Z-15.367
X17.304 Y11.339 Z-15.393
X17.266 Y11.303 Z-15.42
X17.222 Y11.275 Z-15.447
X17.173 Y11.257 Z-15.473
X17.121 Y11.25 Z-15.5
X16.64
X16.49 Y11.257
X16.344 Y11.292
X16.205 Y11.348
X16.072 Y11.418
X15.944 Y11.503
X15.803 Y11.613
X15.663 Y11.743
X15.499 Y11.92
X15.334 Y12.132
X15.149 Y12.412
X14.962 Y12.75
X14.759 Y13.203
X14.567 Y13.738
X14.415 Y14.286
X14.291 Y14.841
X14.191 Y15.401
X14.108 Y15.963
X14.039 Y16.528
X13.983 Y17.094
X13.937 Y17.66
X13.899 Y18.228
X13.868 Y18.796
X13.843 Y19.364
X13.823 Y19.932
X13.806 Y20.5
X13.794 Y21.069
X13.783 Y21.637
X13.775 Y22.206
X13.769 Y22.774
X13.764 Y23.343
X13.758 Y24.48
X13.753 Y26.186
X13.751 Y29.029
X13.749 Y57.46
X13.747 Y59.166
X13.744 Y59.734
X13.74 Y60.303
X13.733 Y60.872
X13.72 Y61.44
X13.696 Y62.008
X13.654 Y62.575
X13.575 Y63.138
X13.404 Y63.681
X13.071 Y64.142
X12.659 Y64.534
X11.776 Y65.25
X11.424 Y65.566
X11.41 Y65.58
X11.323 Y65.699
X11.269 Y65.836
X11.25 Y65.982
Y67.564
X11.257 Y67.615 Z-15.473
X11.275 Y67.664 Z-15.447
X11.303 Y67.709 Z-15.42
X11.339 Y67.746 Z-15.393
X11.382 Y67.776 Z-15.367
X11.422 Y67.792 Z-15.344
X11.465 Y67.802 Z-15.322
X11.509 Y67.803 Z-15.3
X11.557 Y67.796
X11.603 Y67.778
X11.644 Y67.752
X11.679 Y67.718
G2 X11.493 Y66.263 I-0.767 J-0.641
G1 X11.439 Y66.227 Z-15.333
X11.382 Y66.194 Z-15.367
X11.339 Y66.165 Z-15.393
X11.303 Y66.127 Z-15.42
X11.275 Y66.083 Z-15.447
X11.257 Y66.034 Z-15.473
X11.25 Y65.982 Z-15.5
Y65.439
X11.257 Y65.29
X11.291 Y65.143
X11.339 Y65.001
X11.411 Y64.839
X11.539 Y64.602
X11.849 Y64.125
X12.164 Y63.652
X12.385 Y63.128
X12.528 Y62.578
X12.617 Y62.016
X12.671 Y61.45
X12.703 Y60.882
X12.722 Y60.314
X12.734 Y59.745
X12.741 Y59.177
X12.744 Y58.608
X12.748 Y57.471
X12.75 Y55.196
X12.751 Y29.04
X12.752 Y26.766
X12.756 Y25.06
X12.762 Y23.923
X12.765 Y23.354
X12.77 Y22.785
X12.777 Y22.217
X12.785 Y21.648
X12.796 Y21.08
X12.809 Y20.511
X12.826 Y19.943
X12.847 Y19.375
X12.872 Y18.807
X12.904 Y18.239
X12.942 Y17.672
X12.989 Y17.105
X13.045 Y16.539
X13.113 Y15.975
X13.195 Y15.412
X13.294 Y14.852
X13.414 Y14.296
X13.56 Y13.747
X13.736 Y13.206
X13.948 Y12.68
X14.164 Y12.248
X14.375 Y11.897
X14.59 Y11.6
X14.712 Y11.456
X14.838 Y11.345
X14.99 Y11.274
X15.157 Y11.25
X16.64
X16.692 Y11.257 Z-15.473
X16.741 Y11.275 Z-15.447
X16.785 Y11.303 Z-15.42
X16.823 Y11.339 Z-15.393
X16.852 Y11.382 Z-15.367
X16.876 Y11.443 Z-15.333
X16.887 Y11.507 Z-15.3
G3 X16.73 Y11.79 I-0.302 J0.017
X15.437 Y11.493 I-0.479 J-0.878
G1 X15.401 Y11.439 Z-15.333
X15.368 Y11.382 Z-15.367
X15.339 Y11.339 Z-15.393
X15.302 Y11.303 Z-15.42
X15.257 Y11.275 Z-15.447
X15.208 Y11.257 Z-15.473
X15.157 Y11.25 Z-15.5
X14.677
X14.527 Y11.257
X14.381 Y11.292
X14.242 Y11.347
X14.109 Y11.417
X13.98 Y11.502
X13.842 Y11.61
X13.701 Y11.739
X13.536 Y11.918
X13.371 Y12.127
X13.183 Y12.411
X12.996 Y12.748
X12.79 Y13.202
X12.598 Y13.737
X12.444 Y14.285
X12.318 Y14.839
X12.215 Y15.399
X12.13 Y15.961
X12.06 Y16.525
X12.002 Y17.091
X11.954 Y17.657
X11.914 Y18.224
X11.881 Y18.792
X11.854 Y19.36
X11.833 Y19.928
X11.815 Y20.497
X11.801 Y21.065
X11.789 Y21.634
X11.78 Y22.202
X11.773 Y22.771
X11.768 Y23.339
X11.76 Y24.477
X11.755 Y25.614
X11.752 Y27.32
X11.75 Y30.731
Y55.75
X11.748 Y57.456
X11.746 Y58.025
X11.743 Y58.593
X11.738 Y59.162
X11.729 Y59.731
X11.714 Y60.299
X11.689 Y60.867
X11.644 Y61.434
X11.566 Y61.997
X11.423 Y62.547
X11.296 Y62.846
X11.271 Y62.919
X11.255 Y62.996
X11.25 Y63.073
Y65.439
G2 X11.508 Y65.681 Z-15.3 I0.25 J-0.009
G1 X11.557 Y65.674
X11.603 Y65.658
X11.646 Y65.634
X11.683 Y65.601
G2 X11.909 Y65.18 I-0.689 J-0.642
X11.466 Y63.388 I-1.944 J-0.47
G1 X11.399 Y63.316 Z-15.35
X11.329 Y63.247 Z-15.4
X11.297 Y63.211 Z-15.425
X11.272 Y63.168 Z-15.45
X11.257 Y63.122 Z-15.475
X11.25 Y63.073 Z-15.5
Y16.239
X11.278 Y15.671
X11.325 Y15.105
X11.412 Y14.543
X11.533 Y13.987
X11.689 Y13.44
X11.883 Y12.906
X12.094 Y12.442
X12.314 Y12.047
X12.526 Y11.728
X12.734 Y11.465
X12.81 Y11.383
X12.979 Y11.255
X13.181 Y11.193
X13.393 Y11.203
G3 X13.571 Y11.508 Z-15.3 I-0.064 J0.242
G1 X13.563 Y11.534
X13.449 Y11.831
X11.752 Y16.271
X11.733 Y16.32
G3 X11.508 Y16.48 I-0.234 J-0.089
X11.25 Y16.239 Z-15.5 I-0.009 J-0.25
G1 Y14.044
X11.247 Y13.915
X11.233 Y13.592
X11.219 Y13.528
X11.191 Y13.38
X11.178 Y13.22
X11.177 Y13.038
X11.192 Y12.839
X11.23 Y12.6
X11.29 Y12.352
X11.38 Y12.078
X11.503 Y11.788
X11.625 Y11.552
X11.751 Y11.35
X11.869 Y11.191
X11.973 Y11.073
X12.098 Y10.952
X12.142 Y10.916
X12.319 Y10.815
X12.52 Y10.782
X12.72 Y10.82
X12.895 Y10.925
X12.93 Y10.964
X12.955 Y11.01
X12.97 Y11.06
X12.969 Y11.086
X12.954 Y11.107
X12.931 Y11.118
X12.913 Y11.128
X12.903 Y11.145
X12.904 Y11.165
X12.916 Y11.181
X12.935 Y11.188
X12.956 Y11.182
X12.969 Y11.163
X12.975 Y11.112
X12.97 Y11.06
X12.955 Y11.01
X12.93 Y10.964
X12.895 Y10.925
X12.87 Y10.903
X12.775 Y10.816
X12.612 Y10.653
X12.5 Y10.552
X12.361 Y10.498
X12.212 Y10.48
X12.062 Y10.491
X11.916 Y10.524
X11.775 Y10.575
X11.64 Y10.641
X11.512 Y10.72
X11.389 Y10.811
X11.251 Y10.931
X11.119 Y11.065
X10.98 Y11.23
X10.846 Y11.419
X10.725 Y11.623
X10.615 Y11.848
X10.522 Y12.085
X10.517 Y12.102
X10.492 Y12.257
X10.509 Y12.413
X10.568 Y12.559
X10.663 Y12.684
X10.804 Y12.825
X10.86 Y12.882
X10.933 Y12.967
X10.972 Y13 Z-15.474
X11.017 Y13.026 Z-15.448
X11.065 Y13.041 Z-15.422
X11.116 Y13.046 Z-15.396
Z-15.395
X11.172 Y13.04 Z-15.367
X11.213 Y13.025 Z-15.344
X11.249 Y13 Z-15.322
X11.277 Y12.968 Z-15.3
G2 X11.12 Y12.7 I-0.144 J-0.096
G1 X11.034 Y12.71
X10.97 Y12.723 Z-15.333
X10.906 Y12.74 Z-15.367
X10.855 Y12.75 Z-15.393
X10.803 Y12.749 Z-15.42
X10.752 Y12.738 Z-15.447
X10.705 Y12.715 Z-15.473
X10.663 Y12.684 Z-15.5
X10.344 Y12.365
X10.243 Y12.254
X10.183 Y12.117
X10.148 Y11.971
X10.132 Y11.822
X10.134 Y11.672
X10.151 Y11.523
X10.181 Y11.376
X10.228 Y11.216
X10.263 Y11.142
X10.307 Y11.074
X10.36 Y11.012
G3 X10.714 Y11.024 Z-15.3 I0.171 J0.183
G1 X10.743 Y11.062
X10.764 Y11.105
X10.777 Y11.151
X10.781 Y11.199
X10.778 Y11.352
X10.767 Y12.025
X10.764 Y12.187
X10.756 Y12.247
X10.733 Y12.303
X10.697 Y12.353
G3 X10.344 Y12.365 Z-15.5 I-0.183 J-0.17
G1 X9.956 Y11.978
X9.925 Y11.948
X9.901 Y11.923
X9.81 Y11.818
G3 X10.025 Y11.661 I0.115 J-0.068
G1 X10.092 Y11.737
G3 X9.901 Y11.923 I-0.1 J0.089
G1 X9.83 Y11.849
X9.809 Y11.816
X9.795 Y11.784
X9.785 Y11.752
X9.78 Y11.72
X9.779 Y11.687
X9.783 Y11.655
X9.791 Y11.623
X9.803 Y11.591
X9.82 Y11.561
X9.842 Y11.532
X11.063 Y10.309
X11.198 Y10.186
X11.317 Y10.095
X11.374 Y10.059
X11.555 Y9.984
X11.75 Y9.972
X11.938 Y10.026
X12.097 Y10.139
G3 X12.085 Y10.493 Z-15.3 I-0.183 J0.171
G1 X12.034 Y10.529
X11.976 Y10.552
X11.764 Y10.606
X11.399 Y10.698
X11.307 Y10.722
X11.245 Y10.729
X11.183 Y10.721
X11.125 Y10.699
X11.075 Y10.662
G3 X11.063 Y10.309 Z-15.5 I0.17 J-0.183
G1 X11.459 Y9.912
X11.519 Y9.857
X11.549 Y9.838
X11.579 Y9.825
X11.611 Y9.816
X11.643 Y9.811
X11.676
X11.708 Y9.814
X11.74 Y9.822
X11.773 Y9.835
X11.805 Y9.854
X11.837 Y9.88
X12.612 Y10.653
G3 X12.612 Y11.006 Z-15.3 I-0.177 J0.177
X12.258 Y10.653 I-0.177 J-0.176
X12.669 Y10.741 I0.177 J0.176
G1 X12.92 Y11.402
G3 X12.452 Y11.579 I-0.234 J0.089
X12.609 Y11.253 I0.234 J-0.089
X13.002 Y11.178 I0.489 J1.505
X13.393 Y11.203 Z-15.5 I0.096 J1.58
G1 X13.515 Y11.231
X13.644 Y11.238
X13.903 Y11.249
X14.032 Y11.25
X14.677
G3 X14.918 Y11.509 I-0.009 J0.25
X14.66 Y11.75 I-0.25 J-0.009
G1 X14.604 Y11.748 Z-15.494
X14.551 Y11.746 Z-15.475
X14.504 Y11.744 Z-15.445
X14.464 Y11.743 Z-15.406
X14.435 Y11.742 Z-15.358
X14.416 Y11.741 Z-15.306
X14.41 Z-15.25
G0 Z1
M9
M5
M30
