(1006)
(T1  D=2.5 CR=0 - ZMIN=0 - flat end mill)
G90 G94
G17
G21

(Face3)
S5000 M3
G54
G0 X56.625 Y-104.486
Z19.5
Z9.5
G1 Z0.25 F333.3
G18 G3 X56.375 Z0 I-0.25 K0 F1000
G1 X56.26
X-6.26
G17 G2 X-6.26 Y-102.74 I0 J0.873
G1 X56.26
G3 X56.26 Y-100.993 I0 J0.873
G1 X-6.26
G2 X-6.26 Y-99.247 I0 J0.873
G1 X56.26
G3 X56.26 Y-97.5 I0 J0.873
G1 X-6.26
G2 X-6.26 Y-95.754 I0 J0.873
G1 X56.26
G3 X56.26 Y-94.007 I0 J0.873
G1 X-6.26
G2 X-6.26 Y-92.261 I0 J0.873
G1 X56.26
G3 X56.26 Y-90.514 I0 J0.873
G1 X-6.26
G2 X-6.26 Y-88.768 I0 J0.873
G1 X56.26
G3 X56.26 Y-87.021 I0 J0.873
G1 X-6.26
G2 X-6.26 Y-85.275 I0 J0.873
G1 X56.26
G3 X56.26 Y-83.528 I0 J0.873
G1 X-6.26
G2 X-6.26 Y-81.782 I0 J0.873
G1 X56.26
G3 X56.26 Y-80.035 I0 J0.873
G1 X-6.26
G2 X-6.26 Y-78.289 I0 J0.873
G1 X56.26
G3 X56.26 Y-76.543 I0 J0.873
G1 X-6.26
G2 X-6.26 Y-74.796 I0 J0.873
G1 X56.26
G3 X56.26 Y-73.05 I0 J0.873
G1 X-6.26
G2 X-6.26 Y-71.303 I0 J0.873
G1 X56.26
G3 X56.26 Y-69.557 I0 J0.873
G1 X-6.26
G2 X-6.26 Y-67.81 I0 J0.873
G1 X56.26
G3 X56.26 Y-66.064 I0 J0.873
G1 X-6.26
G2 X-6.26 Y-64.317 I0 J0.873
G1 X56.26
G3 X56.26 Y-62.571 I0 J0.873
G1 X18.74
G2 X18.74 Y-60.824 I0 J0.873
G1 X56.26
G3 X56.26 Y-59.078 I0 J0.873
G1 X18.74
G2 X18.74 Y-57.331 I0 J0.873
G1 X56.26
G3 X56.26 Y-55.585 I0 J0.873
G1 X18.74
G2 X18.74 Y-53.838 I0 J0.873
G1 X56.26
G3 X56.26 Y-52.092 I0 J0.873
G1 X18.74
G2 X18.74 Y-50.346 I0 J0.873
G1 X56.26
G3 X56.26 Y-48.599 I0 J0.873
G1 X18.74
G2 X18.74 Y-46.853 I0 J0.873
G1 X56.26
G18 G2 X56.51 Z0.25 I0 K0.25
G0 Z9.5
X1.51 Y-53.838
G1 Z0.25 F333.3
G3 X1.26 Z0 I-0.25 K0 F1000
G1 X-6.26
G17 G2 X-6.26 Y-52.092 I0 J0.873
G1 X1.26
G3 X1.26 Y-50.346 I0 J0.873
G1 X-6.26
G2 X-6.26 Y-48.599 I0 J0.873
G1 X1.26
G3 X1.26 Y-46.853 I0 J0.873
G1 X-6.26
G2 X-6.26 Y-45.106 I0 J0.873
G1 X56.26
G3 X56.26 Y-43.36 I0 J0.873
G1 X-6.26
G2 X-6.26 Y-41.613 I0 J0.873
G1 X56.26
G3 X56.26 Y-39.867 I0 J0.873
G1 X-6.26
G2 X-6.26 Y-38.12 I0 J0.873
G1 X56.26
G3 X56.26 Y-36.374 I0 J0.873
G1 X-6.26
G2 X-6.26 Y-34.627 I0 J0.873
G1 X56.26
G3 X56.26 Y-32.881 I0 J0.873
G1 X-6.26
G2 X-6.26 Y-31.134 I0 J0.873
G1 X56.26
G3 X56.26 Y-29.388 I0 J0.873
G1 X-6.26
G2 X-6.26 Y-27.641 I0 J0.873
G1 X56.26
G3 X56.26 Y-25.895 I0 J0.873
G1 X-6.26
G2 X-6.26 Y-24.148 I0 J0.873
G1 X56.26
G3 X56.26 Y-22.402 I0 J0.873
G1 X-6.26
G2 X-6.26 Y-20.656 I0 J0.873
G1 X56.26
G3 X56.26 Y-18.909 I0 J0.873
G1 X-6.26
G2 X-6.26 Y-17.163 I0 J0.873
G1 X1.26
G3 X1.26 Y-15.416 I0 J0.873
G1 X-6.26
G2 X-6.26 Y-13.67 I0 J0.873
G1 X1.26
G3 X1.26 Y-11.923 I0 J0.873
G1 X-6.26
G2 X-6.26 Y-10.177 I0 J0.873
G1 X1.26
G3 X1.26 Y-8.43 I0 J0.873
G1 X-6.26
G2 X-6.26 Y-6.684 I0 J0.873
G1 X1.26
G3 X1.26 Y-4.937 I0 J0.873
G1 X-6.26
G2 X-6.26 Y-3.191 I0 J0.873
G1 X1.26
G3 X1.26 Y-1.444 I0 J0.873
G1 X-6.26
G2 X-6.26 Y0.302 I0 J0.873
G1 X37.26
G18 G2 X37.51 Z0.25 I0 K0.25
G0 Z9.5
X48.375 Y-17.163
G1 Z0.25 F333.3
G2 X48.625 Z0 I0.25 K0 F1000
G1 X48.74
X56.26
G17 G3 X56.26 Y-15.416 I0 J0.873
G1 X48.74
G2 X48.74 Y-13.67 I0 J0.873
G1 X56.26
G3 X56.26 Y-11.923 I0 J0.873
G1 X48.74
G2 X48.74 Y-10.177 I0 J0.873
G1 X56.26
G3 X56.26 Y-8.43 I0 J0.873
G1 X48.74
G2 X48.74 Y-6.684 I0 J0.873
G1 X56.26
G3 X56.26 Y-4.937 I0 J0.873
G1 X48.74
G2 X48.74 Y-3.191 I0 J0.873
G1 X56.26
G3 X56.26 Y-1.444 I0 J0.873
G1 X48.74
G18 G3 X48.49 Z0.25 I0 K0.25
G0 Z9.5
X56.625 Y0.302
G1 Z0.25 F333.3
G3 X56.375 Z0 I-0.25 K0 F1000
G1 X56.26
X38.74
G17 G2 X38.74 Y2.049 I0 J0.873
G1 X56.26
G18 G2 X56.51 Z0.25 I0 K0.25
G0 Z9.5
X37.625
G1 Z0.25 F333.3
G3 X37.375 Z0 I-0.25 K0 F1000
G1 X37.26
X-6.26
G17 G2 X-6.26 Y3.795 I0 J0.873
G1 X37.26
X38.74
X56.26
G18 G2 X56.51 Z0.25 I0 K0.25
G0 Z9.5
X1.625 Y-62.571
G1 Z0.25 F333.3
G3 X1.375 Z0 I-0.25 K0 F1000
G1 X1.26
X-6.26
G17 G2 X-6.26 Y-60.824 I0 J0.873
G1 X1.26
G3 X1.26 Y-59.078 I0 J0.873
G1 X-6.26
G2 X-6.26 Y-57.331 I0 J0.873
G1 X1.26
G18 G2 X1.51 Z0.25 I0 K0.25
G0 Z19.5
G17
M5
M30
